ncols        182
nrows        90
xllcorner    0.042745549103
yllcorner    51.013342841422
cellsize     0.027778630969
NODATA_value nan
0.0 0 0 0 9.9594182968139648438 9.9271821975708007813 9.893680572509765625 9.8590946197509765625 9.8254594802856445313 9.796161651611328125 9.7757558822631835938 9.7650356292724609375 9.76451873779296875 9.7785587310791015625 9.8025665283203125 9.824512481689453125 9.8371639251708984375 9.8411817550659179688 9.8470411300659179688 9.8520307540893554688 9.859867095947265625 9.8723936080932617188 9.8734483718872070313 9.8423309326171875 9.7944192886352539063 9.7656145095825195313 9.7603921890258789063 9.7557525634765625 9.7505865097045898438 9.7446050643920898438 9.7382020950317382813 9.7307100296020507813 9.7210626602172851563 9.7083158493041992188 9.6945819854736328125 9.6864557266235351563 9.6880054473876953125 9.6970195770263671875 9.7111072540283203125 9.728729248046875 9.7479801177978515625 9.7668676376342773438 9.7841730117797851563 9.7987003326416015625 9.8094263076782226563 9.8152256011962890625 9.8178462982177734375 9.8182573318481445313 9.8167352676391601563 9.8172502517700195313 9.8230037689208984375 9.8335628509521484375 9.8455762863159179688 9.8557062149047851563 9.8607606887817382813 9.8601551055908203125 9.857074737548828125 9.8547954559326171875 9.853649139404296875 9.8543806076049804688 9.85736846923828125 9.86025238037109375 9.8634214401245117188 9.8675479888916015625 9.8746137619018554688 9.8855524063110351563 9.8995637893676757813 9.9159517288208007813 9.933628082275390625 9.9512033462524414063 9.9680767059326171875 9.984279632568359375 10.001008987426757813 10.0191497802734375 10.037111282348632813 10.050481796264648438 10.062355995178222656 10.073736190795898438 10.085102081298828125 10.097059249877929688 10.11032867431640625 10.124048233032226563 10.136686325073242188 10.14749908447265625 10.15631866455078125 10.163616180419921875 10.169934272766113281 10.176178932189941406 10.182149887084960938 10.18817901611328125 10.193980216979980469 10.199060440063476563 10.203161239624023438 10.206081390380859375 10.207982063293457031 10.209235191345214844 10.210120201110839844 10.210941314697265625 10.212118148803710938 10.214111328125 10.217276573181152344 10.221846580505371094 10.227647781372070313 10.234421730041503906 10.241823196411132813 10.249408721923828125 10.25701141357421875 10.264544486999511719 10.271915435791015625 10.278743743896484375 10.284864425659179688 10.290070533752441406 10.29448699951171875 10.298475265502929688 10.302173614501953125 10.305767059326171875 10.309351921081542969 10.313082695007324219 10.31690216064453125 10.321221351623535156 10.325856208801269531 10.33075714111328125 10.335810661315917969 10.341014862060546875 10.346082687377929688 10.3509674072265625 10.355913162231445313 10.360837936401367188 10.365930557250976563 10.371580123901367188 10.378048896789550781 10.38558197021484375 10.394178390502929688 10.403822898864746094 10.413872718811035156 10.423771858215332031 10.433182716369628906 10.441929817199707031 10.450188636779785156 10.4582366943359375 10.466251373291015625 10.474452018737792969 10.483084678649902344 10.49234771728515625 10.50238800048828125 10.513193130493164063 10.524678230285644531 10.536451339721679688 10.548157691955566406 10.558409690856933594 10.567800521850585938 10.57680511474609375 10.585684776306152344 10.594873428344726563 10.604557991027832031 10.614580154418945313 10.624652862548828125 10.63452911376953125 10.644154548645019531 10.653689384460449219 10.663928985595703125 10.6750640869140625 10.687272071838378906 10.69979095458984375 10.712174415588378906 10.723582267761230469 10.73352813720703125 10.741616249084472656 10.7474212646484375 10.75052642822265625 10.751366615295410156 10.750306129455566406 10.747911453247070313 10.744520187377929688 10.73995208740234375 10.733796119689941406 10.726161956787109375 10.716561317443847656 10.705208778381347656 10.6926116943359375 10.67911529541015625 10.664832115173339844 
0 0 0 0 0 9.9963769912719726563 9.9615926742553710938 9.92035675048828125 9.8743696212768554688 9.83969879150390625 9.8192605972290039063 9.8108463287353515625 9.8156671524047851563 9.8345098495483398438 9.8621349334716796875 9.8890380859375 9.9072351455688476563 9.9156208038330078125 9.921600341796875 9.9266195297241210938 9.9345731735229492188 9.9475107192993164063 9.9341306686401367188 9.873462677001953125 9.815673828125 9.7961368560791015625 9.7912244796752929688 9.7852840423583984375 9.7787761688232421875 9.7720251083374023438 9.7646017074584960938 9.7559146881103515625 9.745166778564453125 9.7309598922729492188 9.7136363983154296875 9.699619293212890625 9.6952991485595703125 9.6997470855712890625 9.710376739501953125 9.7251453399658203125 9.7424163818359375 9.7605228424072265625 9.7785787582397460938 9.7954874038696289063 9.8100452423095703125 9.8211240768432617188 9.8289880752563476563 9.8332147598266601563 9.8339586257934570313 9.8330488204956054688 9.8361711502075195313 9.8447742462158203125 9.8559637069702148438 9.8668270111083984375 9.8740491867065429688 9.8770093917846679688 9.8774175643920898438 9.8770275115966796875 9.8768301010131835938 9.8776378631591796875 9.8797435760498046875 9.8822040557861328125 9.8848161697387695313 9.8874082565307617188 9.8912601470947265625 9.898471832275390625 9.90868377685546875 9.92227935791015625 9.9380197525024414063 9.954563140869140625 9.971038818359375 9.9873113632202148438 10.003984451293945313 10.02111053466796875 10.0376129150390625 10.051976203918457031 10.064112663269042969 10.075369834899902344 10.086441993713378906 10.097508430480957031 10.108933448791503906 10.120657920837402344 10.132502555847167969 10.144131660461425781 10.15484619140625 10.164225578308105469 10.172192573547363281 10.179190635681152344 10.185441970825195313 10.190926551818847656 10.195348739624023438 10.199025154113769531 10.202240943908691406 10.20461273193359375 10.20523834228515625 10.205350875854492188 10.205433845520019531 10.206066131591796875 10.207850456237792969 10.211256980895996094 10.216492652893066406 10.223459243774414063 10.231762886047363281 10.240824699401855469 10.249996185302734375 10.25878143310546875 10.266829490661621094 10.274084091186523438 10.2814788818359375 10.287792205810546875 10.293321609497070313 10.297915458679199219 10.301854133605957031 10.305592536926269531 10.309427261352539063 10.313410758972167969 10.317460060119628906 10.321561813354492188 10.325774192810058594 10.330240249633789063 10.335235595703125 10.34090423583984375 10.347105026245117188 10.353619575500488281 10.360014915466308594 10.366222381591796875 10.372214317321777344 10.378536224365234375 10.385572433471679688 10.393518447875976563 10.402679443359375 10.412767410278320313 10.4236297607421875 10.435038566589355469 10.446423530578613281 10.457155227661132813 10.466858863830566406 10.475450515747070313 10.483209609985351563 10.490703582763671875 10.498089790344238281 10.505802154541015625 10.513957977294921875 10.522832870483398438 10.532523155212402344 10.542988777160644531 10.553945541381835938 10.564859390258789063 10.575328826904296875 10.585206031799316406 10.594729423522949219 10.6038970947265625 10.613190650939941406 10.62297821044921875 10.633250236511230469 10.643709182739257813 10.654137611389160156 10.664411544799804688 10.674595832824707031 10.685090065002441406 10.695944786071777344 10.706988334655761719 10.718361854553222656 10.72902679443359375 10.738267898559570313 10.746422767639160156 10.752994537353515625 10.757699012756347656 10.760836601257324219 10.762020111083984375 10.760952949523925781 10.757889747619628906 10.753023147583007813 10.746440887451171875 10.738636970520019531 10.7297821044921875 10.719930648803710938 10.708730697631835938 10.695317268371582031 10.679471015930175781 10.661012649536132813 10.640067100524902344 
0 0 0 0 0 0 10.031553268432617188 9.9883356094360351563 9.9342708587646484375 9.8973474502563476563 9.8732557296752929688 9.8620595932006835938 9.8682994842529296875 9.8902368545532226563 9.9187250137329101563 9.94598388671875 9.9648962020874023438 9.975284576416015625 9.9819774627685546875 9.9873056411743164063 9.9923343658447265625 9.99326324462890625 9.9747934341430664063 9.9092855453491210938 9.8427762985229492188 9.8252058029174804688 9.8168897628784179688 9.8082990646362304688 9.8006038665771484375 9.793212890625 9.7857036590576171875 9.777400970458984375 9.7668313980102539063 9.7525234222412109375 9.7347421646118164063 9.7175607681274414063 9.7076005935668945313 9.7068233489990234375 9.7127857208251953125 9.7239103317260742188 9.7378997802734375 9.7538356781005859375 9.7710781097412109375 9.7879352569580078125 9.804012298583984375 9.8186883926391601563 9.830841064453125 9.83965301513671875 9.8453006744384765625 9.8480777740478515625 9.8507280349731445313 9.8563747406005859375 9.8653459548950195313 9.8751010894775390625 9.8837432861328125 9.889984130859375 9.8936634063720703125 9.8957338333129882813 9.8968610763549804688 9.8977746963500976563 9.8991441726684570313 9.9009857177734375 9.9030504226684570313 9.9052705764770507813 9.908298492431640625 9.9131412506103515625 9.9202985763549804688 9.9302358627319335938 9.9433946609497070313 9.9582805633544921875 9.97415924072265625 9.9904270172119140625 10.007107734680175781 10.023655891418457031 10.038954734802246094 10.05248260498046875 10.064544677734375 10.075647354125976563 10.086682319641113281 10.098492622375488281 10.110597610473632813 10.121781349182128906 10.131956100463867188 10.142664909362792969 10.152499198913574219 10.162201881408691406 10.172580718994140625 10.182065010070800781 10.18959808349609375 10.195099830627441406 10.198633193969726563 10.200541496276855469 10.201597213745117188 10.20217132568359375 10.201876640319824219 10.201437950134277344 10.201435089111328125 10.202768325805664063 10.206042289733886719 10.211549758911132813 10.21941375732421875 10.22917938232421875 10.240096092224121094 10.2511749267578125 10.261467933654785156 10.270450592041015625 10.277804374694824219 10.284112930297851563 10.290719032287597656 10.296079635620117188 10.301051139831542969 10.305379867553710938 10.309287071228027344 10.313335418701171875 10.317774772644042969 10.3222808837890625 10.326709747314453125 10.33104705810546875 10.335438728332519531 10.340353965759277344 10.346545219421386719 10.35434722900390625 10.363461494445800781 10.372996330261230469 10.381404876708984375 10.389096260070800781 10.395864486694335938 10.403096199035644531 10.412189483642578125 10.422453880310058594 10.433276176452636719 10.444870948791503906 10.45708465576171875 10.4694061279296875 10.481196403503417969 10.491729736328125 10.500890731811523438 10.508985519409179688 10.516253471374511719 10.523366928100585938 10.530141830444335938 10.537305831909179688 10.544740676879882813 10.5529022216796875 10.561763763427734375 10.571348190307617188 10.581337928771972656 10.591340065002441406 10.601263046264648438 10.611141204833984375 10.620817184448242188 10.630249977111816406 10.639931678771972656 10.650023460388183594 10.660457611083984375 10.670782089233398438 10.681090354919433594 10.691496849060058594 10.702367782592773438 10.713449478149414063 10.724482536315917969 10.735332489013671875 10.7451171875 10.752652168273925781 10.758148193359375 10.762540817260742188 10.765542984008789063 10.76709747314453125 10.766954421997070313 10.765163421630859375 10.761590003967285156 10.755891799926757813 10.748169898986816406 10.738636970520019531 10.727521896362304688 10.715504646301269531 10.702722549438476563 10.688261985778808594 10.671397209167480469 10.650940895080566406 10.625844955444335938 10.596765518188476563 
0 0 0 0 0 0 0 10.039067268371582031 9.991119384765625 9.9559230804443359375 9.929347991943359375 9.9152154922485351563 9.9181365966796875 9.9373521804809570313 9.963592529296875 9.9889593124389648438 10.00746917724609375 10.019275665283203125 10.026412010192871094 10.029840469360351563 10.027902603149414063 10.018410682678222656 9.9946279525756835938 9.94573211669921875 9.8853931427001953125 9.8495836257934570313 9.836299896240234375 9.8260850906372070313 9.817981719970703125 9.8106899261474609375 9.8039340972900390625 9.7965335845947265625 9.78693389892578125 9.7735490798950195313 9.7558546066284179688 9.7377614974975585938 9.72480010986328125 9.7189989089965820313 9.7198076248168945313 9.7267503738403320313 9.7374820709228515625 9.7512578964233398438 9.7666101455688476563 9.7824764251708984375 9.7989358901977539063 9.8142347335815429688 9.8283281326293945313 9.840167999267578125 9.849517822265625 9.8562908172607421875 9.8612394332885742188 9.8669557571411132813 9.87488555908203125 9.8830633163452148438 9.89102935791015625 9.8981466293334960938 9.9038076400756835938 9.9083118438720703125 9.9112234115600585938 9.91275787353515625 9.914218902587890625 9.9160585403442382813 9.9183282852172851563 9.9207515716552734375 9.9235811233520507813 9.9271917343139648438 9.9320850372314453125 9.9394969940185546875 9.9497432708740234375 9.9624271392822265625 9.9771127700805664063 9.9930677413940429688 10.009904861450195313 10.028080940246582031 10.044549942016601563 10.059009552001953125 10.071326255798339844 10.082061767578125 10.092388153076171875 10.103272438049316406 10.115139961242675781 10.127177238464355469 10.138333320617675781 10.148601531982421875 10.157704353332519531 10.16576385498046875 10.174650192260742188 10.184871673583984375 10.192998886108398438 10.198801994323730469 10.201806068420410156 10.202360153198242188 10.201443672180175781 10.200053215026855469 10.198856353759765625 10.198390960693359375 10.199291229248046875 10.202198982238769531 10.207521438598632813 10.21540069580078125 10.22588348388671875 10.238253593444824219 10.251054763793945313 10.263027191162109375 10.273394584655761719 10.281970024108886719 10.288329124450683594 10.293422698974609375 10.298167228698730469 10.302691459655761719 10.307406425476074219 10.312261581420898438 10.317224502563476563 10.322628021240234375 10.328809738159179688 10.334177970886230469 10.33921051025390625 10.343724250793457031 10.348260879516601563 10.353995323181152344 10.362608909606933594 10.3738861083984375 10.387055397033691406 10.4001007080078125 10.411364555358886719 10.4209442138671875 10.428793907165527344 10.435977935791015625 10.4459381103515625 10.457419395446777344 10.46828460693359375 10.480582237243652344 10.4934844970703125 10.505908966064453125 10.517124176025390625 10.526622772216796875 10.534811019897460938 10.5421295166015625 10.5488433837890625 10.555411338806152344 10.561877250671386719 10.568378448486328125 10.575249671936035156 10.582831382751464844 10.590869903564453125 10.599393844604492188 10.6085205078125 10.617950439453125 10.627369880676269531 10.636691093444824219 10.645898818969726563 10.655241966247558594 10.664986610412597656 10.674940109252929688 10.684742927551269531 10.694427490234375 10.704357147216796875 10.714878082275390625 10.7263946533203125 10.738144874572753906 10.749494552612304688 10.759833335876464844 10.766991615295410156 10.771130561828613281 10.77342987060546875 10.774327278137207031 10.773657798767089844 10.771300315856933594 10.7672271728515625 10.76168060302734375 10.754893302917480469 10.746499061584472656 10.735890388488769531 10.723345756530761719 10.70876312255859375 10.692660331726074219 10.675332069396972656 10.65563201904296875 10.631512641906738281 10.600856781005859375 10.564420700073242188 10.523711204528808594 
0 0 0 0 0 0 0 0 10.031549453735351563 10.002374649047851563 9.9827060699462890625 9.9708280563354492188 9.9683656692504882813 9.9785861968994140625 9.998882293701171875 10.021453857421875 10.039174079895019531 10.050180435180664063 10.057036399841308594 10.058519363403320313 10.049993515014648438 10.031732559204101563 10.008996009826660156 9.9765882492065429688 9.9305982589721679688 9.8861856460571289063 9.859706878662109375 9.8461961746215820313 9.8364496231079101563 9.8289251327514648438 9.822139739990234375 9.8156070709228515625 9.80681610107421875 9.79392242431640625 9.7763385772705078125 9.7582855224609375 9.7438297271728515625 9.7346057891845703125 9.7313671112060546875 9.7341070175170898438 9.7415513992309570313 9.7527370452880859375 9.7662982940673828125 9.78176116943359375 9.7984161376953125 9.8138265609741210938 9.8280839920043945313 9.840667724609375 9.8522539138793945313 9.8620004653930664063 9.8691453933715820313 9.8760938644409179688 9.884429931640625 9.892856597900390625 9.9006137847900390625 9.9071741104125976563 9.91162872314453125 9.9159822463989257813 9.9201793670654296875 9.9231920242309570313 9.9262247085571289063 9.9288644790649414063 9.9312887191772460938 9.9335689544677734375 9.936000823974609375 9.9390106201171875 9.9430217742919921875 9.9487466812133789063 9.9569530487060546875 9.9676914215087890625 9.9805498123168945313 9.9954433441162109375 10.011404991149902344 10.028547286987304688 10.046904563903808594 10.064647674560546875 10.080078125 10.092345237731933594 10.102335929870605469 10.112020492553710938 10.122769355773925781 10.134482383728027344 10.146244049072265625 10.157374382019042969 10.167433738708496094 10.176407814025878906 10.184826850891113281 10.192613601684570313 10.198810577392578125 10.203496932983398438 10.205296516418457031 10.204306602478027344 10.201727867126464844 10.199003219604492188 10.197221755981445313 10.197232246398925781 10.199666023254394531 10.204868316650390625 10.212881088256835938 10.223328590393066406 10.235708236694335938 10.249158859252929688 10.262421607971191406 10.274103164672851563 10.283327102661132813 10.290291786193847656 10.2953643798828125 10.299393653869628906 10.303194046020507813 10.307592391967773438 10.313048362731933594 10.319785118103027344 10.327580451965332031 10.336254119873046875 10.344986915588378906 10.352267265319824219 10.3585205078125 10.363996505737304688 10.369627952575683594 10.37607574462890625 10.38631439208984375 10.400919914245605469 10.4183502197265625 10.435522079467773438 10.449518203735351563 10.460457801818847656 10.468114852905273438 10.475484848022460938 10.485685348510742188 10.496860504150390625 10.507496833801269531 10.51956939697265625 10.532072067260742188 10.543242454528808594 10.552682876586914063 10.560721397399902344 10.567834854125976563 10.574584007263183594 10.581107139587402344 10.587544441223144531 10.593949317932128906 10.600324630737304688 10.606776237487792969 10.613564491271972656 10.620772361755371094 10.628442764282226563 10.636559486389160156 10.644884109497070313 10.653197288513183594 10.661527633666992188 10.670115470886230469 10.67919158935546875 10.688600540161132813 10.697710037231445313 10.706467628479003906 10.7155914306640625 10.725495338439941406 10.73632049560546875 10.747987747192382813 10.759716033935546875 10.770516395568847656 10.778949737548828125 10.784111976623535156 10.785778999328613281 10.784741401672363281 10.782027244567871094 10.777470588684082031 10.7713623046875 10.763881683349609375 10.755061149597167969 10.74466705322265625 10.732319831848144531 10.71796417236328125 10.701947212219238281 10.684294700622558594 10.665103912353515625 10.643941879272460938 10.618498802185058594 10.585391044616699219 10.544243812561035156 10.499456405639648438 10.453159332275390625 
0 0 0 0 0 0 0 0 10.051392555236816406 10.037024497985839844 10.027861595153808594 10.020112037658691406 10.015887260437011719 10.019565582275390625 10.031674385070800781 10.0480499267578125 10.062532424926757813 10.072607994079589844 10.079709053039550781 10.079542160034179688 10.068395614624023438 10.046216964721679688 10.025364875793457031 10.001133918762207031 9.9629526138305664063 9.9182529449462890625 9.8863916397094726563 9.8697834014892578125 9.858737945556640625 9.8497724533081054688 9.8422145843505859375 9.8351259231567382813 9.826915740966796875 9.815204620361328125 9.7983446121215820313 9.7805376052856445313 9.7655591964721679688 9.7539167404174804688 9.746868133544921875 9.74503326416015625 9.748523712158203125 9.7569894790649414063 9.7692689895629882813 9.7840337753295898438 9.7997417449951171875 9.8150501251220703125 9.8294229507446289063 9.8427190780639648438 9.85547637939453125 9.8673677444458007813 9.8777170181274414063 9.8874502182006835938 9.8967494964599609375 9.9051723480224609375 9.9134225845336914063 9.92006683349609375 9.9237041473388671875 9.9258518218994140625 9.9284839630126953125 9.93182373046875 9.935550689697265625 9.9393672943115234375 9.9427661895751953125 9.9451351165771484375 9.9470567703247070313 9.9494161605834960938 9.9527492523193359375 9.9574432373046875 9.9644556045532226563 9.9746046066284179688 9.9871673583984375 10.001390457153320313 10.016544342041015625 10.032137870788574219 10.048524856567382813 10.066329002380371094 10.0840911865234375 10.098857879638671875 10.110303878784179688 10.120525360107421875 10.130652427673339844 10.141936302185058594 10.153665542602539063 10.165252685546875 10.176045417785644531 10.185575485229492188 10.193759918212890625 10.200570106506347656 10.205470085144042969 10.207815170288085938 10.207883834838867188 10.205554962158203125 10.201800346374511719 10.198436737060546875 10.197026252746582031 10.198534965515136719 10.203341484069824219 10.211159706115722656 10.221479415893554688 10.233666419982910156 10.246927261352539063 10.260241508483886719 10.272315025329589844 10.282220840454101563 10.289743423461914063 10.295370101928710938 10.299703598022460938 10.303326606750488281 10.307448387145996094 10.313145637512207031 10.320551872253417969 10.330492973327636719 10.342578887939453125 10.355779647827148438 10.36808013916015625 10.378380775451660156 10.386483192443847656 10.393322944641113281 10.40024566650390625 10.408143043518066406 10.4191131591796875 10.435824394226074219 10.456207275390625 10.476398468017578125 10.490841865539550781 10.501827239990234375 10.509775161743164063 10.518614768981933594 10.528838157653808594 10.538854598999023438 10.549265861511230469 10.560545921325683594 10.571192741394042969 10.580071449279785156 10.58754730224609375 10.594227790832519531 10.600581169128417969 10.606845855712890625 10.612977027893066406 10.619287490844726563 10.62560272216796875 10.631776809692382813 10.637849807739257813 10.644034385681152344 10.650577545166015625 10.657548904418945313 10.6647186279296875 10.671863555908203125 10.679079055786132813 10.68653106689453125 10.6943206787109375 10.702487945556640625 10.71063232421875 10.718282699584960938 10.726616859436035156 10.735744476318359375 10.745571136474609375 10.75624847412109375 10.767622947692871094 10.778521537780761719 10.787446022033691406 10.793259620666503906 10.795488357543945313 10.794412612915039063 10.790644645690917969 10.784997940063476563 10.777596473693847656 10.768780708312988281 10.7585601806640625 10.7464599609375 10.731792449951171875 10.714791297912597656 10.696074485778808594 10.676146507263183594 10.655056953430175781 10.632837295532226563 10.607593536376953125 10.577833175659179688 10.545496940612792969 10.512499809265136719 10.476256370544433594 10.430971145629882813 
0 0 0 0 0 0 0 0 0 0 10.068514823913574219 10.064303398132324219 10.060903549194335938 10.060761451721191406 10.065779685974121094 10.073978424072265625 10.0822296142578125 10.089350700378417969 10.094125747680664063 10.092982292175292969 10.082930564880371094 10.062952041625976563 10.046312332153320313 10.028827667236328125 9.993312835693359375 9.9443731307983398438 9.910778045654296875 9.892185211181640625 9.8792057037353515625 9.8684129714965820313 9.8595333099365234375 9.8514957427978515625 9.8425817489624023438 9.8311824798583984375 9.8168010711669921875 9.8013668060302734375 9.7869691848754882813 9.7744903564453125 9.7646198272705078125 9.75920867919921875 9.7589740753173828125 9.7639932632446289063 9.7737751007080078125 9.78664398193359375 9.8005056381225585938 9.8144664764404296875 9.8287067413330078125 9.8433389663696289063 9.8579082489013671875 9.871501922607421875 9.8836126327514648438 9.8955488204956054688 9.9077291488647460938 9.9181604385375976563 9.9266910552978515625 9.9337148666381835938 9.9383678436279296875 9.940647125244140625 9.9413280487060546875 9.942615509033203125 9.9452047348022460938 9.9484767913818359375 9.9521245956420898438 9.9551792144775390625 9.957122802734375 9.9588451385498046875 9.961833953857421875 9.9661712646484375 9.9724578857421875 9.981292724609375 9.9933185577392578125 10.007586479187011719 10.02301788330078125 10.039791107177734375 10.056704521179199219 10.072901725769042969 10.088273048400878906 10.102231979370117188 10.114796638488769531 10.126372337341308594 10.13623809814453125 10.145972251892089844 10.156896591186523438 10.168598175048828125 10.180026054382324219 10.190167427062988281 10.198287010192871094 10.204143524169921875 10.20754241943359375 10.208425521850585938 10.207120895385742188 10.204112052917480469 10.200570106506347656 10.198323249816894531 10.198838233947753906 10.202750205993652344 10.210024833679199219 10.220213890075683594 10.232272148132324219 10.245182991027832031 10.257829666137695313 10.269326210021972656 10.279083251953125 10.286937713623046875 10.293250083923339844 10.29876708984375 10.304246902465820313 10.310202598571777344 10.317006111145019531 10.325113296508789063 10.334436416625976563 10.347187042236328125 10.364276885986328125 10.382939338684082031 10.399422645568847656 10.41237640380859375 10.422208786010742188 10.4306182861328125 10.439084053039550781 10.448369979858398438 10.459827423095703125 10.476032257080078125 10.496649742126464844 10.51667022705078125 10.531145095825195313 10.541846275329589844 10.54955291748046875 10.559789657592773438 10.571227073669433594 10.580847740173339844 10.590853691101074219 10.600625991821289063 10.608830451965332031 10.615429878234863281 10.621202468872070313 10.626816749572753906 10.632513999938964844 10.63823699951171875 10.64403533935546875 10.650200843811035156 10.65651702880859375 10.66243743896484375 10.668069839477539063 10.673811912536621094 10.679948806762695313 10.686258316040039063 10.692517280578613281 10.698810577392578125 10.705298423767089844 10.712003707885742188 10.718713760375976563 10.725127220153808594 10.731539726257324219 10.738894462585449219 10.747022628784179688 10.755540847778320313 10.764372825622558594 10.773987770080566406 10.78438568115234375 10.793755531311035156 10.800585746765136719 10.803593635559082031 10.802766799926757813 10.798864364624023438 10.792779922485351563 10.784877777099609375 10.775172233581542969 10.763852119445800781 10.750290870666503906 10.733798027038574219 10.714455604553222656 10.692285537719726563 10.668776512145996094 10.64459228515625 10.619957923889160156 10.596249580383300781 10.570361137390136719 10.545152664184570313 10.525320053100585938 10.512202262878417969 10.496568679809570313 10.4719696044921875 
0 0 0 0 0 0 0 0 0 10.097806930541992188 10.100180625915527344 10.1014251708984375 10.10071563720703125 10.099407196044921875 10.098765373229980469 10.097847938537597656 10.098077774047851563 10.100239753723144531 10.101671218872070313 10.099095344543457031 10.090375900268554688 10.076635360717773438 10.062905311584472656 10.046402931213378906 10.014739036560058594 9.9670476913452148438 9.930530548095703125 9.9116067886352539063 9.896728515625 9.8848752975463867188 9.8751745223999023438 9.8661527633666992188 9.8563241958618164063 9.8447237014770507813 9.831790924072265625 9.8186578750610351563 9.8062124252319335938 9.7946720123291015625 9.78460693359375 9.7771091461181640625 9.7730741500854492188 9.773525238037109375 9.7788667678833007813 9.7883968353271484375 9.799617767333984375 9.8115472793579101563 9.824878692626953125 9.8403635025024414063 9.8574466705322265625 9.8738651275634765625 9.8874683380126953125 9.899200439453125 9.9108066558837890625 9.9236326217651367188 9.935901641845703125 9.9461641311645507813 9.9532346725463867188 9.9566402435302734375 9.9577131271362304688 9.9579439163208007813 9.957836151123046875 9.9587001800537109375 9.9608297348022460938 9.9638681411743164063 9.9668674468994140625 9.9696874618530273438 9.9733142852783203125 9.978183746337890625 9.98370361328125 9.9910860061645507813 10.000580787658691406 10.013726234436035156 10.028835296630859375 10.044515609741210938 10.060302734375 10.075984001159667969 10.090668678283691406 10.103790283203125 10.116251945495605469 10.128529548645019531 10.139566421508789063 10.148844718933105469 10.158005714416503906 10.168161392211914063 10.178612709045410156 10.188139915466308594 10.195384025573730469 10.200379371643066406 10.202825546264648438 10.202726364135742188 10.2013397216796875 10.199283599853515625 10.197919845581054688 10.19881439208984375 10.2028045654296875 10.209929466247558594 10.219689369201660156 10.231247901916503906 10.243540763854980469 10.25554656982421875 10.266332626342773438 10.275216102600097656 10.282423973083496094 10.288585662841796875 10.294862747192382813 10.302486419677734375 10.312181472778320313 10.323538780212402344 10.335646629333496094 10.347259521484375 10.359495162963867188 10.374873161315917969 10.394716262817382813 10.417293548583984375 10.4374847412109375 10.453020095825195313 10.464435577392578125 10.474160194396972656 10.4836883544921875 10.493174552917480469 10.503204345703125 10.517769813537597656 10.536878585815429688 10.555490493774414063 10.569615364074707031 10.579477310180664063 10.588033676147460938 10.59922027587890625 10.612293243408203125 10.621965408325195313 10.630797386169433594 10.638224601745605469 10.644174575805664063 10.648993492126464844 10.653535842895507813 10.658231735229492188 10.663150787353515625 10.668331146240234375 10.673987388610839844 10.680124282836914063 10.686227798461914063 10.691804885864257813 10.69713592529296875 10.702692985534667969 10.708456039428710938 10.714069366455078125 10.719664573669433594 10.725360870361328125 10.731197357177734375 10.736992835998535156 10.74195098876953125 10.746669769287109375 10.752414703369140625 10.759382247924804688 10.766598701477050781 10.773715019226074219 10.781254768371582031 10.789722442626953125 10.798634529113769531 10.806389808654785156 10.811521530151367188 10.812256813049316406 10.808781623840332031 10.802300453186035156 10.793561935424804688 10.782652854919433594 10.769728660583496094 10.754628181457519531 10.736383438110351563 10.714996337890625 10.690830230712890625 10.663493156433105469 10.634469985961914063 10.604455947875976563 10.57773590087890625 10.554549217224121094 10.528118133544921875 10.506372451782226563 10.493574142456054688 0 0 0 
0 0 0 0 0 0 0 0 0 0 10.128094673156738281 10.131145477294921875 10.132734298706054688 10.13079071044921875 10.126881599426269531 10.11943817138671875 10.111689567565917969 10.107222557067871094 10.103285789489746094 10.097605705261230469 10.088669776916503906 10.07672882080078125 10.06426239013671875 10.048662185668945313 10.022728919982910156 9.9868040084838867188 9.9537706375122070313 9.9332342147827148438 9.9181976318359375 9.9069061279296875 9.8963832855224609375 9.88470458984375 9.8726854324340820313 9.8604459762573242188 9.8483943939208984375 9.8369045257568359375 9.8261318206787109375 9.8160581588745117188 9.8069400787353515625 9.7992830276489257813 9.7937297821044921875 9.7905063629150390625 9.79010772705078125 9.7935686111450195313 9.800006866455078125 9.808712005615234375 9.8200626373291015625 9.8353900909423828125 9.8536701202392578125 9.872150421142578125 9.8883752822875976563 9.9015321731567382813 9.9128665924072265625 9.9243841171264648438 9.93744659423828125 9.9505443572998046875 9.9614591598510742188 9.9683408737182617188 9.9713582992553710938 9.9722185134887695313 9.9717359542846679688 9.9715757369995117188 9.9711894989013671875 9.9721841812133789063 9.9751148223876953125 9.978832244873046875 9.9832000732421875 9.989025115966796875 9.9958038330078125 10.002763748168945313 10.010897636413574219 10.021181106567382813 10.0338897705078125 10.048536300659179688 10.062893867492675781 10.076995849609375 10.090464591979980469 10.102990150451660156 10.114839553833007813 10.126130104064941406 10.137577056884765625 10.148197174072265625 10.156927108764648438 10.164799690246582031 10.172644615173339844 10.180045127868652344 10.186141014099121094 10.190539360046386719 10.192562103271484375 10.192755699157714844 10.193363189697265625 10.193926811218261719 10.196279525756835938 10.201251029968261719 10.208983421325683594 10.218890190124511719 10.230038642883300781 10.24152374267578125 10.252567291259765625 10.26250457763671875 10.2708740234375 10.277697563171386719 10.283849716186523438 10.290390968322753906 10.298692703247070313 10.310268402099609375 10.326002120971679688 10.345273971557617188 10.365175247192382813 10.38214874267578125 10.396875381469726563 10.412542343139648438 10.432753562927246094 10.456841468811035156 10.479313850402832031 10.496669769287109375 10.509336471557617188 10.519720077514648438 10.529324531555175781 10.538060188293457031 10.545987129211425781 10.558339118957519531 10.576005935668945313 10.593374252319335938 10.606432914733886719 10.615561485290527344 10.624941825866699219 10.637114524841308594 10.649584770202636719 10.659252166748046875 10.666928291320800781 10.672554969787597656 10.676851272583007813 10.680342674255371094 10.683913230895996094 10.687882423400878906 10.692258834838867188 10.697121620178222656 10.702736854553222656 10.708736419677734375 10.714392662048339844 10.719635963439941406 10.724881172180175781 10.73029327392578125 10.735627174377441406 10.740728378295898438 10.745809555053710938 10.750925064086914063 10.756124496459960938 10.760558128356933594 10.764117240905761719 10.768361091613769531 10.773690223693847656 10.779544830322265625 10.785119056701660156 10.790544509887695313 10.796668052673339844 10.803711891174316406 10.810557365417480469 10.815863609313964844 10.818774223327636719 10.818010330200195313 10.813243865966796875 10.8048553466796875 10.792698860168457031 10.777256011962890625 10.759661674499511719 10.740466117858886719 10.717571258544921875 10.691615104675292969 10.661609649658203125 10.62822723388671875 10.591572761535644531 10.556674003601074219 10.530442237854003906 10.508436203002929688 0 0 0 0 0 0 
0 0 0 0 0 0 0 0 0 0 0 10.155869483947753906 10.156525611877441406 10.153718948364257813 10.147454261779785156 10.136783599853515625 10.123261451721191406 10.112232208251953125 10.102446556091308594 10.091618537902832031 10.079215049743652344 10.065424919128417969 10.053421974182128906 10.040144920349121094 10.023129463195800781 10.001585960388183594 9.9790058135986328125 9.9602832794189453125 9.9462413787841796875 9.9352703094482421875 9.9243249893188476563 9.9113340377807617188 9.896877288818359375 9.882640838623046875 9.8704071044921875 9.8595829010009765625 9.8495540618896484375 9.8405561447143554688 9.832672119140625 9.825580596923828125 9.8192777633666992188 9.814006805419921875 9.8098621368408203125 9.80736541748046875 9.8086719512939453125 9.813541412353515625 9.8214387893676757813 9.8333683013916015625 9.8496532440185546875 9.8676891326904296875 9.8851633071899414063 9.9007577896118164063 9.9143161773681640625 9.926380157470703125 9.9379739761352539063 9.9501667022705078125 9.9622974395751953125 9.9725656509399414063 9.9796380996704101563 9.9835147857666015625 9.9846944808959960938 9.9849300384521484375 9.9843492507934570313 9.9837789535522460938 9.984340667724609375 9.9878997802734375 9.9931745529174804688 9.9993810653686523438 10.006895065307617188 10.015088081359863281 10.023701667785644531 10.032841682434082031 10.042461395263671875 10.053149223327636719 10.065318107604980469 10.07805633544921875 10.090784072875976563 10.103048324584960938 10.114487648010253906 10.12444305419921875 10.134029388427734375 10.143434524536132813 10.151572227478027344 10.158471107482910156 10.164601325988769531 10.170338630676269531 10.175439834594726563 10.179255485534667969 10.181650161743164063 10.183766365051269531 10.187294960021972656 10.191390037536621094 10.197862625122070313 10.206601142883300781 10.217017173767089844 10.228281974792480469 10.239389419555664063 10.249547004699707031 10.258442878723144531 10.266236305236816406 10.273253440856933594 10.280111312866210938 10.287848472595214844 10.297580718994140625 10.310240745544433594 10.327144622802734375 10.348913192749023438 10.374983787536621094 10.402086257934570313 10.4248504638671875 10.442353248596191406 10.458170890808105469 10.476724624633789063 10.499897003173828125 10.5222625732421875 10.5398406982421875 10.552835464477539063 10.563113212585449219 10.571812629699707031 10.579345703125 10.586430549621582031 10.596566200256347656 10.613107681274414063 10.630401611328125 10.642016410827636719 10.650094032287597656 10.660083770751953125 10.672969818115234375 10.6844940185546875 10.693194389343261719 10.699337959289550781 10.703469276428222656 10.706625938415527344 10.709483146667480469 10.71256256103515625 10.716086387634277344 10.720123291015625 10.724700927734375 10.730129241943359375 10.735857963562011719 10.741029739379882813 10.745982170104980469 10.751152992248535156 10.756350517272949219 10.761216163635253906 10.765837669372558594 10.770369529724121094 10.774845123291015625 10.779021263122558594 10.782387733459472656 10.785861015319824219 10.789902687072753906 10.794458389282226563 10.79909515380859375 10.803121566772460938 10.807353019714355469 10.812356948852539063 10.817415237426757813 10.821595191955566406 10.824114799499511719 10.824482917785644531 10.821494102478027344 10.813675880432128906 10.801128387451171875 10.784612655639648438 10.765240669250488281 10.744534492492675781 10.721767425537109375 10.694581031799316406 10.663770675659179688 10.628746986389160156 10.588983535766601563 10.542710304260253906 10.508453369140625 10.488408088684082031 0 0 0 0 0 0 0 
0 0 0 0 0 0 0 0 0 0 0 10.174184799194335938 10.172770500183105469 10.168264389038085938 10.159453392028808594 10.145856857299804688 10.129619598388671875 10.114055633544921875 10.099229812622070313 10.082718849182128906 10.065526008605957031 10.050472259521484375 10.038487434387207031 10.027740478515625 10.020821571350097656 10.013100624084472656 10.002847671508789063 9.9899969100952148438 9.9762067794799804688 9.9634189605712890625 9.9510774612426757813 9.9377813339233398438 9.9237213134765625 9.909641265869140625 9.8967790603637695313 9.8854265213012695313 9.875705718994140625 9.8673181533813476563 9.8595428466796875 9.8524904251098632813 9.8457727432250976563 9.839527130126953125 9.8336973190307617188 9.8287420272827148438 9.8257513046264648438 9.825717926025390625 9.8290338516235351563 9.8362178802490234375 9.8476305007934570313 9.8627719879150390625 9.8801221847534179688 9.8980464935302734375 9.9148759841918945313 9.9289197921752929688 9.940418243408203125 9.951198577880859375 9.9618368148803710938 9.9720335006713867188 9.9810934066772460938 9.9881496429443359375 9.9925823211669921875 9.9945993423461914063 9.9950275421142578125 9.9948644638061523438 9.9945659637451171875 9.9953975677490234375 9.9995336532592773438 10.006527900695800781 10.015009880065917969 10.024260520935058594 10.033923149108886719 10.043547630310058594 10.052654266357421875 10.061413764953613281 10.070326805114746094 10.079677581787109375 10.090418815612792969 10.102182388305664063 10.113412857055664063 10.1237945556640625 10.132543563842773438 10.140287399291992188 10.146639823913574219 10.152520179748535156 10.158150672912597656 10.163475990295410156 10.167899131774902344 10.171456336975097656 10.175138473510742188 10.17986297607421875 10.186159133911132813 10.194045066833496094 10.203477859497070313 10.214040756225585938 10.225269317626953125 10.236575126647949219 10.2466888427734375 10.255299568176269531 10.2627410888671875 10.2698974609375 10.277537345886230469 10.286632537841796875 10.298465728759765625 10.314208984375 10.333452224731445313 10.355785369873046875 10.381421089172363281 10.410645484924316406 10.44171905517578125 10.469172477722167969 10.489100456237792969 10.504856109619140625 10.521269798278808594 10.542517662048339844 10.5629425048828125 10.579555511474609375 10.591740608215332031 10.601253509521484375 10.609244346618652344 10.615965843200683594 10.622713088989257813 10.632639884948730469 10.64752197265625 10.663450241088867188 10.67436981201171875 10.682535171508789063 10.693133354187011719 10.706340789794921875 10.716333389282226563 10.723482131958007813 10.728185653686523438 10.731503486633300781 10.734244346618652344 10.736933708190917969 10.739879608154296875 10.74321746826171875 10.747050285339355469 10.751463890075683594 10.756518363952636719 10.761743545532226563 10.766449928283691406 10.771023750305175781 10.775957107543945313 10.780895233154296875 10.785294532775878906 10.789317131042480469 10.793002128601074219 10.796285629272460938 10.799448966979980469 10.80284881591796875 10.806757926940917969 10.810943603515625 10.814991950988769531 10.81867218017578125 10.822235107421875 10.825654983520507813 10.8291168212890625 10.83214569091796875 10.833433151245117188 10.832525253295898438 10.829165458679199219 10.821729660034179688 10.809466361999511719 10.792376518249511719 10.771549224853515625 10.74866485595703125 10.724534034729003906 10.69817352294921875 10.668309211730957031 10.634531974792480469 10.597401618957519531 10.557298660278320313 10.515583038330078125 0 0 0 0 0 0 0 0 0 
0 0 0 0 0 0 0 0 0 0 0 0 10.181516647338867188 10.175535202026367188 10.164238929748535156 10.14739990234375 10.128116607666015625 10.10976409912109375 10.091961860656738281 10.07305145263671875 10.054898262023925781 10.040335655212402344 10.029327392578125 10.022669792175292969 10.021486282348632813 10.020771026611328125 10.018723487854003906 10.0135955810546875 10.004678726196289063 9.9921131134033203125 9.9770402908325195313 9.9619188308715820313 9.9475297927856445313 9.93334197998046875 9.9199914932250976563 9.9083251953125 9.8989706039428710938 9.891254425048828125 9.8841381072998046875 9.8774385452270507813 9.8706521987915039063 9.8641061782836914063 9.8573980331420898438 9.8511333465576171875 9.8461046218872070313 9.8429327011108398438 9.8424921035766601563 9.845264434814453125 9.8514242172241210938 9.8610639572143554688 9.8740062713623046875 9.889553070068359375 9.9064168930053710938 9.922607421875 9.9365682601928710938 9.948574066162109375 9.9594898223876953125 9.9697332382202148438 9.9794292449951171875 9.9874172210693359375 9.99367523193359375 9.9985589981079101563 10.001708030700683594 10.003191947937011719 10.003999710083007813 10.005002021789550781 10.006957054138183594 10.012105941772460938 10.020460128784179688 10.0300445556640625 10.040732383728027344 10.052068710327148438 10.0621795654296875 10.071217536926269531 10.080060958862304688 10.088936805725097656 10.097216606140136719 10.105012893676757813 10.113170623779296875 10.1219635009765625 10.130430221557617188 10.137877464294433594 10.144445419311523438 10.149950027465820313 10.155327796936035156 10.159833908081054688 10.164313316345214844 10.168733596801757813 10.174249649047851563 10.18122100830078125 10.189706802368164063 10.199542045593261719 10.210219383239746094 10.221058845520019531 10.232104301452636719 10.242903709411621094 10.252190589904785156 10.260815620422363281 10.269048690795898438 10.277845382690429688 10.2883453369140625 10.301589012145996094 10.3188323974609375 10.34116363525390625 10.366552352905273438 10.393147468566894531 10.420475959777832031 10.450076103210449219 10.481087684631347656 10.509046554565429688 10.5302581787109375 10.546595573425292969 10.562641143798828125 10.5812530517578125 10.599762916564941406 10.614426612854003906 10.625639915466308594 10.6348876953125 10.642778396606445313 10.649347305297851563 10.655959129333496094 10.665986061096191406 10.67989349365234375 10.693863868713378906 10.704320907592773438 10.713205337524414063 10.724314689636230469 10.736009597778320313 10.744584083557128906 10.750697135925292969 10.754583358764648438 10.757541656494140625 10.760271072387695313 10.763104438781738281 10.766179084777832031 10.769574165344238281 10.773325920104980469 10.777577400207519531 10.782267570495605469 10.786866188049316406 10.791032791137695313 10.795179367065429688 10.799624443054199219 10.804053306579589844 10.807949066162109375 10.811105728149414063 10.813670158386230469 10.815607070922851563 10.818685531616210938 10.8223876953125 10.826663970947265625 10.831315994262695313 10.83582305908203125 10.839858055114746094 10.843114852905273438 10.845270156860351563 10.846500396728515625 10.846953392028808594 10.845155715942382813 10.840168952941894531 10.831826210021972656 10.818985939025878906 10.802015304565429688 10.780510902404785156 10.755910873413085938 10.73065185546875 10.704113006591796875 10.674403190612792969 10.64122772216796875 10.606160163879394531 10.570582389831542969 10.535390853881835938 0 0 0 0 0 0 0 0 0 0 
0 0 0 0 0 0 0 0 0 0 0 10.19016265869140625 10.184929847717285156 10.178070068359375 10.163706779479980469 10.143677711486816406 10.121804237365722656 10.102814674377441406 10.08472442626953125 10.06562042236328125 10.048933982849121094 10.038392066955566406 10.033705711364746094 10.031704902648925781 10.031582832336425781 10.033124923706054688 10.03415679931640625 10.033845901489257813 10.030223846435546875 10.019590377807617188 10.003258705139160156 9.9855594635009765625 9.9689798355102539063 9.9541997909545898438 9.9408130645751953125 9.9293537139892578125 9.9202184677124023438 9.9128265380859375 9.9062509536743164063 9.899951934814453125 9.8935499191284179688 9.8869686126708984375 9.8797502517700195313 9.87264251708984375 9.8663883209228515625 9.8615121841430664063 9.8585977554321289063 9.8580884933471679688 9.8602609634399414063 9.8653249740600585938 9.8735437393188476563 9.8845882415771484375 9.897617340087890625 9.9118471145629882813 9.9264240264892578125 9.9405851364135742188 9.9538516998291015625 9.9656524658203125 9.9760265350341796875 9.9844217300415039063 9.9918365478515625 9.9979419708251953125 10.002538681030273438 10.006040573120117188 10.008638381958007813 10.011526107788085938 10.015348434448242188 10.02011871337890625 10.026701927185058594 10.035856246948242188 10.04671478271484375 10.057963371276855469 10.068296432495117188 10.077211380004882813 10.086052894592285156 10.095254898071289063 10.103790283203125 10.111355781555175781 10.11731719970703125 10.123307228088378906 10.129847526550292969 10.136363983154296875 10.142607688903808594 10.148537635803222656 10.153931617736816406 10.1589813232421875 10.164203643798828125 10.169973373413085938 10.176797866821289063 10.185042381286621094 10.194565773010253906 10.205056190490722656 10.216094970703125 10.226675033569335938 10.238017082214355469 10.249349594116210938 10.259728431701660156 10.2699127197265625 10.28153228759765625 10.295029640197753906 10.309926986694335938 10.326730728149414063 10.347217559814453125 10.374213218688964844 10.404633522033691406 10.434778213500976563 10.462728500366210938 10.490194320678710938 10.518090248107910156 10.544577598571777344 10.565776824951171875 10.581767082214355469 10.5972137451171875 10.614404678344726563 10.631521224975585938 10.645319938659667969 10.656308174133300781 10.666117668151855469 10.674609184265136719 10.6819000244140625 10.688724517822265625 10.698346138000488281 10.710480690002441406 10.722609519958496094 10.73284912109375 10.742688179016113281 10.753415107727050781 10.763181686401367188 10.770425796508789063 10.775633811950683594 10.779238700866699219 10.782320022583007813 10.785373687744140625 10.788578033447265625 10.792000770568847656 10.795595169067382813 10.799350738525390625 10.803475379943847656 10.8078460693359375 10.811758995056152344 10.815159797668457031 10.818601608276367188 10.822275161743164063 10.825799942016601563 10.828699111938476563 10.830732345581054688 10.832123756408691406 10.833386421203613281 10.836518287658691406 10.840017318725585938 10.84445953369140625 10.850243568420410156 10.856708526611328125 10.861585617065429688 10.863763809204101563 10.86383056640625 10.862361907958984375 10.85936737060546875 10.854139328002929688 10.845295906066894531 10.831634521484375 10.813563346862792969 10.79203033447265625 10.767226219177246094 10.739684104919433594 10.712061882019042969 10.682560920715332031 10.648442268371582031 10.612923622131347656 10.577609062194824219 10.54496002197265625 0 0 0 0 0 0 0 0 0 0 0 
0 0 0 0 0 0 0 0 0 0 0 10.192036628723144531 10.186603546142578125 10.178090095520019531 10.161600112915039063 10.139306068420410156 10.115686416625976563 10.097249984741210938 10.07874298095703125 10.061702728271484375 10.052330970764160156 10.049839973449707031 10.049012184143066406 10.048380851745605469 10.048456192016601563 10.048970222473144531 10.049184799194335938 10.047994613647460938 10.043889045715332031 10.035212516784667969 10.021944046020507813 10.005542755126953125 9.9890575408935546875 9.9739980697631835938 9.9606790542602539063 9.9500608444213867188 9.94139862060546875 9.9340906143188476563 9.9276676177978515625 9.9217367172241210938 9.9156131744384765625 9.9087543487548828125 9.9013891220092773438 9.89392852783203125 9.88690185546875 9.88074493408203125 9.8759098052978515625 9.8730344772338867188 9.872425079345703125 9.8742275238037109375 9.8785905838012695313 9.8853654861450195313 9.8945827484130859375 9.906101226806640625 9.9188060760498046875 9.9318132400512695313 9.9447612762451171875 9.9573535919189453125 9.96880340576171875 9.978298187255859375 9.9866361618041992188 9.993865966796875 9.99999237060546875 10.004574775695800781 10.00852203369140625 10.012790679931640625 10.018247604370117188 10.024886131286621094 10.032567024230957031 10.041998863220214844 10.05252838134765625 10.062949180603027344 10.072656631469726563 10.0814056396484375 10.089282989501953125 10.096978187561035156 10.10466766357421875 10.111865997314453125 10.118294715881347656 10.124091148376464844 10.130433082580566406 10.137109756469726563 10.143157958984375 10.148580551147460938 10.15393829345703125 10.159554481506347656 10.16568756103515625 10.172585487365722656 10.180356025695800781 10.189063072204589844 10.198758125305175781 10.20941925048828125 10.220993995666503906 10.232896804809570313 10.245152473449707031 10.25797271728515625 10.27178192138671875 10.285854339599609375 10.30231475830078125 10.32080841064453125 10.339945793151855469 10.359204292297363281 10.381167411804199219 10.40906524658203125 10.441133499145507813 10.473128318786621094 10.501206398010253906 10.526041984558105469 10.549753189086914063 10.574001312255859375 10.594861984252929688 10.611441612243652344 10.627225875854492188 10.643651008605957031 10.659421920776367188 10.672969818115234375 10.684442520141601563 10.69480133056640625 10.704400062561035156 10.712797164916992188 10.720209121704101563 10.729254722595214844 10.739715576171875 10.750333786010742188 10.759984970092773438 10.770021438598632813 10.780339241027832031 10.788759231567382813 10.795124053955078125 10.799744606018066406 10.8033447265625 10.806707382202148438 10.810181617736816406 10.813908576965332031 10.817830085754394531 10.821680068969726563 10.825469017028808594 10.829366683959960938 10.833408355712890625 10.836615562438964844 10.83904266357421875 10.841424942016601563 10.843909263610839844 10.84613037109375 10.847668647766113281 10.848439216613769531 10.848821640014648438 10.850089073181152344 10.852810859680175781 10.855991363525390625 10.860613822937011719 10.867383956909179688 10.875814437866210938 10.880755424499511719 10.881522178649902344 10.879132270812988281 10.874615669250488281 10.868618965148925781 10.859918594360351563 10.846779823303222656 10.828665733337402344 10.806366920471191406 10.781209945678710938 10.754011154174804688 10.725150108337402344 10.695001602172851563 10.661639213562011719 10.623024940490722656 10.584540367126464844 10.550602912902832031 0 0 0 0 0 0 0 0 0 0 0 0 
0 0 0 0 0 0 0 0 0 0 0 10.192004203796386719 10.186951637268066406 10.176403045654296875 10.157164573669433594 10.134084701538085938 10.112788200378417969 10.095127105712890625 10.078114509582519531 10.067571640014648438 10.067922592163085938 10.068887710571289063 10.069231033325195313 10.068660736083984375 10.065754890441894531 10.061853408813476563 10.057712554931640625 10.053112983703613281 10.047224044799804688 10.039179801940917969 10.028621673583984375 10.0157928466796875 10.002410888671875 9.989505767822265625 9.9783334732055664063 9.9690265655517578125 9.961223602294921875 9.9542217254638671875 9.94765472412109375 9.9416227340698242188 9.9354524612426757813 9.9289035797119140625 9.9219465255737304688 9.9147596359252929688 9.9076738357543945313 9.9010524749755859375 9.8952856063842773438 9.89075469970703125 9.8877964019775390625 9.88675689697265625 9.8878908157348632813 9.89110565185546875 9.8971958160400390625 9.9054841995239257813 9.9151868820190429688 9.9261121749877929688 9.937885284423828125 9.949588775634765625 9.9606418609619140625 9.9709482192993164063 9.9802494049072265625 9.9885425567626953125 9.9958963394165039063 10.002243995666503906 10.007654190063476563 10.012996673583984375 10.018774032592773438 10.025908470153808594 10.035088539123535156 10.045391082763671875 10.055840492248535156 10.065455436706542969 10.073955535888671875 10.081948280334472656 10.089818000793457031 10.09743499755859375 10.104561805725097656 10.110979080200195313 10.116934776306152344 10.123925209045410156 10.130194664001464844 10.136110305786132813 10.14220428466796875 10.147788047790527344 10.153789520263671875 10.160203933715820313 10.167132377624511719 10.174717903137207031 10.183054924011230469 10.192278861999511719 10.202556610107421875 10.214053153991699219 10.226870536804199219 10.241054534912109375 10.256491661071777344 10.273045539855957031 10.291022300720214844 10.309813499450683594 10.330475807189941406 10.352899551391601563 10.375386238098144531 10.396166801452636719 10.417816162109375 10.443487167358398438 10.473301887512207031 10.504201889038085938 10.532379150390625 10.556978225708007813 10.579494476318359375 10.601639747619628906 10.622455596923828125 10.63986968994140625 10.655241966247558594 10.670557975769042969 10.685003280639648438 10.698175430297851563 10.710097312927246094 10.721424102783203125 10.732288360595703125 10.741436958312988281 10.749555587768554688 10.758512496948242188 10.768077850341796875 10.777277946472167969 10.786184310913085938 10.795601844787597656 10.805307388305664063 10.81276702880859375 10.818924903869628906 10.823456764221191406 10.827372550964355469 10.831099510192871094 10.835076332092285156 10.839447021484375 10.843815803527832031 10.847820281982421875 10.851528167724609375 10.855226516723632813 10.858864784240722656 10.861495018005371094 10.862832069396972656 10.863529205322265625 10.864236831665039063 10.864731788635253906 10.864925384521484375 10.864688873291015625 10.864390373229980469 10.865427017211914063 10.8671875 10.8697357177734375 10.874384880065917969 10.881656646728515625 10.889353752136230469 10.893308639526367188 10.893065452575683594 10.888919830322265625 10.882660865783691406 10.874846458435058594 10.863133430480957031 10.846353530883789063 10.824643135070800781 10.798826217651367188 10.77124786376953125 10.742839813232421875 10.712537765502929688 10.678992271423339844 10.641015052795410156 10.600493431091308594 0 0 0 0 0 0 0 0 0 0 0 0 0 0 
0 0 0 0 0 0 0 0 0 0 10.193963050842285156 10.190472602844238281 10.184970855712890625 10.170989990234375 10.149477005004882813 10.128787040710449219 10.112343788146972656 10.098262786865234375 10.087786674499511719 10.084607124328613281 10.085330963134765625 10.08287811279296875 10.079923629760742188 10.075727462768554688 10.068881988525390625 10.06107330322265625 10.053480148315429688 10.046236991882324219 10.038991928100585938 10.031362533569335938 10.022969245910644531 10.014028549194335938 10.004827499389648438 9.9956865310668945313 9.986934661865234375 9.978572845458984375 9.971523284912109375 9.9653635025024414063 9.9598875045776367188 9.9549407958984375 9.9499540328979492188 9.9449510574340820313 9.9396924972534179688 9.9341993331909179688 9.9285249710083007813 9.9228572845458984375 9.9173297882080078125 9.9120807647705078125 9.907566070556640625 9.90467071533203125 9.903377532958984375 9.903636932373046875 9.9059400558471679688 9.9106235504150390625 9.9169063568115234375 9.9246301651000976563 9.9344224929809570313 9.9452981948852539063 9.9560422897338867188 9.9664287567138671875 9.9762353897094726563 9.985248565673828125 9.9933977127075195313 10.000809669494628906 10.007651329040527344 10.014281272888183594 10.020856857299804688 10.027742385864257813 10.035725593566894531 10.044805526733398438 10.055287361145019531 10.065712928771972656 10.074520111083984375 10.082146644592285156 10.088809013366699219 10.095080375671386719 10.101853370666503906 10.108607292175292969 10.114455223083496094 10.120020866394042969 10.126208305358886719 10.132746696472167969 10.139177322387695313 10.145836830139160156 10.152973175048828125 10.160202980041503906 10.167856216430664063 10.176074028015136719 10.18508148193359375 10.195197105407714844 10.206813812255859375 10.220354080200195313 10.236142158508300781 10.254067420959472656 10.273664474487304688 10.29461669921875 10.316748619079589844 10.339656829833984375 10.363127708435058594 10.387467384338378906 10.411284446716308594 10.43306732177734375 10.454077720642089844 10.476804733276367188 10.503518104553222656 10.531477928161621094 10.558621406555175781 10.583643913269042969 10.606633186340332031 10.628404617309570313 10.648602485656738281 10.666321754455566406 10.681644439697265625 10.695875167846679688 10.709217071533203125 10.721947669982910156 10.733929634094238281 10.74565887451171875 10.75736236572265625 10.76755523681640625 10.776853561401367188 10.786555290222167969 10.795536994934082031 10.803296089172363281 10.811037063598632813 10.819568634033203125 10.82823944091796875 10.835560798645019531 10.842080116271972656 10.847046852111816406 10.851418495178222656 10.855436325073242188 10.859955787658691406 10.864796638488769531 10.869336128234863281 10.873394966125488281 10.877080917358398438 10.880907058715820313 10.88427734375 10.885889053344726563 10.885434150695800781 10.883946418762207031 10.882441520690917969 10.881287574768066406 10.880480766296386719 10.879697799682617188 10.8788604736328125 10.879078865051269531 10.879346847534179688 10.880560874938964844 10.884287834167480469 10.891114234924316406 10.897202491760253906 10.899675369262695313 10.898233413696289063 10.893398284912109375 10.886407852172851563 10.877283096313476563 10.863800048828125 10.844733238220214844 10.820159912109375 10.791690826416015625 10.763277053833007813 10.734040260314941406 10.701467514038085938 10.664911270141601563 10.626494407653808594 10.591348648071289063 0 0 0 0 0 0 0 0 0 0 0 0 0 0 
0 0 0 0 0 0 0 0 10.207460403442382813 10.1997833251953125 10.191303253173828125 10.185521125793457031 10.178440093994140625 10.16407012939453125 10.144786834716796875 10.130308151245117188 10.118659019470214844 10.109700202941894531 10.104990005493164063 10.101130485534667969 10.095227241516113281 10.087866783142089844 10.080796241760253906 10.073281288146972656 10.064459800720214844 10.055283546447753906 10.046108245849609375 10.038647651672363281 10.03270721435546875 10.02725982666015625 10.021189689636230469 10.014452934265136719 10.008032798767089844 10.001399040222167969 9.9939069747924804688 9.9864139556884765625 9.9800920486450195313 9.9745540618896484375 9.9698772430419921875 9.9660539627075195313 9.9625949859619140625 9.9594182968139648438 9.9564723968505859375 9.9534578323364257813 9.949802398681640625 9.9462375640869140625 9.9428119659423828125 9.9392156600952148438 9.9350252151489257813 9.9307966232299804688 9.9269990921020507813 9.923915863037109375 9.92203521728515625 9.9223155975341796875 9.9254465103149414063 9.9305448532104492188 9.93701934814453125 9.9451818466186523438 9.9544973373413085938 9.964565277099609375 9.9747142791748046875 9.9844074249267578125 9.9934539794921875 10.001796722412109375 10.009645462036132813 10.017230987548828125 10.024623870849609375 10.032033920288085938 10.039389610290527344 10.046756744384765625 10.05448150634765625 10.062946319580078125 10.072178840637207031 10.081559181213378906 10.0890045166015625 10.094580650329589844 10.099612236022949219 10.105581283569335938 10.111627578735351563 10.117334365844726563 10.123076438903808594 10.129465103149414063 10.136340141296386719 10.143500328063964844 10.151484489440917969 10.159845352172851563 10.168333053588867188 10.177244186401367188 10.187227249145507813 10.198977470397949219 10.213129043579101563 10.229848861694335938 10.249775886535644531 10.272402763366699219 10.296817779541015625 10.322115898132324219 10.347590446472167969 10.372832298278808594 10.397725105285644531 10.422151565551757813 10.445169448852539063 10.465817451477050781 10.485841751098632813 10.506528854370117188 10.5311279296875 10.557196617126464844 10.583316802978515625 10.607991218566894531 10.631264686584472656 10.653249740600585938 10.6736297607421875 10.691434860229492188 10.706471443176269531 10.719768524169921875 10.732266426086425781 10.74443817138671875 10.756334304809570313 10.768164634704589844 10.7805023193359375 10.792080879211425781 10.802538871765136719 10.813061714172363281 10.821096420288085938 10.827564239501953125 10.8340911865234375 10.842189788818359375 10.850734710693359375 10.858407974243164063 10.865118026733398438 10.870654106140136719 10.875340461730957031 10.879733085632324219 10.884459495544433594 10.889208793640136719 10.893337249755859375 10.897260665893554688 10.901913642883300781 10.905841827392578125 10.908602714538574219 10.908254623413085938 10.905138015747070313 10.901408195495605469 10.8984222412109375 10.8963470458984375 10.894803047180175781 10.89330291748046875 10.891581535339355469 10.890092849731445313 10.888896942138671875 10.888772964477539063 10.890986442565917969 10.89672088623046875 10.900691032409667969 10.900960922241210938 10.898644447326660156 10.894556045532226563 10.887982368469238281 10.877758026123046875 10.862755775451660156 10.841753005981445313 10.814966201782226563 10.785574913024902344 10.756443023681640625 10.725336074829101563 10.689838409423828125 10.651796340942382813 10.615264892578125 10.586861610412597656 0 0 0 0 0 0 0 0 0 0 0 0 0 0 
0 0 0 0 0 0 10.205610275268554688 10.206630706787109375 10.20409393310546875 10.199726104736328125 10.193352699279785156 10.185420036315917969 10.175340652465820313 10.161676406860351563 10.151129722595214844 10.148893356323242188 10.144175529479980469 10.135189056396484375 10.124445915222167969 10.111979484558105469 10.099178314208984375 10.088605880737304688 10.080934524536132813 10.074517250061035156 10.067936897277832031 10.061038970947265625 10.054189682006835938 10.048827171325683594 10.043723106384277344 10.039989471435546875 10.037302017211914063 10.032812118530273438 10.027818679809570313 10.021323204040527344 10.012805938720703125 10.003712654113769531 9.9960775375366210938 9.9907274246215820313 9.9869451522827148438 9.9843273162841796875 9.9822540283203125 9.9803018569946289063 9.97826385498046875 9.9766740798950195313 9.9760894775390625 9.975833892822265625 9.974506378173828125 9.97257232666015625 9.9695081710815429688 9.9648962020874023438 9.9592504501342773438 9.9535923004150390625 9.9483137130737304688 9.9441204071044921875 9.9419031143188476563 9.9422855377197265625 9.9452304840087890625 9.950527191162109375 9.9577150344848632813 9.9664096832275390625 9.976078033447265625 9.9860401153564453125 9.9955492019653320313 10.004544258117675781 10.013212203979492188 10.021259307861328125 10.028888702392578125 10.036214828491210938 10.043300628662109375 10.050073623657226563 10.056706428527832031 10.063220977783203125 10.069868087768554688 10.077404022216796875 10.084672927856445313 10.091531753540039063 10.097697257995605469 10.103281021118164063 10.109273910522460938 10.115631103515625 10.121732711791992188 10.128145217895507813 10.135117530822753906 10.142763137817382813 10.151110649108886719 10.160089492797851563 10.169557571411132813 10.1798095703125 10.191487312316894531 10.205439567565917969 10.222657203674316406 10.24352264404296875 10.268316268920898438 10.296261787414550781 10.325407981872558594 10.353565216064453125 10.380793571472167969 10.407072067260742188 10.431926727294921875 10.454764366149902344 10.475216865539550781 10.493939399719238281 10.513065338134765625 10.534134864807128906 10.557331085205078125 10.581944465637207031 10.607179641723632813 10.632045745849609375 10.655613899230957031 10.677634239196777344 10.698048591613769531 10.715470314025878906 10.729764938354492188 10.742320060729980469 10.75432586669921875 10.766222000122070313 10.777965545654296875 10.789893150329589844 10.80252838134765625 10.815156936645507813 10.82678985595703125 10.837491989135742188 10.845254898071289063 10.85085296630859375 10.85599517822265625 10.864384651184082031 10.873926162719726563 10.881831169128417969 10.888561248779296875 10.894457817077636719 10.899601936340332031 10.90407562255859375 10.908166885375976563 10.912365913391113281 10.916769027709960938 10.921072959899902344 10.92618560791015625 10.929286003112792969 10.930040359497070313 10.926352500915527344 10.920642852783203125 10.916100502014160156 10.912911415100097656 10.910498619079589844 10.9080810546875 10.90522003173828125 10.901869773864746094 10.898379325866699219 10.895697593688964844 10.894846916198730469 10.895898818969726563 10.89936065673828125 10.9012451171875 10.900152206420898438 10.897533416748046875 10.894330978393554688 10.888314247131347656 10.877750396728515625 10.861497879028320313 10.838490486145019531 10.809739112854003906 10.779042243957519531 10.747790336608886719 10.713144302368164063 10.674763679504394531 10.637205123901367188 10.603119850158691406 0 0 0 0 0 0 0 0 0 0 0 0 0 0 0 
0 0 0 0 0 10.204028129577636719 10.205465316772460938 10.2076873779296875 10.207546234130859375 10.203820228576660156 10.196414947509765625 10.186841964721679688 10.179431915283203125 10.177542686462402344 10.182271957397460938 10.186604499816894531 10.174890518188476563 10.156307220458984375 10.135009765625 10.114058494567871094 10.098905563354492188 10.092946052551269531 0 0 0 0 10.085071563720703125 10.085063934326171875 10.080354690551757813 10.074405670166015625 10.069476127624511719 10.063524246215820313 0 10.053014755249023438 10.041724205017089844 10.031602859497070313 10.023137092590332031 10.018061637878417969 10.015704154968261719 10.01479339599609375 10.014513015747070313 10.015149116516113281 10.015323638916015625 10.015063285827636719 10.014954566955566406 10.015314102172851563 10.014679908752441406 10.013103485107421875 10.010361671447753906 10.005570411682128906 9.997837066650390625 9.9888095855712890625 9.9798755645751953125 9.9715404510498046875 9.9640560150146484375 9.9592409133911132813 9.9579830169677734375 9.9598817825317382813 9.9645175933837890625 9.9714479446411132813 9.979793548583984375 9.989109039306640625 9.9987268447875976563 10.008059501647949219 10.01683807373046875 10.025061607360839844 10.032512664794921875 10.039577484130859375 10.045868873596191406 10.052071571350097656 10.058073043823242188 10.063952445983886719 10.069737434387207031 10.075586318969726563 10.081774711608886719 10.088084220886230469 10.094313621520996094 10.100230216979980469 10.106344223022460938 10.113391876220703125 10.120455741882324219 10.127519607543945313 10.135059356689453125 10.143387794494628906 10.152271270751953125 10.161989212036132813 10.172719001770019531 10.184820175170898438 10.198943138122558594 10.215932846069335938 10.237084388732910156 10.262942314147949219 10.291892051696777344 10.323635101318359375 10.35674285888671875 10.388063430786132813 10.4150848388671875 10.440159797668457031 10.463609695434570313 10.484315872192382813 10.502587318420410156 10.519884109497070313 10.538527488708496094 10.559856414794921875 10.583319664001464844 10.607931137084960938 10.632899284362792969 10.657284736633300781 10.680148124694824219 10.701397895812988281 10.721186637878417969 10.738047599792480469 10.751809120178222656 10.763934135437011719 10.775782585144042969 10.787626266479492188 10.799181938171386719 10.811060905456542969 10.823763847351074219 10.836779594421386719 10.849083900451660156 10.859857559204101563 10.86795806884765625 10.873030662536621094 10.878162384033203125 10.886651039123535156 10.897109031677246094 10.9049224853515625 10.911773681640625 10.917735099792480469 10.923666954040527344 10.927941322326660156 10.931079864501953125 10.934939384460449219 10.939341545104980469 10.944190025329589844 10.948564529418945313 10.949801445007324219 10.947322845458984375 10.941731452941894531 10.934823036193847656 10.92984771728515625 10.926641464233398438 10.92340850830078125 10.919490814208984375 10.914795875549316406 10.909297943115234375 10.903848648071289063 10.899964332580566406 10.898455619812011719 10.8994293212890625 10.901520729064941406 10.90178680419921875 10.899376869201660156 10.89597320556640625 10.892603874206542969 10.887197494506835938 10.877840042114257813 10.860998153686523438 10.835942268371582031 10.804889678955078125 10.772608757019042969 10.740094184875488281 10.702540397644042969 10.662268638610839844 10.625370025634765625 10.595421791076660156 0 0 0 0 0 0 0 0 0 0 0 0 0 0 0 
0 0 0 10.198748588562011719 10.196947097778320313 10.202980995178222656 10.209318161010742188 10.213434219360351563 10.215872764587402344 10.214308738708496094 10.207735061645507813 10.201295852661132813 10.202971458435058594 10.213603973388671875 10.226884841918945313 10.225278854370117188 10.200133323669433594 0 0 0 0 0 0 0 0 0 0 0 0 0 0 0 0 0 0 0 0 0 10.062533378601074219 10.064713478088378906 10.067952156066894531 10.071492195129394531 10.074635505676269531 10.076944351196289063 10.076642036437988281 10.074405670166015625 10.071687698364257813 10.068705558776855469 10.063361167907714844 10.054623603820800781 10.042279243469238281 10.028559684753417969 10.014611244201660156 10.001600265502929688 9.990238189697265625 9.9812164306640625 9.9753427505493164063 9.9729890823364257813 9.974071502685546875 9.9784345626831054688 9.9851179122924804688 9.9930868148803710938 10.001707077026367188 10.010344505310058594 10.01885986328125 10.027471542358398438 10.035571098327636719 10.043250083923339844 10.049943923950195313 10.055787086486816406 10.061323165893554688 10.0665130615234375 10.071658134460449219 10.077189445495605469 10.082795143127441406 10.088216781616210938 10.093229293823242188 10.098082542419433594 10.103677749633789063 10.110529899597167969 10.118294715881347656 10.126504898071289063 10.135043144226074219 10.144345283508300781 10.1546783447265625 10.165964126586914063 10.17864227294921875 10.193446159362792969 10.211005210876464844 10.2318115234375 10.25701141357421875 10.286350250244140625 10.3183441162109375 10.351781845092773438 10.385487556457519531 10.418138504028320313 10.446798324584960938 10.470396995544433594 10.492104530334472656 10.511038780212402344 10.52828216552734375 10.546026229858398438 10.565936088562011719 10.587921142578125 10.611216545104980469 10.635478019714355469 10.659944534301757813 10.683370590209960938 10.704947471618652344 10.724867820739746094 10.743256568908691406 10.759443283081054688 10.773187637329101563 10.785208702087402344 10.796964645385742188 10.808802604675292969 10.82019805908203125 10.831693649291992188 10.844109535217285156 10.85724639892578125 10.869604110717773438 10.880581855773925781 10.888855934143066406 10.8944091796875 10.900453567504882813 10.909387588500976563 10.919599533081054688 10.928027153015136719 10.933984756469726563 10.939246177673339844 10.946104049682617188 10.950756072998046875 10.953241348266601563 10.956696510314941406 10.960313796997070313 10.9647369384765625 10.96752166748046875 10.966618537902832031 10.962588310241699219 10.956541061401367188 10.949776649475097656 10.9440155029296875 10.939325332641601563 10.934469223022460938 10.928832054138183594 10.922222137451171875 10.914715766906738281 10.90785980224609375 10.902872085571289063 10.901052474975585938 10.902901649475097656 10.905029296875 10.904178619384765625 10.900294303894042969 10.895699501037597656 10.891294479370117188 10.885384559631347656 10.875726699829101563 10.859063148498535156 10.833527565002441406 10.801863670349121094 10.769083976745605469 10.738147735595703125 10.7010345458984375 10.660541534423828125 10.627354621887207031 10.606767654418945313 0 0 0 0 0 0 0 0 0 0 0 0 0 0 0 
0 0 10.199110031127929688 10.196301460266113281 10.205577850341796875 10.215245246887207031 10.22003936767578125 10.22251129150390625 10.222516059875488281 10.21866607666015625 10.216254234313964844 10.220713615417480469 10.235858917236328125 10.254016876220703125 10.269438743591308594 0 0 0 0 0 0 0 0 0 0 0 0 0 0 0 0 0 0 0 0 0 0 0 0 0 0 0 0 0 0 10.138995170593261719 10.136735916137695313 10.132189750671386719 10.12282562255859375 10.109174728393554688 10.092134475708007813 10.073040008544921875 10.053468704223632813 10.034936904907226563 10.0189666748046875 10.006407737731933594 9.9969387054443359375 9.9908046722412109375 9.9882173538208007813 9.9893512725830078125 9.9930467605590820313 9.9986095428466796875 10.005429267883300781 10.013110160827636719 10.021389007568359375 10.029882431030273438 10.038136482238769531 10.046063423156738281 10.05332183837890625 10.059544563293457031 10.064929962158203125 10.069884300231933594 10.074970245361328125 10.080304145812988281 10.085772514343261719 10.090846061706542969 10.095126152038574219 10.099145889282226563 10.104112625122070313 10.110444068908691406 10.118337631225585938 10.127385139465332031 10.13671875 10.146929740905761719 10.158957481384277344 10.172820091247558594 10.18857574462890625 10.20685577392578125 10.228143692016601563 10.253655433654785156 10.282412528991699219 10.314075469970703125 10.347027778625488281 10.3800048828125 10.412633895874023438 10.444339752197265625 10.472940444946289063 10.496614456176757813 10.517034530639648438 10.536334991455078125 10.554866790771484375 10.574389457702636719 10.596137046813964844 10.618967056274414063 10.641551971435546875 10.664526939392089844 10.687757492065429688 10.709840774536132813 10.729991912841796875 10.748443603515625 10.765470504760742188 10.780851364135742188 10.794298171997070313 10.806264877319335938 10.817896842956542969 10.829682350158691406 10.841034889221191406 10.851879119873046875 10.863503456115722656 10.876407623291015625 10.889112472534179688 10.900728225708007813 10.909948348999023438 10.915678977966308594 10.922686576843261719 10.932065010070800781 10.941776275634765625 10.949843406677246094 10.955773353576660156 10.961114883422851563 10.9670257568359375 10.971492767333984375 10.97431182861328125 10.977298736572265625 10.979250907897949219 10.982611656188964844 10.983637809753417969 10.980864524841308594 10.9762725830078125 10.970149040222167969 10.963388442993164063 10.956743240356445313 10.950267791748046875 10.943503379821777344 10.936036109924316406 10.927779197692871094 10.919222831726074219 10.911658287048339844 10.906077384948730469 10.903150558471679688 10.906346321105957031 10.909467697143554688 10.908490180969238281 10.903754234313964844 10.898107528686523438 10.89166259765625 10.8838043212890625 10.873068809509277344 10.856234550476074219 10.831406593322753906 10.801029205322265625 10.77013397216796875 10.741563796997070313 10.7089080810546875 10.671003341674804688 10.642358779907226563 10.626465797424316406 10.607254981994628906 0 0 0 0 0 0 0 0 0 0 0 0 0 0 
0 10.236621856689453125 10.22246551513671875 10.222555160522460938 10.227713584899902344 10.228271484375 10.225734710693359375 10.22444915771484375 10.222426414489746094 10.222203254699707031 10.228674888610839844 10.242287635803222656 10.262651443481445313 10.283936500549316406 10.301527976989746094 0 0 0 0 0 0 0 0 0 0 0 0 0 0 0 0 0 0 0 0 0 0 0 0 0 0 0 0 0 0 0 0 0 10.174529075622558594 10.1620025634765625 10.147363662719726563 10.126031875610351563 10.098236083984375 10.07137298583984375 10.050601959228515625 10.033736228942871094 10.020585060119628906 10.011323928833007813 10.00531005859375 10.002988815307617188 10.004221916198730469 10.007700920104980469 10.012480735778808594 10.018233299255371094 10.024793624877929688 10.032047271728515625 10.039764404296875 10.047568321228027344 10.055116653442382813 10.061766624450683594 10.067301750183105469 10.072134017944335938 10.076868057250976563 10.082118988037109375 10.088501930236816406 10.094388008117675781 10.098842620849609375 10.102764129638671875 10.106955528259277344 10.11297607421875 10.120499610900878906 10.129667282104492188 10.140523910522460938 10.152776718139648438 10.167101860046386719 10.184163093566894531 10.203859329223632813 10.226323127746582031 10.252461433410644531 10.280991554260253906 10.311806678771972656 10.344146728515625 10.376465797424316406 10.407777786254882813 10.438168525695800781 10.467884063720703125 10.495816230773925781 10.519838333129882813 10.541361808776855469 10.562044143676757813 10.582754135131835938 10.604836463928222656 10.628329277038574219 10.651644706726074219 10.673436164855957031 10.694494247436523438 10.71573638916015625 10.736005783081054688 10.754465103149414063 10.771480560302734375 10.787572860717773438 10.802408218383789063 10.815494537353515625 10.82717132568359375 10.838562965393066406 10.850096702575683594 10.861149787902832031 10.871562957763671875 10.882465362548828125 10.894986152648925781 10.9089813232421875 10.921062469482421875 10.931046485900878906 10.937132835388183594 10.9452362060546875 10.954425811767578125 10.963463783264160156 10.971090316772460938 10.97699737548828125 10.982288360595703125 10.987080574035644531 10.990688323974609375 10.993265151977539063 10.994963645935058594 10.995621681213378906 10.997290611267089844 10.996858596801757813 10.993036270141601563 10.988299369812011719 10.982151031494140625 10.9749755859375 10.96701812744140625 10.958786964416503906 10.950254440307617188 10.941376686096191406 10.932177543640136719 10.923333168029785156 10.915970802307128906 10.910930633544921875 10.909181594848632813 10.911564826965332031 10.9145355224609375 10.914236068725585938 10.909113883972167969 10.902400016784667969 10.89374542236328125 10.882725715637207031 10.870985984802246094 10.853475570678710938 10.829700469970703125 10.801774024963378906 10.77442169189453125 10.748078346252441406 10.718657493591308594 10.686881065368652344 10.659388542175292969 10.634543418884277344 0 0 0 0 0 0 0 0 0 0 0 0 0 0 0 
0 0 0 0 0 10.244798660278320313 10.233913421630859375 10.228107452392578125 10.227125167846679688 10.231433868408203125 10.243122100830078125 10.263377189636230469 10.287255287170410156 10.309467315673828125 0 0 0 0 0 0 0 0 0 0 0 0 0 0 0 0 0 0 0 0 0 0 0 0 0 0 0 0 0 0 0 0 0 0 0 0 0 10.194041252136230469 10.157358169555664063 10.120646476745605469 10.091450691223144531 10.068547248840332031 10.050692558288574219 10.037052154541015625 10.027371406555175781 10.021451950073242188 10.019312858581542969 10.0195770263671875 10.022164344787597656 10.026132583618164063 10.031168937683105469 10.037064552307128906 10.043817520141601563 10.050981521606445313 10.058000564575195313 10.064577102661132813 10.070311546325683594 10.075022697448730469 10.079329490661621094 10.084284782409667969 10.090789794921875 10.098169326782226563 10.103981971740722656 10.108633995056152344 10.11186981201171875 10.116751670837402344 10.124208450317382813 10.133828163146972656 10.146077156066894531 10.161185264587402344 10.179491043090820313 10.20087432861328125 10.225492477416992188 10.252611160278320313 10.281634330749511719 10.31209564208984375 10.343384742736816406 10.37474822998046875 10.405268669128417969 10.434320449829101563 10.462250709533691406 10.490255355834960938 10.518273353576660156 10.542963981628417969 10.566597938537597656 10.589446067810058594 10.612584114074707031 10.636527061462402344 10.660802841186523438 10.684035301208496094 10.705245018005371094 10.724887847900390625 10.743747711181640625 10.761727333068847656 10.778507232666015625 10.794203758239746094 10.809604644775390625 10.823901176452636719 10.836751937866210938 10.848035812377929688 10.85910797119140625 10.870197296142578125 10.8806915283203125 10.890497207641601563 10.900850296020507813 10.913778305053710938 10.928488731384277344 10.941431045532226563 10.95116424560546875 10.958269119262695313 10.967291831970214844 10.976252555847167969 10.984499931335449219 10.99132537841796875 10.996926307678222656 11.001852035522460938 11.005392074584960938 11.008050918579101563 11.009927749633789063 11.010100364685058594 11.009743690490722656 11.009693145751953125 11.007889747619628906 11.003587722778320313 10.998524665832519531 10.99211883544921875 10.984160423278808594 10.974880218505859375 10.964878082275390625 10.95484161376953125 10.944972038269042969 10.935405731201171875 10.926947593688964844 10.920698165893554688 10.916934013366699219 10.9164886474609375 10.91876220703125 10.92115020751953125 10.92029571533203125 10.914860725402832031 10.906686782836914063 10.89580535888671875 10.881396293640136719 10.868058204650878906 10.849544525146484375 10.827131271362304688 10.801409721374511719 10.777329444885253906 10.753881454467773438 10.7271728515625 10.695813179016113281 10.663152694702148438 10.630035400390625 0 0 0 0 0 0 0 0 0 0 0 0 0 0 0 
0 0 0 0 0 0 10.244516372680664063 10.237183570861816406 10.237469673156738281 10.243926048278808594 10.260407447814941406 10.285962104797363281 10.311585426330566406 10.33147430419921875 0 0 0 0 0 0 0 0 0 0 0 0 0 0 0 0 0 0 0 0 0 0 0 0 0 0 0 0 0 0 0 0 0 0 0 0 0 0 0 10.176395416259765625 10.142825126647949219 10.114764213562011719 10.09265899658203125 10.074453353881835938 10.059325218200683594 10.047933578491210938 10.040391921997070313 10.035863876342773438 10.034238815307617188 10.0352935791015625 10.039063453674316406 10.044381141662597656 10.050209999084472656 10.056613922119140625 10.063350677490234375 10.069958686828613281 10.075834274291992188 10.080913543701171875 10.085512161254882813 10.090137481689453125 10.095805168151855469 10.102969169616699219 10.110003471374511719 10.1154327392578125 10.119832992553710938 10.124157905578613281 10.130383491516113281 10.140016555786132813 10.153722763061523438 10.17244720458984375 10.195889472961425781 10.222754478454589844 10.252007484436035156 10.282551765441894531 10.313564300537109375 10.344519615173339844 10.374974250793457031 10.404478073120117188 10.432660102844238281 10.459514617919921875 10.485875129699707031 10.513329505920410156 10.542253494262695313 10.56903076171875 10.595328330993652344 10.620159149169921875 10.64485931396484375 10.669484138488769531 10.69345855712890625 10.715696334838867188 10.735687255859375 10.753931999206542969 10.770902633666992188 10.786935806274414063 10.8021697998046875 10.816857337951660156 10.831335067749023438 10.844783782958984375 10.857569694519042969 10.869261741638183594 10.879755973815917969 10.890287399291992188 10.899891853332519531 10.908847808837890625 10.918721199035644531 10.932961463928222656 10.94853973388671875 10.961583137512207031 10.971285820007324219 10.9797821044921875 10.988734245300292969 10.996932029724121094 11.004015922546386719 11.010087966918945313 11.015414237976074219 11.019610404968261719 11.021033287048339844 11.022913932800292969 11.024210929870605469 11.022937774658203125 11.021543502807617188 11.020719528198242188 11.017713546752929688 11.012917518615722656 11.007258415222167969 11.000153541564941406 10.991119384765625 10.980416297912597656 10.969037055969238281 10.957813262939453125 10.947561264038085938 10.938337326049804688 10.930913925170898438 10.926252365112304688 10.924117088317871094 10.925079345703125 10.927407264709472656 10.928735733032226563 10.926367759704589844 10.920069694519042969 10.910680770874023438 10.89728546142578125 10.880842208862304688 10.864389419555664063 10.845330238342285156 10.823713302612304688 10.799889564514160156 10.778061866760253906 10.757068634033203125 10.731406211853027344 10.698278427124023438 10.660208702087402344 10.623177528381347656 0 0 0 0 0 0 0 0 0 0 0 0 0 0 0 
0 0 0 0 0 0 10.262530326843261719 10.254911422729492188 10.2538909912109375 10.262050628662109375 10.281250953674316406 10.30565643310546875 0 0 0 0 0 0 0 0 0 0 0 0 0 0 0 0 0 0 0 0 0 0 0 0 0 0 0 0 0 0 0 0 0 0 0 0 0 0 0 0 0 10.219455718994140625 10.198376655578613281 10.168322563171386719 10.14013671875 10.116023063659667969 10.094954490661621094 10.07865142822265625 10.066675186157226563 10.058178901672363281 10.05268096923828125 10.050009727478027344 10.050314903259277344 10.053063392639160156 10.05710601806640625 10.062329292297363281 10.068043708801269531 10.074344635009765625 10.080752372741699219 10.087288856506347656 10.093188285827636719 10.097895622253417969 10.1022186279296875 10.10839080810546875 10.115864753723144531 10.123132705688476563 10.129198074340820313 10.134433746337890625 10.140768051147460938 10.150922775268554688 10.166478157043457031 10.188150405883789063 10.2158966064453125 10.24739837646484375 10.280834197998046875 10.314035415649414063 10.345993995666503906 10.3764495849609375 10.405417442321777344 10.433022499084472656 10.459310531616210938 10.484665870666503906 10.510661125183105469 10.539557456970214844 10.570362091064453125 10.599771499633789063 10.627802848815917969 10.654001235961914063 10.679046630859375 10.703082084655761719 10.725646018981933594 10.746104240417480469 10.764525413513183594 10.781537055969238281 10.796992301940917969 10.811658859252929688 10.825717926025390625 10.83991241455078125 10.853919029235839844 10.86675262451171875 10.878985404968261719 10.890777587890625 10.900875091552734375 10.910505294799804688 10.91913604736328125 10.9272308349609375 10.936547279357910156 10.952759742736816406 10.969532966613769531 10.9823760986328125 10.9923095703125 11.001157760620117188 11.009204864501953125 11.01611328125 11.022024154663085938 11.027268409729003906 11.031650543212890625 11.034026145935058594 11.034231185913085938 11.035902023315429688 11.036724090576171875 11.034740447998046875 11.032303810119628906 11.030907630920410156 11.027029037475585938 11.021276473999023438 11.014711380004882813 11.006615638732910156 10.996385574340820313 10.984409332275390625 10.971799850463867188 10.959906578063964844 10.949743270874023438 10.941618919372558594 10.936135292053222656 10.933498382568359375 10.932938575744628906 10.934345245361328125 10.93584442138671875 10.935948371887207031 10.932047843933105469 10.924551963806152344 10.913550376892089844 10.897858619689941406 10.880251884460449219 10.862391471862792969 10.843026161193847656 10.821561813354492188 10.799656867980957031 10.779582977294921875 10.75913238525390625 10.732618331909179688 10.697096824645996094 10.654427528381347656 10.618773460388183594 0 0 0 0 0 0 0 0 0 0 0 0 0 0 0 
0 0 0 0 0 0 0 0 0 0 0 0 0 0 0 0 0 0 0 0 0 0 0 0 0 0 0 0 0 0 0 0 0 0 0 0 0 0 0 0 0 0 0 0 0 0 0 0 0 0 0 0 0 0 0 0 0 10.169483184814453125 10.134602546691894531 10.1114654541015625 10.094531059265136719 10.081931114196777344 10.072801589965820313 10.066812515258789063 10.063950538635253906 10.06395721435546875 10.066086769104003906 10.069451332092285156 10.073749542236328125 10.079306602478027344 10.085905075073242188 10.092890739440917969 10.099492073059082031 10.105367660522460938 10.109951019287109375 10.114743232727050781 10.121569633483886719 10.130139350891113281 10.138369560241699219 10.145577430725097656 10.1539764404296875 10.166187286376953125 10.183847427368164063 10.208649635314941406 10.240143775939941406 10.275040626525878906 10.310770034790039063 10.345076560974121094 10.377107620239257813 10.406725883483886719 10.434277534484863281 10.460520744323730469 10.48612213134765625 10.511730194091796875 10.538737297058105469 10.569880485534667969 10.603495597839355469 10.634999275207519531 10.663468360900878906 10.689757347106933594 10.713924407958984375 10.736173629760742188 10.756647109985351563 10.775272369384765625 10.792211532592773438 10.808162689208984375 10.8227691650390625 10.836675643920898438 10.849854469299316406 10.863516807556152344 10.877289772033691406 10.889711380004882813 10.901301383972167969 10.912781715393066406 10.92279815673828125 10.931194305419921875 10.938884735107421875 10.9463958740234375 10.956465721130371094 10.973208427429199219 10.991232872009277344 11.003942489624023438 11.012969970703125 11.021145820617675781 11.027970314025878906 11.033452987670898438 11.038263320922851563 11.04259490966796875 11.045984268188476563 11.047053337097167969 11.047211647033691406 11.048094749450683594 11.047999382019042969 11.045717239379882813 11.042255401611328125 11.039846420288085938 11.03530120849609375 11.0282135009765625 11.02083587646484375 11.011507034301757813 11.00025177001953125 10.987047195434570313 10.973858833312988281 10.961995124816894531 10.952380180358886719 10.945766448974609375 10.94220733642578125 10.941334724426269531 10.942112922668457031 10.943071365356445313 10.943322181701660156 10.941748619079589844 10.936764717102050781 10.927951812744140625 10.915177345275878906 10.897297859191894531 10.87851715087890625 10.860877037048339844 10.8418426513671875 10.821237564086914063 10.801130294799804688 10.782705307006835938 10.762068748474121094 10.732574462890625 10.693424224853515625 10.652823448181152344 0 0 0 0 0 0 0 0 0 0 0 0 0 0 0 0 
0 0 0 0 0 0 0 0 0 0 0 0 0 0 0 0 0 0 0 0 0 0 0 0 0 0 0 0 0 0 0 0 0 0 0 0 0 0 0 0 0 0 0 0 0 0 0 0 0 0 0 0 0 0 0 0 0 0 10.183249473571777344 10.15167999267578125 10.125928878784179688 10.106476783752441406 10.094573020935058594 10.086062431335449219 10.07993316650390625 10.0774993896484375 10.0777740478515625 10.079159736633300781 10.081787109375 10.08612823486328125 10.092251777648925781 10.099474906921386719 10.106554031372070313 10.112836837768554688 10.118285179138183594 10.123241424560546875 10.129179954528808594 10.138708114624023438 10.149706840515136719 10.159643173217773438 10.170886993408203125 10.186383247375488281 10.206982612609863281 10.234561920166015625 10.268339157104492188 10.304986000061035156 10.341175079345703125 10.375004768371582031 10.406070709228515625 10.434655189514160156 10.461739540100097656 10.4882965087890625 10.514883041381835938 10.542202949523925781 10.5713653564453125 10.604559898376464844 10.640837669372558594 10.673031806945800781 10.700997352600097656 10.725975990295410156 10.748373031616210938 10.768570899963378906 10.786958694458007813 10.803770065307617188 10.8193206787109375 10.834180831909179688 10.848752021789550781 10.862624168395996094 10.875238418579101563 10.887775421142578125 10.900660514831542969 10.912009239196777344 10.9226837158203125 10.934566497802734375 10.944406509399414063 10.952480316162109375 10.959680557250976563 10.966871261596679688 10.977828025817871094 10.994833946228027344 11.012463569641113281 11.024161338806152344 11.032161712646484375 11.039120674133300781 11.04471588134765625 11.049136161804199219 11.052987098693847656 11.056551933288574219 11.059247970581054688 11.059644699096679688 11.059610366821289063 11.059603691101074219 11.058501243591308594 11.055177688598632813 11.05147552490234375 11.048015594482421875 11.042546272277832031 11.034845352172851563 11.025730133056640625 11.015383720397949219 11.003347396850585938 10.990006446838378906 10.976175308227539063 10.964371681213378906 10.955630302429199219 10.950631141662597656 10.948373794555664063 10.94892120361328125 10.950016975402832031 10.950033187866210938 10.948762893676757813 10.945595741271972656 10.939280509948730469 10.928860664367675781 10.914275169372558594 10.895570755004882813 10.876644134521484375 10.859757423400878906 10.841714859008789063 10.822161674499511719 10.803874015808105469 10.78746795654296875 10.766816139221191406 10.734084129333496094 10.693528175354003906 10.655877113342285156 0 0 0 0 0 0 0 0 0 0 0 0 0 0 0 0 
0 0 0 0 0 0 0 0 0 0 0 0 0 0 0 0 0 0 0 0 0 0 0 0 0 0 0 0 0 0 0 0 0 0 0 0 0 0 0 0 0 0 0 0 0 0 0 0 0 0 0 0 0 0 0 0 0 0 0 10.190583229064941406 10.158800125122070313 10.133584022521972656 10.118927001953125 10.108655929565429688 10.099431991577148438 10.094240188598632813 10.09265899658203125 10.092012405395507813 10.092708587646484375 10.095704078674316406 10.100855827331542969 10.10746002197265625 10.114324569702148438 10.120786666870117188 10.1268157958984375 10.132619857788085938 10.1392364501953125 10.148800849914550781 10.161866188049316406 10.176157951354980469 10.191988945007324219 10.21163177490234375 10.235922813415527344 10.265685081481933594 10.300457000732421875 10.336854934692382813 10.3718719482421875 10.40411376953125 10.433747291564941406 10.461865425109863281 10.489771842956542969 10.518278121948242188 10.547595024108886719 10.577958106994628906 10.609709739685058594 10.643719673156738281 10.6797332763671875 10.712573051452636719 10.738701820373535156 10.761343002319335938 10.781767845153808594 10.800137519836425781 10.816723823547363281 10.831945419311523438 10.846367835998535156 10.860423088073730469 10.874169349670410156 10.887151718139648438 10.899200439453125 10.911320686340332031 10.923392295837402344 10.934063911437988281 10.944231033325195313 10.956422805786132813 10.967245101928710938 10.975103378295898438 10.98199462890625 10.988920211791992188 11.000039100646972656 11.017255783081054688 11.03311920166015625 11.043079376220703125 11.049719810485839844 11.055415153503417969 11.059942245483398438 11.063464164733886719 11.066576957702636719 11.069430351257324219 11.071592330932617188 11.0718231201171875 11.071248054504394531 11.070403099060058594 11.068362236022949219 11.06423187255859375 11.060541152954101563 11.056097030639648438 11.049663543701171875 11.040981292724609375 11.030398368835449219 11.018479347229003906 11.005337715148925781 10.991655349731445313 10.978479385375976563 10.967281341552734375 10.959522247314453125 10.955631256103515625 10.954288482666015625 10.955654144287109375 10.956155776977539063 10.954483985900878906 10.951629638671875 10.94720458984375 10.939658164978027344 10.928030014038085938 10.912091255187988281 10.893349647521972656 10.875085830688476563 10.858626365661621094 10.842270851135253906 10.824536323547363281 10.808038711547851563 10.793025970458984375 10.772801399230957031 10.738656044006347656 10.699835777282714844 10.664160728454589844 0 0 0 0 0 0 0 0 0 0 0 0 0 0 0 0 
0 0 0 0 0 0 0 0 0 0 0 0 0 0 0 0 0 0 0 0 0 0 0 0 0 0 0 0 0 0 0 0 0 0 0 0 0 0 0 0 0 0 0 0 0 0 0 0 0 0 0 0 0 0 0 0 0 0 0 0 10.182420730590820313 10.160955429077148438 10.145158767700195313 10.132977485656738281 10.121729850769042969 10.113019943237304688 10.108903884887695313 10.106469154357910156 10.105671882629394531 10.107291221618652344 10.111388206481933594 10.116926193237304688 10.122791290283203125 10.128818511962890625 10.135275840759277344 10.142251968383789063 10.150555610656738281 10.161911964416503906 10.176985740661621094 10.195294380187988281 10.216435432434082031 10.240517616271972656 10.268751144409179688 10.300038337707519531 10.3347015380859375 10.369696617126464844 10.40239715576171875 10.432384490966796875 10.461101531982421875 10.490062713623046875 10.520337104797363281 10.55226898193359375 10.585300445556640625 10.618714332580566406 10.652124404907226563 10.685761451721191406 10.719225883483886719 10.750145912170410156 10.775795936584472656 10.795855522155761719 10.81407928466796875 10.830884933471679688 10.845834732055664063 10.859476089477539063 10.87276458740234375 10.886166572570800781 10.899094581604003906 10.911229133605957031 10.923044204711914063 10.934926033020019531 10.946217536926269531 10.956346511840820313 10.96661376953125 10.978649139404296875 10.990218162536621094 10.998068809509277344 11.00580596923828125 11.012366294860839844 11.023082733154296875 11.0399322509765625 11.053648948669433594 11.061127662658691406 11.066458702087402344 11.071026802062988281 11.07457733154296875 11.077345848083496094 11.079720497131347656 11.081807136535644531 11.083310127258300781 11.083454132080078125 11.082215309143066406 11.080449104309082031 11.077822685241699219 11.073810577392578125 11.069613456726074219 11.064165115356445313 11.056943893432617188 11.047316551208496094 11.034914970397949219 11.021429061889648438 11.007294654846191406 10.993443489074707031 10.98104095458984375 10.971164703369140625 10.964686393737792969 10.9613037109375 10.960496902465820313 10.961221694946289063 10.960493087768554688 10.957064628601074219 10.952195167541503906 10.945895195007324219 10.937590599060058594 10.925101280212402344 10.908464431762695313 10.889978408813476563 10.872504234313964844 10.857268333435058594 10.842911720275878906 10.828177452087402344 10.81339263916015625 10.797353744506835938 10.775135993957519531 10.740617752075195313 10.7018585205078125 0 0 0 0 0 0 0 0 0 0 0 0 0 0 0 0 0 
0 0 0 0 0 0 0 0 0 0 0 0 0 0 0 0 0 0 0 0 0 0 0 0 0 0 0 0 0 0 0 0 0 0 0 0 0 0 0 0 0 0 0 0 0 0 0 0 0 0 0 0 0 0 0 0 0 0 0 0 0 10.191597938537597656 10.176469802856445313 10.162041664123535156 10.148055076599121094 10.136057853698730469 10.128403663635253906 10.124512672424316406 10.122701644897460938 10.122696876525878906 10.125205039978027344 10.129111289978027344 10.133523941040039063 10.138578414916992188 10.145298004150390625 10.154073715209960938 10.165032386779785156 10.179546356201171875 10.197701454162597656 10.219491004943847656 10.24423980712890625 10.271937370300292969 10.302535057067871094 10.335103034973144531 10.368575096130371094 10.401007652282714844 10.431673049926757813 10.460457801818847656 10.489693641662597656 10.521578788757324219 10.555932044982910156 10.591273307800292969 10.627336502075195313 10.662896156311035156 10.696768760681152344 10.729016304016113281 10.759464263916015625 10.787014007568359375 10.810390472412109375 10.829295158386230469 10.845319747924804688 10.860399246215820313 10.874179840087890625 10.886544227600097656 10.898865699768066406 10.911583900451660156 10.923830986022949219 10.935584068298339844 10.947332382202148438 10.959028244018554688 10.96981048583984375 10.97945404052734375 10.989651679992675781 11.001980781555175781 11.01324462890625 11.02207183837890625 11.031077384948730469 11.038299560546875 11.048376083374023438 11.062490463256835938 11.074193000793457031 11.078816413879394531 11.082877159118652344 11.086477279663085938 11.089211463928222656 11.091135978698730469 11.0925445556640625 11.093889236450195313 11.094940185546875 11.094531059265136719 11.092579841613769531 11.08997344970703125 11.086835861206054688 11.082973480224609375 11.078314781188964844 11.072180747985839844 11.064188003540039063 11.053140640258789063 11.038843154907226563 11.0243682861328125 11.009458541870117188 10.995585441589355469 10.983953475952148438 10.975377082824707031 10.969623565673828125 10.96678924560546875 10.965922355651855469 10.9650726318359375 10.962438583374023438 10.957277297973632813 10.950740814208984375 10.9427032470703125 10.933553695678710938 10.920139312744140625 10.902926445007324219 10.885090827941894531 10.869047164916992188 10.855409622192382813 10.843784332275390625 10.832320213317871094 10.818986892700195313 10.801226615905761719 10.774226188659667969 10.737874031066894531 10.699742317199707031 0 0 0 0 0 0 0 0 0 0 0 0 0 0 0 0 0 
0 0 0 0 0 0 0 0 0 0 0 0 0 0 0 0 0 0 0 0 0 0 0 0 0 0 0 0 0 0 0 0 0 0 0 0 0 0 0 0 0 0 0 0 0 0 0 0 0 0 0 0 0 0 0 0 0 0 0 0 0 0 10.214107513427734375 10.199732780456542969 10.181562423706054688 10.165358543395996094 10.153378486633300781 10.146167755126953125 10.14255523681640625 10.141656875610351563 10.142939567565917969 10.145405769348144531 10.148848533630371094 10.153618812561035156 10.16086578369140625 10.171894073486328125 10.186222076416015625 10.20394134521484375 10.224812507629394531 10.250186920166015625 10.277937889099121094 10.307417869567871094 10.338055610656738281 10.369371414184570313 10.400536537170410156 10.430693626403808594 10.459906578063964844 10.489526748657226563 10.52170562744140625 10.557733535766601563 10.59674072265625 10.635771751403808594 10.672829627990722656 10.708573341369628906 10.741999626159667969 10.772281646728515625 10.799468040466308594 10.823461532592773438 10.844196319580078125 10.861896514892578125 10.8765411376953125 10.889556884765625 10.901845932006835938 10.913412094116210938 10.925089836120605469 10.93694305419921875 10.948763847351074219 10.960505485534667969 10.972169876098632813 10.983653068542480469 10.994052886962890625 11.003224372863769531 11.013236045837402344 11.026342391967773438 11.037632942199707031 11.047956466674804688 11.057305335998535156 11.06512451171875 11.0741424560546875 11.084974288940429688 11.093132972717285156 11.096182823181152344 11.098954200744628906 11.101495742797851563 11.103672027587890625 11.104642868041992188 11.104869842529296875 11.105547904968261719 11.106158256530761719 11.105028152465820313 11.102358818054199219 11.099131584167480469 11.095667839050292969 11.091688156127929688 11.086612701416015625 11.0796051025390625 11.069976806640625 11.05747222900390625 11.042885780334472656 11.027667045593261719 11.012409210205078125 10.99822998046875 10.987034797668457031 10.979162216186523438 10.974004745483398438 10.97148895263671875 10.969933509826660156 10.967564582824707031 10.96276092529296875 10.95577239990234375 10.947719573974609375 10.938488006591796875 10.92706298828125 10.912512779235839844 10.896107673645019531 10.879927635192871094 10.865309715270996094 10.85363006591796875 10.8448944091796875 10.836606979370117188 10.824395179748535156 10.803777694702148438 10.7722320556640625 10.734156608581542969 10.698107719421386719 0 0 0 0 0 0 0 0 0 0 0 0 0 0 0 0 0 
0 0 0 0 0 0 0 0 0 0 0 0 0 0 0 0 0 0 0 0 0 0 0 0 0 0 0 0 0 0 0 0 0 0 0 0 0 0 0 0 0 0 0 0 0 0 0 0 0 0 0 0 0 0 0 0 0 0 0 0 0 10.254199028015136719 10.265261650085449219 10.248347282409667969 10.223294258117675781 10.200975418090820313 10.182819366455078125 10.171976089477539063 10.166615486145019531 10.165395736694335938 10.166259765625 10.168116569519042969 10.171303749084472656 10.176715850830078125 10.18541717529296875 10.198568344116210938 10.215645790100097656 10.236645698547363281 10.260755538940429688 10.287596702575683594 10.316387176513671875 10.344781875610351563 10.372984886169433594 10.401601791381835938 10.43001556396484375 10.458506584167480469 10.488040924072265625 10.51995849609375 10.555836677551269531 10.595961570739746094 10.638533592224121094 10.680890083312988281 10.719996452331542969 10.754359245300292969 10.786173820495605469 10.814620018005371094 10.838964462280273438 10.859669685363769531 10.877718925476074219 10.893685340881347656 10.906832695007324219 10.918553352355957031 10.929845809936523438 10.941141128540039063 10.952371597290039063 10.963435173034667969 10.974648475646972656 10.986134529113769531 10.997537612915039063 11.008645057678222656 11.018862724304199219 11.028112411499023438 11.038805961608886719 11.052509307861328125 11.063288688659667969 11.074411392211914063 11.084583282470703125 11.0915374755859375 11.09862518310546875 11.106706619262695313 11.111575126647949219 11.113163948059082031 11.114544868469238281 11.116046905517578125 11.117335319519042969 11.11742401123046875 11.116794586181640625 11.116682052612304688 11.116423606872558594 11.114892005920410156 11.111635208129882813 11.107954025268554688 11.103986740112304688 11.099786758422851563 11.094330787658691406 11.086251258850097656 11.075562477111816406 11.06244659423828125 11.047524452209472656 11.031933784484863281 11.016484260559082031 11.002120018005371094 10.990723609924316406 10.982656478881835938 10.977375984191894531 10.974512100219726563 10.971920013427734375 10.968400001525878906 10.961701393127441406 10.953258514404296875 10.944270133972167969 10.933627128601074219 10.920622825622558594 10.905665397644042969 10.889902114868164063 10.874617576599121094 10.861426353454589844 10.852366447448730469 10.84676361083984375 10.840667724609375 10.829210281372070313 10.806147575378417969 10.772075653076171875 10.73464202880859375 10.7025299072265625 0 0 0 0 0 0 0 0 0 0 0 0 0 0 0 0 0 
0 0 0 0 0 0 0 0 0 0 0 0 0 0 0 0 0 0 0 0 0 0 0 0 0 0 0 0 0 0 0 0 0 0 0 0 0 0 0 0 0 0 0 0 0 0 0 0 0 0 0 0 0 0 0 0 0 0 0 0 0 10.31066131591796875 10.312928199768066406 10.291715621948242188 10.265825271606445313 10.239924430847167969 10.218022346496582031 10.203351974487304688 10.196724891662597656 10.195135116577148438 10.195792198181152344 10.197619438171386719 10.200990676879882813 10.207865715026855469 10.218836784362792969 10.233920097351074219 10.253505706787109375 10.277833938598632813 10.305062294006347656 10.332163810729980469 10.358345985412597656 10.382138252258300781 10.405295372009277344 10.430937767028808594 10.458487510681152344 10.486612319946289063 10.517512321472167969 10.552911758422851563 10.592470169067382813 10.636061668395996094 10.68154144287109375 10.725747108459472656 10.765646934509277344 10.799496650695800781 10.828584671020507813 10.854517936706542969 10.876572608947753906 10.894940376281738281 10.910810470581054688 10.925240516662597656 10.938000679016113281 10.948596954345703125 10.958827972412109375 10.96964263916015625 10.980244636535644531 10.990507125854492188 11.001262664794921875 11.012482643127441406 11.023793220520019531 11.03472900390625 11.045006752014160156 11.055537223815917969 11.067803382873535156 11.080386161804199219 11.091390609741210938 11.101922988891601563 11.111400604248046875 11.115904808044433594 11.12078857421875 11.126981735229492188 11.129805564880371094 11.129780769348144531 11.129515647888183594 11.1298828125 11.13018798828125 11.129548072814941406 11.128271102905273438 11.126956939697265625 11.12545013427734375 11.123735427856445313 11.120426177978515625 11.116343498229980469 11.111476898193359375 11.107122421264648438 11.101180076599121094 11.092223167419433594 11.081271171569824219 11.067803382873535156 11.052788734436035156 11.037076950073242188 11.021281242370605469 11.006737709045410156 10.994832038879394531 10.986052513122558594 10.980080604553222656 10.9759063720703125 10.971840858459472656 10.966203689575195313 10.957816123962402344 10.948515892028808594 10.939298629760742188 10.928423881530761719 10.915086746215820313 10.900537490844726563 10.885449409484863281 10.870763778686523438 10.859104156494140625 10.853021621704101563 10.849968910217285156 10.844087600708007813 10.830075263977050781 10.805056571960449219 10.771706581115722656 10.73714447021484375 0 0 0 0 0 0 0 0 0 0 0 0 0 0 0 0 0 0 
0 0 0 0 0 0 0 0 0 0 0 0 0 0 0 0 0 0 0 0 0 0 0 0 0 0 0 0 0 0 0 0 0 0 0 0 0 0 0 0 0 0 0 0 0 0 0 0 0 0 0 0 0 0 0 0 0 0 0 0 0 0 10.378940582275390625 10.350393295288085938 10.317477226257324219 10.286775588989257813 10.260155677795410156 10.241979598999023438 10.233350753784179688 10.231097221374511719 10.23187255859375 10.235034942626953125 10.238433837890625 10.246225357055664063 10.259307861328125 10.276951789855957031 10.299501419067382813 10.32688140869140625 10.355291366577148438 10.380553245544433594 10.401268959045410156 10.41886138916015625 10.437311172485351563 10.460645675659179688 10.488850593566894531 10.520013809204101563 10.553137779235839844 10.591182708740234375 10.633460044860839844 10.679574966430664063 10.726701736450195313 10.771254539489746094 10.810672760009765625 10.843262672424316406 10.870108604431152344 10.893232345581054688 10.913048744201660156 10.929732322692871094 10.944223403930664063 10.957256317138671875 10.968934059143066406 10.979563713073730469 10.989403724670410156 10.998920440673828125 11.008536338806152344 11.01849365234375 11.02902984619140625 11.040060043334960938 11.051271438598632813 11.062128067016601563 11.073308944702148438 11.085768699645996094 11.098455429077148438 11.109624862670898438 11.119304656982421875 11.128315925598144531 11.135206222534179688 11.138184547424316406 11.141419410705566406 11.145455360412597656 11.146838188171386719 11.145046234130859375 11.143429756164550781 11.142719268798828125 11.142294883728027344 11.140957832336425781 11.138759613037109375 11.13602447509765625 11.134098052978515625 11.132213592529296875 11.128638267517089844 11.12358856201171875 11.118047714233398438 11.113193511962890625 11.106617927551269531 11.097210884094238281 11.086711883544921875 11.073481559753417969 11.05867767333984375 11.04276275634765625 11.026412010192871094 11.011537551879882813 10.999051094055175781 10.989163398742675781 10.981547355651855469 10.9754486083984375 10.969130516052246094 10.961255073547363281 10.952178955078125 10.942790031433105469 10.933602333068847656 10.923544883728027344 10.910399436950683594 10.897004127502441406 10.882952690124511719 10.869699478149414063 10.860082626342773438 10.856095314025878906 10.853357315063476563 10.845314979553222656 10.828925132751464844 10.803280830383300781 10.771287918090820313 10.74057769775390625 0 0 0 0 0 0 0 0 0 0 0 0 0 0 0 0 0 0 
0 0 0 0 0 0 0 0 0 0 0 0 0 0 0 0 0 0 0 0 0 0 0 0 0 0 0 0 0 0 0 0 0 0 0 0 0 0 0 0 0 0 0 0 0 0 0 0 0 0 0 0 0 0 0 0 0 0 0 0 0 0 10.470862388610839844 10.433147430419921875 10.38665008544921875 10.34195709228515625 10.30727386474609375 10.286011695861816406 10.276305198669433594 10.273631095886230469 10.27465057373046875 10.277981758117675781 10.282647132873535156 10.291608810424804688 10.307152748107910156 10.327647209167480469 10.352675437927246094 10.38172149658203125 10.409068107604980469 10.429759025573730469 10.444054603576660156 10.456244468688964844 10.472495079040527344 10.496264457702636719 10.527157783508300781 10.56212615966796875 10.598464012145996094 10.637285232543945313 10.68120574951171875 10.728205680847167969 10.77509307861328125 10.818034172058105469 10.854778289794921875 10.885587692260742188 10.91085052490234375 10.931479454040527344 10.94927215576171875 10.964857101440429688 10.978363037109375 10.990210533142089844 11.000948905944824219 11.01102447509765625 11.020745277404785156 11.030010223388671875 11.038956642150878906 11.048902511596679688 11.058131217956542969 11.069416999816894531 11.080882072448730469 11.092786788940429688 11.105073928833007813 11.118691444396972656 11.130177497863769531 11.139032363891601563 11.146679878234863281 11.153334617614746094 11.157571792602539063 11.159210205078125 11.160327911376953125 11.161787033081054688 11.161864280700683594 11.159130096435546875 11.156337738037109375 11.154628753662109375 11.15373992919921875 11.151804924011230469 11.148739814758300781 11.145116806030273438 11.143245697021484375 11.140789985656738281 11.136473655700683594 11.130494117736816406 11.124264717102050781 11.118242263793945313 11.110775947570800781 11.101564407348632813 11.091534614562988281 11.078943252563476563 11.064381599426269531 11.048641204833984375 11.032158851623535156 11.016556739807128906 11.002838134765625 10.991245269775390625 10.981469154357910156 10.973859786987304688 10.965810775756835938 10.956225395202636719 10.946447372436523438 10.937265396118164063 10.9279937744140625 10.918020248413085938 10.906947135925292969 10.895146369934082031 10.882608413696289063 10.870778083801269531 10.862975120544433594 10.858455657958984375 10.854334831237792969 10.843988418579101563 10.825265884399414063 10.799223899841308594 10.769600868225097656 10.744606971740722656 0 0 0 0 0 0 0 0 0 0 0 0 0 0 0 0 0 0 
0 0 0 0 0 0 0 0 0 0 0 0 0 0 0 0 0 0 0 0 0 0 0 0 0 0 0 0 0 0 0 0 0 0 0 0 0 0 0 0 0 0 0 0 0 0 0 0 0 0 0 0 0 0 0 0 0 0 0 0 0 0 0 10.524438858032226563 10.462107658386230469 10.403644561767578125 10.362666130065917969 10.338621139526367188 10.327033042907714844 10.323584556579589844 10.324346542358398438 10.327652931213378906 10.334491729736328125 10.345890045166015625 10.362966537475585938 10.383816719055175781 10.408608436584472656 10.436623573303222656 10.4618682861328125 10.478259086608886719 10.487515449523925781 10.496439933776855469 10.513467788696289063 10.540743827819824219 10.575952529907226563 10.614705085754394531 10.653143882751464844 10.693085670471191406 10.737345695495605469 10.782687187194824219 10.825585365295410156 10.864102363586425781 10.897491455078125 10.925658226013183594 10.949612617492675781 10.96949005126953125 10.985944747924804688 11.000523567199707031 11.01296234130859375 11.023797988891601563 11.033885002136230469 11.043610572814941406 11.052944183349609375 11.061877250671386719 11.07086181640625 11.080064773559570313 11.089847564697265625 11.101687431335449219 11.114161491394042969 11.126413345336914063 11.1390533447265625 11.1528167724609375 11.161850929260253906 11.167805671691894531 11.1728363037109375 11.176770210266113281 11.178463935852050781 11.177974700927734375 11.177196502685546875 11.177135467529296875 11.17563629150390625 11.172026634216308594 11.168603897094726563 11.166214942932128906 11.164533615112304688 11.162121772766113281 11.158713340759277344 11.155012130737304688 11.152462005615234375 11.148569107055664063 11.14293670654296875 11.135695457458496094 11.128643035888671875 11.122426986694335938 11.114793777465820313 11.10582733154296875 11.095803260803222656 11.083613395690917969 11.069268226623535156 11.053724288940429688 11.037339210510253906 11.020884513854980469 11.005514144897460938 10.991754531860351563 10.980431556701660156 10.971797943115234375 10.962508201599121094 10.952220916748046875 10.942757606506347656 10.933734893798828125 10.924113273620605469 10.914399147033691406 10.905022621154785156 10.894825935363769531 10.8832855224609375 10.872729301452636719 10.865320205688476563 10.859339714050292969 10.851518630981445313 10.838614463806152344 10.8180084228515625 10.791833877563476563 10.766852378845214844 10.7491607666015625 0 0 0 0 0 0 0 0 0 0 0 0 0 0 0 0 0 0 
0 0 0 0 0 0 0 0 0 0 0 0 0 0 0 0 0 0 0 0 0 0 0 0 0 0 0 0 0 0 0 0 0 0 0 0 0 0 0 0 0 0 0 0 0 0 0 0 0 0 0 0 0 0 0 0 0 0 0 0 0 0 10.643064498901367188 10.600350379943847656 10.536517143249511719 10.472555160522460938 10.428174972534179688 10.401879310607910156 10.38872528076171875 10.384213447570800781 10.384082794189453125 10.387659072875976563 10.395114898681640625 10.407047271728515625 10.422946929931640625 10.442167282104492188 10.4652557373046875 10.490494728088378906 10.5126495361328125 10.526877403259277344 10.534668922424316406 10.542737007141113281 10.563655853271484375 10.597191810607910156 10.637564659118652344 10.67920684814453125 10.717284202575683594 10.756570816040039063 10.799123764038085938 10.840672492980957031 10.877631187438964844 10.909986495971679688 10.938806533813476563 10.964385986328125 10.986753463745117188 11.005972862243652344 11.022591590881347656 11.036316871643066406 11.0477447509765625 11.057802200317382813 11.067296981811523438 11.076573371887207031 11.085419654846191406 11.0938873291015625 11.102669715881347656 11.112260818481445313 11.12325286865234375 11.135304450988769531 11.147512435913085938 11.1596221923828125 11.171722412109375 11.182787895202636719 11.190533638000488281 11.194379806518554688 11.196785926818847656 11.198131561279296875 11.197766304016113281 11.19498443603515625 11.192826271057128906 11.191733360290527344 11.188454627990722656 11.184192657470703125 11.180241584777832031 11.177329063415527344 11.174966812133789063 11.172066688537597656 11.168358802795410156 11.164223670959472656 11.159928321838378906 11.15439605712890625 11.147616386413574219 11.1398468017578125 11.132341384887695313 11.125200271606445313 11.116994857788085938 11.108304023742675781 11.098828315734863281 11.086964607238769531 11.072824478149414063 11.057168960571289063 11.040380477905273438 11.023219108581542969 11.006953239440917969 10.992574691772460938 10.980801582336425781 10.971087455749511719 10.961057662963867188 10.950359344482421875 10.941094398498535156 10.931981086730957031 10.9221954345703125 10.91302490234375 10.904366493225097656 10.894896507263183594 10.884326934814453125 10.874621391296386719 10.866741180419921875 10.858598709106445313 10.847478866577148438 10.83121490478515625 10.809004783630371094 10.784696578979492188 10.764864921569824219 0 0 0 0 0 0 0 0 0 0 0 0 0 0 0 0 0 0 0 
0 0 0 0 0 0 0 0 0 0 0 0 0 0 0 0 0 0 0 0 0 0 0 0 0 0 0 0 0 0 0 0 0 0 0 0 0 0 0 0 0 0 0 0 0 0 0 0 0 0 0 0 0 0 0 0 0 0 0 0 0 0 10.694046974182128906 10.653196334838867188 10.598599433898925781 10.544238090515136719 10.5005035400390625 10.471299171447753906 10.456880569458007813 10.451044082641601563 10.449237823486328125 10.452343940734863281 10.4598236083984375 10.471167564392089844 10.48471832275390625 10.501736640930175781 10.523042678833007813 10.546439170837402344 10.566760063171386719 10.580147743225097656 10.58948516845703125 10.603666305541992188 10.630532264709472656 10.668943405151367188 10.711630821228027344 10.752777099609375 10.787889480590820313 10.825275421142578125 10.864432334899902344 10.899470329284667969 10.92897796630859375 10.955061912536621094 10.979627609252929688 11.002755165100097656 11.02361297607421875 11.041792869567871094 11.057392120361328125 11.070576667785644531 11.081559181213378906 11.091132164001464844 11.100017547607421875 11.108641624450683594 11.117008209228515625 11.125301361083984375 11.134419441223144531 11.144841194152832031 11.156981468200683594 11.168858528137207031 11.18023681640625 11.191541671752929688 11.201704978942871094 11.2099151611328125 11.215630531311035156 11.218088150024414063 11.218143463134765625 11.217185020446777344 11.215205192565917969 11.210959434509277344 11.2077484130859375 11.205546379089355469 11.200470924377441406 11.195569038391113281 11.191069602966308594 11.187926292419433594 11.185064315795898438 11.18149566650390625 11.177053451538085938 11.1717376708984375 11.165366172790527344 11.15795135498046875 11.149951934814453125 11.141686439514160156 11.13335418701171875 11.12493896484375 11.116918563842773438 11.109047889709472656 11.100266456604003906 11.088939666748046875 11.075100898742675781 11.059180259704589844 11.042151451110839844 11.024814605712890625 11.008173942565917969 10.993306159973144531 10.980893135070800781 10.970744132995605469 10.961185455322265625 10.951294898986816406 10.942101478576660156 10.93247222900390625 10.922277450561523438 10.912746429443359375 10.904086112976074219 10.895425796508789063 10.885388374328613281 10.875840187072753906 10.866892814636230469 10.856383323669433594 10.843081474304199219 10.82468414306640625 10.8021392822265625 10.781099319458007813 0 0 0 0 0 0 0 0 0 0 0 0 0 0 0 0 0 0 0 0 
0 0 0 0 0 0 0 0 0 0 0 0 0 0 0 0 0 0 0 0 0 0 0 0 0 0 0 0 0 0 0 0 0 0 0 0 0 0 0 0 0 0 0 0 0 0 0 0 0 0 0 0 0 0 0 0 0 0 0 0 0 0 10.739045143127441406 10.69870758056640625 10.651825904846191406 10.607526779174804688 10.569737434387207031 10.54339599609375 10.529208183288574219 10.520795822143554688 10.517260551452636719 10.518611907958984375 10.524706840515136719 10.535005569458007813 10.54749298095703125 10.563007354736328125 10.582780838012695313 10.604224205017089844 10.623807907104492188 10.639247894287109375 10.654850959777832031 10.677954673767089844 10.712034225463867188 10.753365516662597656 10.794198989868164063 10.830460548400878906 10.862675666809082031 10.895969390869140625 10.928175926208496094 10.954972267150878906 10.977076530456542969 10.9979400634765625 11.019205093383789063 11.0404510498046875 11.0601806640625 11.077608108520507813 11.092290878295898438 11.104434013366699219 11.114500999450683594 11.12328338623046875 11.13159942626953125 11.139832496643066406 11.148243904113769531 11.157177925109863281 11.167413711547851563 11.179035186767578125 11.191555023193359375 11.202528953552246094 11.2123870849609375 11.221268653869628906 11.228400230407714844 11.23403167724609375 11.238728523254394531 11.239917755126953125 11.238461494445800781 11.236207008361816406 11.23247528076171875 11.227305412292480469 11.222642898559570313 11.217761993408203125 11.211491584777832031 11.206012725830078125 11.201436996459960938 11.198153495788574219 11.194573402404785156 11.189919471740722656 11.184069633483886719 11.176656723022460938 11.168148040771484375 11.15918731689453125 11.150238990783691406 11.141419410705566406 11.132639884948730469 11.124011993408203125 11.115839004516601563 11.107510566711425781 11.098412513732910156 11.087479591369628906 11.074179649353027344 11.0584869384765625 11.0416107177734375 11.024943351745605469 11.008562088012695313 10.993554115295410156 10.981103897094726563 10.970986366271972656 10.961861610412597656 10.953255653381347656 10.944528579711914063 10.934865951538085938 10.92431640625 10.913668632507324219 10.903979301452636719 10.894991874694824219 10.885500907897949219 10.876002311706542969 10.865428924560546875 10.852933883666992188 10.838636398315429688 10.819653511047363281 10.799395561218261719 10.783702850341796875 0 0 0 0 0 0 0 0 0 0 0 0 0 0 0 0 0 0 0 0 
0 0 0 0 0 0 0 0 0 0 0 0 0 0 0 0 0 0 0 0 0 0 0 0 0 0 0 0 0 0 0 0 0 0 0 0 0 0 0 0 0 0 0 0 0 0 0 0 0 0 0 0 0 0 0 0 0 0 0 0 0 0 10.770933151245117188 10.73675537109375 10.699294090270996094 10.663432121276855469 10.633287429809570313 10.612125396728515625 10.598435401916503906 10.589324951171875 10.584311485290527344 10.584506988525390625 10.590104103088378906 10.600001335144042969 10.612830162048339844 10.627062797546386719 10.644786834716796875 10.665409088134765625 10.68691253662109375 10.706651687622070313 10.730804443359375 10.763230323791503906 10.803475379943847656 10.845285415649414063 10.881398200988769531 10.910462379455566406 10.937106132507324219 10.963135719299316406 10.985561370849609375 11.004364013671875 11.021940231323242188 11.040364265441894531 11.059907913208007813 11.0794830322265625 11.097665786743164063 11.113587379455566406 11.126819610595703125 11.137961387634277344 11.146725654602050781 11.154802322387695313 11.1629486083984375 11.171324729919433594 11.180060386657714844 11.189960479736328125 11.201333999633789063 11.213160514831542969 11.224301338195800781 11.233636856079101563 11.24132537841796875 11.247224807739257813 11.251581192016601563 11.255722999572753906 11.260059356689453125 11.25949859619140625 11.256888389587402344 11.254149436950683594 11.2487945556640625 11.242070198059082031 11.235757827758789063 11.229004859924316406 11.222015380859375 11.216317176818847656 11.211652755737304688 11.207637786865234375 11.202569007873535156 11.196094512939453125 11.188284873962402344 11.178883552551269531 11.168736457824707031 11.158493995666503906 11.148786544799804688 11.139090538024902344 11.129788398742675781 11.121060371398925781 11.11257171630859375 11.103827476501464844 11.09413909912109375 11.082882881164550781 11.069940567016601563 11.055292129516601563 11.039395332336425781 11.023268699645996094 11.007777214050292969 10.993930816650390625 10.982033729553222656 10.97158050537109375 10.962900161743164063 10.954792022705078125 10.946308135986328125 10.936940193176269531 10.926253318786621094 10.91446685791015625 10.903367996215820313 10.894166946411132813 10.885549545288085938 10.875439643859863281 10.863299369812011719 10.849515914916992188 10.833279609680175781 10.814908981323242188 10.798956871032714844 10.789372444152832031 0 0 0 0 0 0 0 0 0 0 0 0 0 0 0 0 0 0 0 0 
0 0 0 0 0 0 0 0 0 0 0 0 0 0 0 0 0 0 0 0 0 0 0 0 0 0 0 0 0 0 0 0 0 0 0 0 0 0 0 0 0 0 0 0 0 0 0 0 0 0 0 0 0 0 0 0 0 0 0 0 0 10.808144569396972656 10.793916702270507813 10.770542144775390625 10.742977142333984375 10.714407920837402344 10.690667152404785156 10.674634933471679688 10.662142753601074219 10.652164459228515625 10.646322250366210938 10.646448135375976563 10.65232086181640625 10.663249969482421875 10.677775382995605469 10.693394660949707031 10.711001396179199219 10.731732368469238281 10.756010055541992188 10.782193183898925781 10.815542221069335938 10.857222557067871094 10.901376724243164063 10.939962387084960938 10.966991424560546875 10.987147331237792969 11.006712913513183594 11.023451805114746094 11.0376434326171875 11.051604270935058594 11.066605567932128906 11.08325958251953125 11.10095977783203125 11.118520736694335938 11.134692192077636719 11.148839950561523438 11.161004066467285156 11.171664237976074219 11.179004669189453125 11.186793327331542969 11.195265769958496094 11.204029083251953125 11.212911605834960938 11.223377227783203125 11.23455810546875 11.244997978210449219 11.253966331481933594 11.261050224304199219 11.266179084777832031 11.269503593444824219 11.272332191467285156 11.275805473327636719 11.278939247131347656 11.277163505554199219 11.274027824401855469 11.271225929260253906 11.263489723205566406 11.255358695983886719 11.247809410095214844 11.239385604858398438 11.23215484619140625 11.226408004760742188 11.221033096313476563 11.215094566345214844 11.207924842834472656 11.199522018432617188 11.189984321594238281 11.179271697998046875 11.168012619018554688 11.156961441040039063 11.146233558654785156 11.135221481323242188 11.125935554504394531 11.117087364196777344 11.108126640319824219 11.098628044128417969 11.087967872619628906 11.076342582702636719 11.063771247863769531 11.050030708312988281 11.035478591918945313 11.020739555358886719 11.006544113159179688 10.993693351745605469 10.982110977172851563 10.971468925476074219 10.962098121643066406 10.95354461669921875 10.945371627807617188 10.936543464660644531 10.925722122192382813 10.913014411926269531 10.901186943054199219 10.892482757568359375 10.884374618530273438 10.873585700988769531 10.860552787780761719 10.845531463623046875 10.828678131103515625 10.813063621520996094 10.801808357238769531 0 0 0 0 0 0 0 0 0 0 0 0 0 0 0 0 0 0 0 0 0 
0 0 0 0 0 0 0 0 0 0 0 0 0 0 0 0 0 0 0 0 0 0 0 0 0 0 0 0 0 0 0 0 0 0 0 0 0 0 0 0 0 0 0 0 0 0 0 0 0 0 0 0 0 0 0 0 0 0 0 0 10.824718475341796875 10.818617820739746094 10.812140464782714844 10.799450874328613281 10.782056808471679688 10.762425422668457031 10.745565414428710938 10.733592033386230469 10.720541000366210938 10.709246635437011719 10.703641891479492188 10.704272270202636719 10.712596893310546875 10.727501869201660156 10.745119094848632813 10.762503623962402344 10.781480789184570313 10.804530143737792969 10.8322601318359375 10.866039276123046875 10.907763481140136719 10.955305099487304688 10.99874114990234375 11.031176567077636719 11.047009468078613281 11.057652473449707031 11.069339752197265625 11.078484535217285156 11.087199211120605469 11.098074913024902344 11.111227035522460938 11.126005172729492188 11.141627311706542969 11.156953811645507813 11.170980453491210938 11.183506965637207031 11.194771766662597656 11.204496383666992188 11.211758613586425781 11.219513893127441406 11.2280120849609375 11.236501693725585938 11.244993209838867188 11.255070686340332031 11.264804840087890625 11.272940635681152344 11.279567718505859375 11.284566879272460938 11.287619590759277344 11.289524078369140625 11.29175567626953125 11.294323921203613281 11.295132637023925781 11.292951583862304688 11.289867401123046875 11.285674095153808594 11.276655197143554688 11.267312049865722656 11.2585296630859375 11.249144554138183594 11.242099761962890625 11.23545074462890625 11.228316307067871094 11.220262527465820313 11.211181640625 11.201117515563964844 11.190099716186523438 11.178265571594238281 11.166176795959472656 11.154348373413085938 11.142611503601074219 11.131114959716796875 11.121561050415039063 11.111956596374511719 11.102108001708984375 11.091734886169433594 11.080341339111328125 11.068487167358398438 11.056261062622070313 11.043662071228027344 11.030394554138183594 11.016519546508789063 11.003396987915039063 10.991352081298828125 10.979886054992675781 10.968732833862304688 10.958387374877929688 10.949391365051269531 10.941540718078613281 10.932720184326171875 10.921270370483398438 10.909005165100097656 10.897122383117675781 10.888278961181640625 10.880967140197753906 10.870635032653808594 10.857175827026367188 10.841190338134765625 10.824373245239257813 10.810837745666503906 0 0 0 0 0 0 0 0 0 0 0 0 0 0 0 0 0 0 0 0 0 0 
0 0 0 0 0 0 0 0 0 0 0 0 0 0 0 0 0 0 0 0 0 0 0 0 0 0 0 0 0 0 0 0 0 0 0 0 0 0 0 0 0 0 0 0 0 0 0 0 0 0 0 0 0 0 0 0 0 0 0 0 10.830340385437011719 10.831401824951171875 10.83144378662109375 10.82671356201171875 10.817903518676757813 10.8077545166015625 10.798604965209960938 10.788995742797851563 10.777482032775878906 10.767460823059082031 10.763294219970703125 10.766828536987304688 10.780135154724121094 10.799147605895996094 10.818799972534179688 10.836301803588867188 10.856047630310058594 10.882079124450683594 10.915407180786132813 10.955916404724121094 11.003430366516113281 11.052154541015625 11.090319633483886719 11.1113739013671875 11.117833137512207031 11.121164321899414063 11.125463485717773438 11.129712104797363281 11.134937286376953125 11.143526077270507813 11.154705047607421875 11.167367935180664063 11.180956840515136719 11.194345474243164063 11.2068023681640625 11.218222618103027344 11.228666305541992188 11.237766265869140625 11.245412826538085938 11.252840042114257813 11.260954856872558594 11.269205093383789063 11.277596473693847656 11.285555839538574219 11.292802810668945313 11.2983245849609375 11.302764892578125 11.30560302734375 11.306910514831542969 11.30788421630859375 11.309306144714355469 11.310434341430664063 11.309881210327148438 11.307578086853027344 11.303980827331542969 11.297727584838867188 11.287972450256347656 11.277750968933105469 11.268503189086914063 11.259386062622070313 11.251242637634277344 11.243007659912109375 11.233801841735839844 11.223797798156738281 11.212923049926757813 11.2015228271484375 11.189448356628417969 11.176792144775390625 11.163935661315917969 11.151282310485839844 11.138719558715820313 11.127120018005371094 11.116793632507324219 11.106212615966796875 11.09549713134765625 11.084340095520019531 11.072695732116699219 11.060749053955078125 11.048608779907226563 11.036716461181640625 11.02386474609375 11.010460853576660156 10.998174667358398438 10.986629486083984375 10.975447654724121094 10.964139938354492188 10.953238487243652344 10.943526268005371094 10.934453964233398438 10.924632072448730469 10.913761138916015625 10.902584075927734375 10.89178466796875 10.882849693298339844 10.875102996826171875 10.866136550903320313 10.852948188781738281 10.837195396423339844 10.823353767395019531 10.812734603881835938 0 0 0 0 0 0 0 0 0 0 0 0 0 0 0 0 0 0 0 0 0 0 
0 0 0 0 0 0 0 0 0 0 0 0 0 0 0 0 0 0 0 0 0 0 0 0 0 0 0 0 0 0 0 0 0 0 0 0 0 0 0 0 0 0 0 0 0 0 0 0 0 0 0 0 0 0 0 0 0 0 0 0 10.839034080505371094 10.844519615173339844 10.850353240966796875 10.852960586547851563 10.851841926574707031 10.849218368530273438 10.845544815063476563 10.839514732360839844 10.831567764282226563 10.825390815734863281 10.825433731079101563 10.835140228271484375 10.854143142700195313 10.876153945922851563 10.897263526916503906 10.914472579956054688 10.936682701110839844 10.966602325439453125 11.004365921020507813 11.049343109130859375 11.098028182983398438 11.141725540161132813 11.169185638427734375 11.17800140380859375 11.177186965942382813 11.175442695617675781 11.174801826477050781 11.176025390625 11.179764747619628906 11.186113357543945313 11.195211410522460938 11.205995559692382813 11.218068122863769531 11.230069160461425781 11.241642951965332031 11.252725601196289063 11.263092041015625 11.271994590759277344 11.280191421508789063 11.288318634033203125 11.295940399169921875 11.303112983703613281 11.309670448303222656 11.315052986145019531 11.319192886352539063 11.322148323059082031 11.3242034912109375 11.324927330017089844 11.324740409851074219 11.324624061584472656 11.324878692626953125 11.324933052062988281 11.323580741882324219 11.320454597473144531 11.315466880798339844 11.307695388793945313 11.297010421752929688 11.286749839782714844 11.277801513671875 11.268715858459472656 11.259342193603515625 11.24910736083984375 11.237974166870117188 11.226362228393554688 11.214132308959960938 11.201517105102539063 11.188528060913085938 11.175061225891113281 11.161553382873535156 11.148359298706054688 11.135232925415039063 11.123106956481933594 11.111692428588867188 11.100358963012695313 11.088818550109863281 11.077096939086914063 11.065378189086914063 11.053606033325195313 11.041558265686035156 11.029273033142089844 11.016646385192871094 11.004637718200683594 10.993162155151367188 10.9820404052734375 10.970875740051269531 10.959004402160644531 10.947095870971679688 10.935939788818359375 10.92511749267578125 10.914639472961425781 10.904636383056640625 10.894708633422851563 10.885156631469726563 10.876280784606933594 10.867658615112304688 10.858168601989746094 10.846355438232421875 10.833884239196777344 0 0 0 0 0 0 0 0 0 0 0 0 0 0 0 0 0 0 0 0 0 0 0 0 
0 0 0 0 0 0 0 0 0 0 0 0 0 0 0 0 0 0 0 0 0 0 0 0 0 0 0 0 0 0 0 0 0 0 0 0 0 0 0 0 0 0 0 0 0 0 0 0 0 0 0 0 0 0 0 0 0 0 10.855351448059082031 10.846898078918457031 10.84935760498046875 10.857801437377929688 10.86753082275390625 10.875708580017089844 10.881498336791992188 10.88507843017578125 10.886087417602539063 10.884359359741210938 10.881044387817382813 10.880124092102050781 10.8864593505859375 10.90262603759765625 10.926296234130859375 10.951375961303710938 10.9727630615234375 10.991303443908691406 11.014795303344726563 11.045498847961425781 11.083220481872558594 11.129702568054199219 11.176468849182128906 11.213823318481445313 11.230673789978027344 11.230181694030761719 11.22475433349609375 11.220239639282226563 11.21773529052734375 11.217679023742675781 11.220082283020019531 11.224722862243652344 11.231805801391601563 11.241094589233398438 11.252040863037109375 11.263829231262207031 11.275379180908203125 11.286647796630859375 11.298110008239746094 11.30710601806640625 11.315534591674804688 11.323598861694335938 11.330178260803222656 11.335573196411132813 11.339788436889648438 11.342160224914550781 11.34319305419921875 11.343651771545410156 11.3433837890625 11.342299461364746094 11.34085845947265625 11.339612960815429688 11.338747024536132813 11.337781906127929688 11.335635185241699219 11.331503868103027344 11.325397491455078125 11.316741943359375 11.305301666259765625 11.296304702758789063 11.287380218505859375 11.277439117431640625 11.266530036926269531 11.254498481750488281 11.241633415222167969 11.228383064270019531 11.214949607849121094 11.201498031616210938 11.1879730224609375 11.173974990844726563 11.159755706787109375 11.14577484130859375 11.131816864013671875 11.119299888610839844 11.107317924499511719 11.095155715942382813 11.0829925537109375 11.070995330810546875 11.05895233154296875 11.046593666076660156 11.03426361083984375 11.022244453430175781 11.010811805725097656 11.000054359436035156 10.989029884338378906 10.977283477783203125 10.965037345886230469 10.952040672302246094 10.938867568969726563 10.926546096801757813 10.914238929748535156 10.903319358825683594 10.894335746765136719 10.884950637817382813 10.875684738159179688 10.866425514221191406 10.857547760009765625 10.847842216491699219 10.838515281677246094 10.832955360412597656 0 0 0 0 0 0 0 0 0 0 0 0 0 0 0 0 0 0 0 0 0 0 0 0 
0 0 0 0 0 0 0 0 0 0 0 0 0 0 0 0 0 0 0 0 0 0 0 0 0 0 0 0 0 0 0 0 0 0 0 0 0 0 0 0 0 0 0 0 0 0 0 0 0 0 0 0 0 0 0 0 0 0 10.86106109619140625 10.858263015747070313 10.86173248291015625 10.871487617492675781 10.884043693542480469 10.896779060363769531 10.908022880554199219 10.916385650634765625 10.922139167785644531 10.92476654052734375 10.92696380615234375 10.932538032531738281 10.94537353515625 10.966574668884277344 10.992774009704589844 11.017521858215332031 11.0380401611328125 11.057740211486816406 11.081713676452636719 11.111408233642578125 11.147046089172363281 11.189594268798828125 11.233080863952636719 11.266942024230957031 11.279552459716796875 11.275717735290527344 11.267806053161621094 11.261474609375 11.257082939147949219 11.255156517028808594 11.255661964416503906 11.258852958679199219 11.264810562133789063 11.273174285888671875 11.283825874328613281 11.296125411987304688 11.308209419250488281 11.320116043090820313 11.332853317260742188 11.34203338623046875 11.349860191345214844 11.356235504150390625 11.360815048217773438 11.363591194152832031 11.364941596984863281 11.363910675048828125 11.362522125244140625 11.361159324645996094 11.359325408935546875 11.357007026672363281 11.3545989990234375 11.352578163146972656 11.350899696350097656 11.348999977111816406 11.34598541259765625 11.34117889404296875 11.334599494934082031 11.325956344604492188 11.31549072265625 11.3063201904296875 11.296437263488769531 11.285426139831542969 11.27318572998046875 11.259449005126953125 11.245020866394042969 11.230643272399902344 11.216440200805664063 11.202409744262695313 11.18828582763671875 11.173715591430664063 11.15879058837890625 11.143890380859375 11.129438400268554688 11.116261482238769531 11.103555679321289063 11.090760231018066406 11.07811737060546875 11.065896034240722656 11.053331375122070313 11.040503501892089844 11.028044700622558594 11.016095161437988281 11.005279541015625 10.994545936584472656 10.983019828796386719 10.970582962036132813 10.957363128662109375 10.943597793579101563 10.929491996765136719 10.915683746337890625 10.902378082275390625 10.890416145324707031 10.880951881408691406 10.871381759643554688 10.861980438232421875 10.85288238525390625 10.843038558959960938 10.833785057067871094 10.832184791564941406 0 0 0 0 0 0 0 0 0 0 0 0 0 0 0 0 0 0 0 0 0 0 0 0 0 
0 0 0 0 0 0 0 0 0 0 0 0 0 0 0 0 0 0 0 0 0 0 0 0 0 0 0 0 0 0 0 0 0 0 0 0 0 0 0 0 0 0 0 0 0 0 0 0 0 0 0 0 0 0 0 0 0 0 10.867641448974609375 10.869709014892578125 10.876230239868164063 10.887824058532714844 10.902411460876464844 10.918085098266601563 10.933075904846191406 10.945941925048828125 10.956705093383789063 10.964345932006835938 10.972066879272460938 10.983292579650878906 11.000486373901367188 11.024179458618164063 11.051943778991699219 11.07538604736328125 11.093914031982421875 11.112496376037597656 11.134987831115722656 11.162072181701660156 11.1951446533203125 11.234621047973632813 11.275065422058105469 11.305911064147949219 11.319398880004882813 11.317562103271484375 11.310463905334472656 11.302380561828613281 11.294754981994628906 11.289723396301269531 11.288225173950195313 11.289896011352539063 11.295090675354003906 11.303526878356933594 11.314953804016113281 11.327989578247070313 11.341000556945800781 11.354113578796386719 11.366207122802734375 11.37447357177734375 11.380121231079101563 11.383984565734863281 11.386072158813476563 11.386349678039550781 11.385092735290527344 11.381440162658691406 11.378526687622070313 11.3756256103515625 11.372224807739257813 11.368739128112792969 11.365681648254394531 11.363249778747558594 11.361300468444824219 11.359049797058105469 11.355480194091796875 11.350283622741699219 11.34344482421875 11.334803581237792969 11.324896812438964844 11.315235137939453125 11.304779052734375 11.29290771484375 11.279405593872070313 11.264261245727539063 11.248694419860839844 11.233592987060546875 11.218862533569335938 11.204489707946777344 11.189782142639160156 11.174383163452148438 11.15866851806640625 11.142956733703613281 11.127790451049804688 11.113726615905761719 11.100440025329589844 11.087392807006835938 11.074430465698242188 11.061544418334960938 11.048444747924804688 11.035093307495117188 11.022005081176757813 11.009938240051269531 10.998640060424804688 10.987001419067382813 10.974568367004394531 10.961272239685058594 10.947335243225097656 10.932954788208007813 10.917746543884277344 10.902440071105957031 10.888227462768554688 10.875585556030273438 10.863756179809570313 10.852454185485839844 10.842158317565917969 10.831894874572753906 10.821239471435546875 10.819135665893554688 10.828410148620605469 0 0 0 0 0 0 0 0 0 0 0 0 0 0 0 0 0 0 0 0 0 0 0 0 0 
0 0 0 0 0 0 0 0 0 0 0 0 0 0 0 0 0 0 0 0 0 0 0 0 0 0 0 0 0 0 0 0 0 0 0 0 0 0 0 0 0 0 0 0 0 0 0 0 0 0 0 0 0 0 0 0 0 0 10.876680374145507813 10.883188247680664063 10.893697738647460938 10.907255172729492188 10.923705101013183594 10.941577911376953125 10.959249496459960938 10.975778579711914063 10.990609169006347656 11.00376129150390625 11.016813278198242188 11.032202720642089844 11.052199363708496094 11.077484130859375 11.105526924133300781 11.127378463745117188 11.142835617065429688 11.158916473388671875 11.1792449951171875 11.205042839050292969 11.237059593200683594 11.274960517883300781 11.312830924987792969 11.341036796569824219 11.354078292846679688 11.354283332824707031 11.347646713256835938 11.337978363037109375 11.327553749084472656 11.320462226867675781 11.317415237426757813 11.318788528442382813 11.324110984802246094 11.33354949951171875 11.346358299255371094 11.360192298889160156 11.374316215515136719 11.387434005737304688 11.397107124328613281 11.40313720703125 11.406644821166992188 11.408092498779296875 11.407574653625488281 11.405309677124023438 11.401349067687988281 11.396116256713867188 11.391715049743652344 11.387543678283691406 11.382991790771484375 11.378618240356445313 11.374886512756347656 11.371930122375488281 11.369688987731933594 11.367328643798828125 11.3638153076171875 11.358592033386230469 11.351648330688476563 11.342888832092285156 11.333231925964355469 11.323206901550292969 11.312040328979492188 11.299403190612792969 11.28501129150390625 11.269281387329101563 11.253134727478027344 11.237360954284667969 11.22234344482421875 11.207543373107910156 11.19178009033203125 11.175525665283203125 11.158971786499023438 11.142179489135742188 11.126171112060546875 11.111677169799804688 11.098084449768066406 11.084573745727539063 11.071028709411621094 11.057506561279296875 11.043845176696777344 11.029902458190917969 11.016100883483886719 11.003037452697753906 10.99079132080078125 10.978305816650390625 10.964289665222167969 10.948523521423339844 10.932885169982910156 10.917840003967285156 10.902314186096191406 10.886027336120605469 10.870409965515136719 10.85593414306640625 10.841195106506347656 10.826016426086425781 10.812167167663574219 10.8025665283203125 10.800345420837402344 0 0 0 0 0 0 0 0 0 0 0 0 0 0 0 0 0 0 0 0 0 0 0 0 0 0 0 
0 0 0 0 0 0 0 0 0 0 0 0 0 0 0 0 0 0 0 0 0 0 0 0 0 0 0 0 0 0 0 0 0 0 0 0 0 0 0 0 0 0 0 0 0 0 0 0 0 0 0 0 0 0 0 0 0 10.884966850280761719 10.893746376037597656 10.906573295593261719 10.919734954833984375 10.933606147766113281 10.949787139892578125 10.967641830444335938 10.987399101257324219 11.006893157958984375 11.025304794311523438 11.042672157287597656 11.059889793395996094 11.078867912292480469 11.101511001586914063 11.127739906311035156 11.153939247131347656 11.174635887145996094 11.188793182373046875 11.202569961547851563 11.220608711242675781 11.245026588439941406 11.277087211608886719 11.313965797424316406 11.348343849182128906 11.372314453125 11.383930206298828125 11.384968757629394531 11.3782501220703125 11.366672515869140625 11.354916572570800781 11.347272872924804688 11.344481468200683594 11.346926689147949219 11.354357719421386719 11.365720748901367188 11.379222869873046875 11.393027305603027344 11.407622337341308594 11.418874740600585938 11.42569732666015625 11.4293212890625 11.430459976196289063 11.429236412048339844 11.426003456115722656 11.421238899230957031 11.415288925170898438 11.409152030944824219 11.403288841247558594 11.397267341613769531 11.391549110412597656 11.386373519897460938 11.381947517395019531 11.378399848937988281 11.375576972961425781 11.372883796691894531 11.369562149047851563 11.364719390869140625 11.357949256896972656 11.349049568176269531 11.339453697204589844 11.328950881958007813 11.317605972290039063 11.304848670959472656 11.290143966674804688 11.274001121520996094 11.257525444030761719 11.241458892822265625 11.225847244262695313 11.210142135620117188 11.193330764770507813 11.176321983337402344 11.158933639526367188 11.14141082763671875 11.125171661376953125 11.11014556884765625 11.095867156982421875 11.08182525634765625 11.067805290222167969 11.053446769714355469 11.038779258728027344 11.023985862731933594 11.00921630859375 10.99488067626953125 10.980838775634765625 10.965576171875 10.9492645263671875 10.931733131408691406 10.91439056396484375 10.897382736206054688 10.880055427551269531 10.862081527709960938 10.843338966369628906 10.823178291320800781 10.805102348327636719 10.788362503051757813 10.776041984558105469 10.775201797485351563 0 0 0 0 0 0 0 0 0 0 0 0 0 0 0 0 0 0 0 0 0 0 0 0 0 0 0 0 
0 0 0 0 0 0 0 0 0 0 0 0 0 0 0 0 0 0 0 0 0 0 0 0 0 0 0 0 0 0 0 0 0 0 0 0 0 0 0 0 0 0 0 0 0 0 0 0 0 0 0 0 0 0 0 0 10.901862144470214844 10.906954765319824219 10.922966957092285156 10.939457893371582031 10.954782485961914063 10.968522071838378906 10.982161521911621094 10.998429298400878906 11.017988204956054688 11.038964271545410156 11.059958457946777344 11.080509185791015625 11.101099014282226563 11.122851371765136719 11.147180557250976563 11.174046516418457031 11.199235916137695313 11.218522071838378906 11.232758522033691406 11.245909690856933594 11.262348175048828125 11.285252571105957031 11.316000938415527344 11.350663185119628906 11.381348609924316406 11.400716781616210938 11.410125732421875 11.410543441772460938 11.402982711791992188 11.391168594360351563 11.3798370361328125 11.372728347778320313 11.371476173400878906 11.376233100891113281 11.385874748229980469 11.398465156555175781 11.412080764770507813 11.425574302673339844 11.438429832458496094 11.447154998779296875 11.451359748840332031 11.452434539794921875 11.451045989990234375 11.447475433349609375 11.442126274108886719 11.435626029968261719 11.427797317504882813 11.420061111450195313 11.412006378173828125 11.4047393798828125 11.398499488830566406 11.392742156982421875 11.387656211853027344 11.383340835571289063 11.379632949829101563 11.376166343688964844 11.372406959533691406 11.367781639099121094 11.361615180969238281 11.353377342224121094 11.343496322631835938 11.332567214965820313 11.321928977966308594 11.309045791625976563 11.294074058532714844 11.277934074401855469 11.261492729187011719 11.245130538940429688 11.228790283203125 11.212106704711914063 11.194697380065917969 11.176893234252929688 11.15897369384765625 11.141290664672851563 11.124684333801269531 11.10858917236328125 11.093461990356445313 11.078816413879394531 11.063906669616699219 11.048389434814453125 11.032986640930175781 11.017428398132324219 11.001404762268066406 10.985341072082519531 10.968828201293945313 10.951276779174804688 10.932268142700195313 10.912016868591308594 10.89165496826171875 10.870633125305175781 10.848031044006347656 10.823510169982910156 10.796456336975097656 10.771081924438476563 10.754922866821289063 10.7442626953125 10.746245384216308594 0 0 0 0 0 0 0 0 0 0 0 0 0 0 0 0 0 0 0 0 0 0 0 0 0 0 0 0 0 
0 0 0 0 0 0 0 0 0 0 0 0 0 0 0 0 0 0 0 0 0 0 0 0 0 0 0 0 0 0 0 0 0 0 0 0 0 0 0 0 0 0 0 0 0 0 0 0 0 0 0 0 0 0 0 0 10.933251380920410156 10.943508148193359375 10.961561203002929688 10.97998809814453125 10.995746612548828125 11.00733184814453125 11.018007278442382813 11.032230377197265625 11.050662040710449219 11.072240829467773438 11.0945892333984375 11.1173553466796875 11.140668869018554688 11.164419174194335938 11.188970565795898438 11.215203285217285156 11.239664077758789063 11.259184837341308594 11.274373054504394531 11.287689208984375 11.303152084350585938 11.324883460998535156 11.353906631469726563 11.385615348815917969 11.411336898803710938 11.427941322326660156 11.435828208923339844 11.434549331665039063 11.425749778747558594 11.413776397705078125 11.403414726257324219 11.398248672485351563 11.39959716796875 11.406517982482910156 11.417046546936035156 11.429440498352050781 11.44256591796875 11.454935073852539063 11.464406967163085938 11.469861984252929688 11.471759796142578125 11.471072196960449219 11.468033790588378906 11.463032722473144531 11.456198692321777344 11.448397636413574219 11.438073158264160156 11.428622245788574219 11.419160842895507813 11.41191864013671875 11.404833793640136719 11.398101806640625 11.392426490783691406 11.387788772583007813 11.383718490600585938 11.379717826843261719 11.375254631042480469 11.369777679443359375 11.3630828857421875 11.355218887329101563 11.345946311950683594 11.336720466613769531 11.325850486755371094 11.312395095825195313 11.297339439392089844 11.281362533569335938 11.264842033386230469 11.24829864501953125 11.231404304504394531 11.213973045349121094 11.195919036865234375 11.177442550659179688 11.158722877502441406 11.140550613403320313 11.123478889465332031 11.106708526611328125 11.090784072875976563 11.075565338134765625 11.060024261474609375 11.043905258178710938 11.027647018432617188 11.010403633117675781 10.992351531982421875 10.9743194580078125 10.955583572387695313 10.93499755859375 10.912699699401855469 10.890053749084472656 10.865096092224121094 10.835867881774902344 10.802004814147949219 10.765004158020019531 10.732287406921386719 10.715757369995117188 10.714467048645019531 0 0 0 0 0 0 0 0 0 0 0 0 0 0 0 0 0 0 0 0 0 0 0 0 0 0 0 0 0 0 0 
0 0 0 0 0 0 0 0 0 0 0 0 0 0 0 0 0 0 0 0 0 0 0 0 0 0 0 0 0 0 0 0 0 0 0 0 0 0 0 0 0 0 0 0 0 0 0 0 0 0 0 0 0 0 0 0 10.971871376037597656 10.987195014953613281 11.00624847412109375 11.023584365844726563 11.035637855529785156 11.043896675109863281 11.053346633911132813 11.067141532897949219 11.085450172424316406 11.106644630432128906 11.129377365112304688 11.152495384216308594 11.176517486572265625 11.200855255126953125 11.225481033325195313 11.250386238098144531 11.275440216064453125 11.296652793884277344 11.313786506652832031 11.327856063842773438 11.343133926391601563 11.363757133483886719 11.3908233642578125 11.418723106384277344 11.440729141235351563 11.454554557800292969 11.459418296813964844 11.456448554992675781 11.447279930114746094 11.435930252075195313 11.427002906799316406 11.424483299255371094 11.428050994873046875 11.43590545654296875 11.44591522216796875 11.457743644714355469 11.469410896301269531 11.479032516479492188 11.485558509826660156 11.488705635070800781 11.488882064819335938 11.486589431762695313 11.482175827026367188 11.475740432739257813 11.467418670654296875 11.458138465881347656 11.44699859619140625 11.437450408935546875 11.428258895874023438 11.419507026672363281 11.410633087158203125 11.40309906005859375 11.397112846374511719 11.3922882080078125 11.387979507446289063 11.383523941040039063 11.378286361694335938 11.371929168701171875 11.364575386047363281 11.356439590454101563 11.347811698913574219 11.338733673095703125 11.327783584594726563 11.314642906188964844 11.299856185913085938 11.283935546875 11.26752471923828125 11.250705718994140625 11.232998847961425781 11.215221405029296875 11.196623802185058594 11.1768951416015625 11.156970024108886719 11.13869476318359375 11.121074676513671875 11.103716850280761719 11.087465286254882813 11.07210540771484375 11.056511878967285156 11.039746284484863281 11.021106719970703125 11.000716209411621094 10.979681015014648438 10.959035873413085938 10.9372406005859375 10.912784576416015625 10.886248588562011719 10.858809471130371094 10.819375038146972656 10.770389556884765625 10.724633216857910156 10.692236900329589844 10.682756423950195313 10.691112518310546875 0 0 0 0 0 0 0 0 0 0 0 0 0 0 0 0 0 0 0 0 0 0 0 0 0 0 0 0 0 0 0 0 
0 0 0 0 0 0 0 0 0 0 0 0 0 0 0 0 0 0 0 0 0 0 0 0 0 0 0 0 0 0 0 0 0 0 0 0 0 0 0 0 0 0 0 0 0 0 0 0 0 0 0 0 0 11.029558181762695313 11.017083168029785156 11.012883186340332031 11.020581245422363281 11.034527778625488281 11.052437782287597656 11.064510345458984375 11.071329116821289063 11.077450752258300781 11.086981773376464844 11.101706504821777344 11.1203460693359375 11.141660690307617188 11.164564132690429688 11.187543869018554688 11.210946083068847656 11.235459327697753906 11.260594367980957031 11.285429954528808594 11.310759544372558594 11.331896781921386719 11.350490570068359375 11.364934921264648438 11.379697799682617188 11.398645401000976563 11.423613548278808594 11.448602676391601563 11.468203544616699219 11.478986740112304688 11.481280326843261719 11.476840019226074219 11.467667579650878906 11.457426071166992188 11.450850486755371094 11.450544357299804688 11.454988479614257813 11.46248626708984375 11.471402168273925781 11.482350349426269531 11.49176788330078125 11.498991966247558594 11.503462791442871094 11.504720687866210938 11.503178596496582031 11.4995269775390625 11.494077682495117188 11.486237525939941406 11.477361679077148438 11.467729568481445313 11.457529067993164063 11.447905540466308594 11.437155723571777344 11.426815032958984375 11.417581558227539063 11.409694671630859375 11.403347969055175781 11.397971153259277344 11.393042564392089844 11.387873649597167969 11.381793022155761719 11.374659538269042969 11.366763114929199219 11.358051300048828125 11.349081039428710938 11.339784622192382813 11.328981399536132813 11.316103935241699219 11.30144500732421875 11.285462379455566406 11.268662452697753906 11.251065254211425781 11.232609748840332031 11.21416473388671875 11.195160865783691406 11.174469947814941406 11.154713630676269531 11.135994911193847656 11.117727279663085938 11.100164413452148438 11.083867073059082031 11.067862510681152344 11.050828933715820313 11.031508445739746094 11.009672164916992188 10.986261367797851563 10.962193489074707031 10.936884880065917969 10.909040451049804688 10.877095222473144531 10.839252471923828125 10.797961235046386719 10.721014976501464844 10.643236160278320313 10.624551773071289063 10.6410369873046875 10.667150497436523438 0 0 0 0 0 0 0 0 0 0 0 0 0 0 0 0 0 0 0 0 0 0 0 0 0 0 0 0 0 0 0 0 0 
0 0 0 0 0 0 0 0 0 0 0 0 0 0 0 0 0 0 0 0 0 0 0 0 0 0 0 0 0 0 0 0 0 0 0 0 0 0 0 0 0 0 0 0 0 0 0 0 0 0 0 11.083951950073242188 11.070238113403320313 11.062307357788085938 11.060306549072265625 11.063470840454101563 11.070921897888183594 11.081668853759765625 11.094472885131835938 11.101412773132324219 11.105692863464355469 11.111078262329101563 11.120890617370605469 11.136618614196777344 11.157367706298828125 11.179891586303710938 11.203154563903808594 11.226011276245117188 11.248491287231445313 11.272301673889160156 11.2974395751953125 11.322609901428222656 11.346367835998535156 11.365461349487304688 11.383090019226074219 11.3969268798828125 11.410177230834960938 11.427752494812011719 11.451360702514648438 11.474439620971679688 11.492138862609863281 11.499800682067871094 11.500609397888183594 11.495639801025390625 11.486609458923339844 11.477648735046386719 11.473153114318847656 11.474234580993652344 11.478994369506835938 11.485825538635253906 11.493837356567382813 11.502607345581054688 11.509868621826171875 11.515322685241699219 11.5181884765625 11.517876625061035156 11.515124320983886719 11.51047515869140625 11.503847122192382813 11.49514007568359375 11.48699188232421875 11.477741241455078125 11.468214988708496094 11.457808494567871094 11.446663856506347656 11.436491966247558594 11.427555084228515625 11.419923782348632813 11.413217544555664063 11.406771659851074219 11.400279998779296875 11.393544197082519531 11.3862457275390625 11.378143310546875 11.369598388671875 11.360289573669433594 11.351045608520507813 11.341526031494140625 11.330040931701660156 11.316485404968261719 11.301153182983398438 11.284333229064941406 11.266571044921875 11.248162269592285156 11.229355812072753906 11.210353851318359375 11.190950393676757813 11.170765876770019531 11.150715827941894531 11.131681442260742188 11.114596366882324219 11.096991539001464844 11.080266952514648438 11.063188552856445313 11.043736457824707031 11.020771980285644531 10.9964141845703125 10.971674919128417969 10.945037841796875 10.915183067321777344 10.878747940063476563 10.832227706909179688 10.777952194213867188 10.696993827819824219 10.567235946655273438 10.474114418029785156 10.518301963806152344 0 0 0 0 0 0 0 0 0 0 0 0 0 0 0 0 0 0 0 0 0 0 0 0 0 0 0 0 0 0 0 0 0 0 0 
0 0 0 0 0 0 0 0 0 0 0 0 0 0 0 0 0 0 0 0 0 0 0 0 0 0 0 0 0 0 0 0 0 0 0 0 0 0 0 0 0 0 0 0 0 0 0 0 0 0 0 11.102837562561035156 11.096675872802734375 11.093142509460449219 11.093689918518066406 11.099244117736816406 11.107702255249023438 11.116593360900878906 11.125890731811523438 11.134243011474609375 11.141393661499023438 11.1494293212890625 11.161248207092285156 11.179173469543457031 11.202701568603515625 11.225986480712890625 11.249804496765136719 11.270073890686035156 11.288743972778320313 11.311675071716308594 11.33687591552734375 11.361866950988769531 11.382594108581542969 11.398537635803222656 11.412674903869628906 11.424612045288085938 11.437082290649414063 11.455140113830566406 11.477320671081542969 11.498729705810546875 11.5135345458984375 11.517626762390136719 11.518095016479492188 11.513300895690917969 11.50392913818359375 11.496184349060058594 11.49401092529296875 11.496294021606445313 11.501008033752441406 11.507071495056152344 11.513671875 11.520070075988769531 11.525371551513671875 11.529001235961914063 11.53014373779296875 11.528729438781738281 11.525198936462402344 11.519872665405273438 11.512569427490234375 11.504490852355957031 11.496591567993164063 11.487545967102050781 11.478485107421875 11.468442916870117188 11.458476066589355469 11.449669837951660156 11.441603660583496094 11.433887481689453125 11.426230430603027344 11.418218612670898438 11.409754753112792969 11.400998115539550781 11.3918914794921875 11.382424354553222656 11.3729095458984375 11.36334228515625 11.353895187377929688 11.343793869018554688 11.330526351928710938 11.314992904663085938 11.297840118408203125 11.279625892639160156 11.260952949523925781 11.242066383361816406 11.222887992858886719 11.203334808349609375 11.183702468872070313 11.164601325988769531 11.146510124206542969 11.129254341125488281 11.112294197082519531 11.094571113586425781 11.076847076416015625 11.058829307556152344 11.038560867309570313 11.014992713928222656 10.99259185791015625 10.970229148864746094 10.945174217224121094 10.916944503784179688 10.881435394287109375 10.834477424621582031 10.774555206298828125 10.6355743408203125 10.412384986877441406 10.250226020812988281 0 0 0 0 0 0 0 0 0 0 0 0 0 0 0 0 0 0 0 0 0 0 0 0 0 0 0 0 0 0 0 0 0 0 0 0 
0 0 0 0 0 0 0 0 0 0 0 0 0 0 0 0 0 0 0 0 0 0 0 0 0 0 0 0 0 0 0 0 0 0 0 0 0 0 0 0 0 0 0 0 0 0 0 0 11.136389732360839844 11.131196022033691406 11.126761436462402344 11.124105453491210938 11.123668670654296875 11.122896194458007813 11.123744010925292969 11.128808975219726563 11.1363677978515625 11.145084381103515625 11.155190467834472656 11.165941238403320313 11.176459312438964844 11.189232826232910156 11.20627593994140625 11.227856636047363281 11.253513336181640625 11.281793594360351563 11.308072090148925781 11.322446823120117188 11.334150314331054688 11.355662345886230469 11.38120269775390625 11.40363311767578125 11.419362068176269531 11.43070220947265625 11.440646171569824219 11.450285911560058594 11.463265419006347656 11.482033729553222656 11.502920150756835938 11.51975250244140625 11.528796195983886719 11.531511306762695313 11.532521247863769531 11.528565406799316406 11.52019500732421875 11.515104293823242188 11.514766693115234375 11.517069816589355469 11.5206451416015625 11.5252685546875 11.530393600463867188 11.535173416137695313 11.538878440856933594 11.540802001953125 11.540500640869140625 11.537975311279296875 11.533527374267578125 11.527530670166015625 11.520313262939453125 11.512583732604980469 11.504268646240234375 11.495722770690917969 11.487898826599121094 11.479604721069335938 11.47222137451171875 11.464945793151855469 11.457295417785644531 11.44936370849609375 11.440823554992675781 11.431269645690917969 11.420854568481445313 11.409872055053710938 11.398828506469726563 11.388258934020996094 11.378412246704101563 11.368997573852539063 11.358425140380859375 11.345195770263671875 11.329184532165527344 11.31119537353515625 11.291989326477050781 11.272271156311035156 11.252524375915527344 11.23297119140625 11.213275909423828125 11.194151878356933594 11.176206588745117188 11.159257888793945313 11.142910957336425781 11.126667976379394531 11.109709739685058594 11.092215538024902344 11.075122833251953125 11.057856559753417969 11.039368629455566406 11.021160125732421875 11.00383758544921875 10.984330177307128906 10.962891578674316406 10.942394256591796875 10.92266845703125 0 0 0 0 0 0 0 0 0 0 0 0 0 0 0 0 0 0 0 0 0 0 0 0 0 0 0 0 0 0 0 0 0 0 0 0 0 0 0 0 0 
0 0 0 0 0 0 0 0 0 0 0 0 0 0 0 0 0 0 0 0 0 0 0 0 0 0 0 0 0 0 0 0 0 0 0 0 0 0 0 0 0 0 0 0 0 0 0 0 11.156259536743164063 11.15998077392578125 11.158268928527832031 11.155530929565429688 11.154395103454589844 11.151875495910644531 11.149083137512207031 11.150197982788085938 11.155058860778808594 11.164093017578125 11.178008079528808594 11.193413734436035156 11.20940399169921875 11.228493690490722656 11.252269744873046875 11.279336929321289063 11.308808326721191406 11.338938713073730469 11.361960411071777344 11.372199058532714844 11.380331993103027344 11.399632453918457031 11.423009872436523438 11.441396713256835938 11.453227043151855469 11.460026741027832031 11.46651458740234375 11.475114822387695313 11.48963165283203125 11.508612632751464844 11.525884628295898438 11.536892890930175781 11.542371749877929688 11.545285224914550781 11.546015739440917969 11.542766571044921875 11.537525177001953125 11.534541130065917969 11.534267425537109375 11.535486221313476563 11.537897109985351563 11.541365623474121094 11.545090675354003906 11.548254966735839844 11.55011749267578125 11.550348281860351563 11.548757553100585938 11.545207977294921875 11.5399169921875 11.533250808715820313 11.525691986083984375 11.517569541931152344 11.509728431701660156 11.503179550170898438 11.497400283813476563 11.491650581359863281 11.486315727233886719 11.479723930358886719 11.471937179565429688 11.463606834411621094 11.454165458679199219 11.443347930908203125 11.431468009948730469 11.419172286987304688 11.407854080200195313 11.397418022155761719 11.386717796325683594 11.37477874755859375 11.360758781433105469 11.344247817993164063 11.325493812561035156 11.305197715759277344 11.284122467041015625 11.263173103332519531 11.242825508117675781 11.223131179809570313 11.204171180725097656 11.18668365478515625 11.170239448547363281 11.1543121337890625 11.138916015625 11.123866081237792969 11.108343124389648438 11.093213081359863281 11.078629493713378906 11.063624382019042969 11.048099517822265625 11.034010887145996094 11.021547317504882813 11.008203506469726563 10.993761062622070313 10.982130050659179688 10.977589607238769531 0 0 0 0 0 0 0 0 0 0 0 0 0 0 0 0 0 0 0 0 0 0 0 0 0 0 0 0 0 0 0 0 0 0 0 0 0 0 0 0 0 
0 0 0 0 0 0 0 0 0 0 0 0 0 0 0 0 0 0 0 0 0 0 0 0 0 0 0 0 0 0 0 0 0 0 0 0 0 0 0 0 0 0 0 0 0 11.141610145568847656 11.161037445068359375 11.173504829406738281 11.181675910949707031 11.186089515686035156 11.186199188232421875 11.181410789489746094 11.1734161376953125 11.165450096130371094 11.160968780517578125 11.16188812255859375 11.167890548706054688 11.18087005615234375 11.199892044067382813 11.2206268310546875 11.24182891845703125 11.265333175659179688 11.29419708251953125 11.325642585754394531 11.356751441955566406 11.384747505187988281 11.403570175170898438 11.4121246337890625 11.421050071716308594 11.437931060791015625 11.456416130065917969 11.469936370849609375 11.479429244995117188 11.484045028686523438 11.489337921142578125 11.499195098876953125 11.514673233032226563 11.531652450561523438 11.544653892517089844 11.551400184631347656 11.555657386779785156 11.558732032775878906 11.55918121337890625 11.556649208068847656 11.553381919860839844 11.551491737365722656 11.550994873046875 11.551543235778808594 11.553104400634765625 11.555246353149414063 11.557378768920898438 11.558819770812988281 11.559035301208496094 11.557756423950195313 11.555009841918945313 11.550502777099609375 11.544360160827636719 11.537119865417480469 11.529379844665527344 11.521739006042480469 11.515734672546386719 11.511280059814453125 11.507220268249511719 11.502802848815917969 11.497586250305175781 11.491003990173339844 11.483350753784179688 11.474847793579101563 11.465069770812988281 11.454012870788574219 11.442032814025878906 11.430269241333007813 11.4189300537109375 11.406408309936523438 11.392604827880859375 11.377267837524414063 11.360007286071777344 11.340490341186523438 11.319431304931640625 11.297544479370117188 11.275530815124511719 11.254118919372558594 11.233745574951171875 11.214740753173828125 11.197236061096191406 11.1807098388671875 11.164888381958007813 11.149806976318359375 11.135831832885742188 11.122748374938964844 11.109187126159667969 11.09535980224609375 11.082137107849121094 11.069622039794921875 11.057794570922851563 11.0480499267578125 11.039453506469726563 11.031428337097167969 11.024637222290039063 11.02004241943359375 11.015691757202148438 11.010067939758300781 0 0 0 0 0 0 0 0 0 0 0 0 0 0 0 0 0 0 0 0 0 0 0 0 0 0 0 0 0 0 0 0 0 0 0 0 0 0 0 0 
0 0 0 0 0 0 0 0 0 0 0 0 0 0 0 0 0 0 0 0 0 0 0 0 0 0 0 0 0 0 0 0 0 0 0 0 0 0 0 0 0 0 0 0 0 0 11.162205696105957031 11.17758941650390625 11.187397003173828125 11.190643310546875 11.189083099365234375 11.183155059814453125 11.175495147705078125 11.170223236083984375 11.169902801513671875 11.174442291259765625 11.184103965759277344 11.2001495361328125 11.221601486206054688 11.245700836181640625 11.271009445190429688 11.2979278564453125 11.331351280212402344 11.366044998168945313 11.397273063659667969 11.421763420104980469 11.435669898986816406 11.444181442260742188 11.454717636108398438 11.469048500061035156 11.482135772705078125 11.490863800048828125 11.497327804565429688 11.502423286437988281 11.509878158569335938 11.522135734558105469 11.537129402160644531 11.551055908203125 11.560670852661132813 11.564002037048339844 11.567583084106445313 11.570043563842773438 11.570821762084960938 11.569574356079101563 11.56778717041015625 11.566369056701660156 11.565507888793945313 11.565443992614746094 11.566031455993652344 11.566852569580078125 11.567401885986328125 11.567159652709960938 11.565760612487792969 11.563090324401855469 11.55926513671875 11.553956031799316406 11.547316551208496094 11.539807319641113281 11.532014846801757813 11.525335311889648438 11.521257400512695313 11.518183708190917969 11.514940261840820313 11.510951995849609375 11.5057373046875 11.499215126037597656 11.491682052612304688 11.4830322265625 11.473008155822753906 11.4620361328125 11.450799942016601563 11.439249992370605469 11.42620849609375 11.410988807678222656 11.394161224365234375 11.375702857971191406 11.355349540710449219 11.333153724670410156 11.310333251953125 11.287546157836914063 11.265384674072265625 11.244274139404296875 11.224840164184570313 11.206788063049316406 11.190003395080566406 11.174312591552734375 11.159464836120605469 11.145837783813476563 11.133272171020507813 11.120393753051757813 11.106839179992675781 11.09394073486328125 11.083018302917480469 11.07419586181640625 11.068460464477539063 11.063822746276855469 11.05889129638671875 11.05692291259765625 11.057868003845214844 11.061651229858398438 11.059110641479492188 11.050104141235351563 11.053353309631347656 0 0 0 0 0 0 0 0 0 0 0 0 0 0 0 0 0 0 0 0 0 0 0 0 0 0 0 0 0 0 0 0 0 0 0 0 0 0 0 
0 0 0 0 0 0 0 0 0 0 0 0 0 0 0 0 0 0 0 0 0 0 0 0 0 0 0 0 0 0 0 0 0 0 0 0 0 0 0 0 0 0 0 0 0 11.130559921264648438 11.141150474548339844 11.155033111572265625 11.167796134948730469 11.174898147583007813 11.175196647644042969 11.172402381896972656 11.17148590087890625 11.174882888793945313 11.18271636962890625 11.193787574768066406 11.207301139831542969 11.223896980285644531 11.244477272033691406 11.269217491149902344 11.298044204711914063 11.330374717712402344 11.367961883544921875 11.401201248168945313 11.427971839904785156 11.447536468505859375 11.459654808044433594 11.469927787780761719 11.48113250732421875 11.492094993591308594 11.499513626098632813 11.505072593688964844 11.510828971862792969 11.518130302429199219 11.528588294982910156 11.542094230651855469 11.555750846862792969 11.566499710083007813 11.573050498962402344 11.575860023498535156 11.578222274780273438 11.579916000366210938 11.581515312194824219 11.58130645751953125 11.580210685729980469 11.578794479370117188 11.577646255493164063 11.57698822021484375 11.576611518859863281 11.576257705688476563 11.575451850891113281 11.573697090148925781 11.570742607116699219 11.566857337951660156 11.562097549438476563 11.556049346923828125 11.548968315124511719 11.541178703308105469 11.533632278442382813 11.528324127197265625 11.525632858276367188 11.52339935302734375 11.520624160766601563 11.516728401184082031 11.511260986328125 11.504486083984375 11.496762275695800781 11.48773956298828125 11.477907180786132813 11.467665672302246094 11.456509590148925781 11.443416595458984375 11.427705764770507813 11.40975189208984375 11.390005111694335938 11.368660926818847656 11.3457794189453125 11.321808815002441406 11.297877311706542969 11.274863243103027344 11.253455162048339844 11.233716011047363281 11.215054512023925781 11.197694778442382813 11.181833267211914063 11.167017936706542969 11.153079986572265625 11.140567779541015625 11.128947257995605469 11.117242813110351563 11.106204986572265625 11.097281455993652344 11.089673995971679688 11.083540916442871094 11.080081939697265625 11.079236030578613281 11.081255912780761719 11.090886116027832031 11.103003501892089844 11.125014305114746094 11.137239456176757813 11.140229225158691406 11.150575637817382813 11.180039405822753906 0 0 0 0 0 0 0 0 0 0 0 0 0 0 0 0 0 0 0 0 0 0 0 0 0 0 0 0 0 0 0 0 0 0 0 0 0 0 
0 0 0 0 0 0 0 0 0 0 0 0 0 0 0 0 0 0 0 0 0 0 0 0 0 0 0 0 0 0 0 0 0 0 0 0 0 0 0 0 0 0 0 0 0 11.1237640380859375 11.131612777709960938 11.141805648803710938 11.150748252868652344 11.156892776489257813 11.161172866821289063 11.16873931884765625 11.179651260375976563 11.192753791809082031 11.207676887512207031 11.222523689270019531 11.236596107482910156 11.250971794128417969 11.26808929443359375 11.29177093505859375 11.323444366455078125 11.360507011413574219 11.397577285766601563 11.426836013793945313 11.448240280151367188 11.464722633361816406 11.476979255676269531 11.488389015197753906 11.499300956726074219 11.506724357604980469 11.510168075561523438 11.514423370361328125 11.520853996276855469 11.530409812927246094 11.542893409729003906 11.55694580078125 11.569767951965332031 11.579039573669433594 11.584259033203125 11.586477279663085938 11.587637901306152344 11.589406967163085938 11.591373443603515625 11.591705322265625 11.59066009521484375 11.588932991027832031 11.587382316589355469 11.585982322692871094 11.584672927856445313 11.58329010009765625 11.581178665161132813 11.578144073486328125 11.574130058288574219 11.569726943969726563 11.564207077026367188 11.557461738586425781 11.549859046936035156 11.54217529296875 11.535922050476074219 11.531924247741699219 11.529497146606445313 11.527386665344238281 11.524708747863769531 11.520494461059570313 11.514345169067382813 11.507029533386230469 11.498869895935058594 11.489731788635253906 11.480660438537597656 11.470229148864746094 11.45743560791015625 11.441855430603027344 11.42364501953125 11.403013229370117188 11.380421638488769531 11.356566429138183594 11.331871986389160156 11.307026863098144531 11.282953262329101563 11.260646820068359375 11.239690780639648438 11.220594406127929688 11.20258331298828125 11.18625640869140625 11.171495437622070313 11.157929420471191406 11.1459503173828125 11.134754180908203125 11.124421119689941406 11.1155242919921875 11.108241081237792969 11.103028297424316406 11.099390983581542969 11.098139762878417969 11.101011276245117188 11.109293937683105469 11.124942779541015625 11.145341873168945313 0 0 0 0 0 0 0 0 0 0 0 0 0 0 0 0 0 0 0 0 0 0 0 0 0 0 0 0 0 0 0 0 0 0 0 0 0 0 0 0 0 0 0 0 
0 0 0 0 0 0 0 0 0 0 0 0 0 0 0 0 0 0 0 0 0 0 0 0 0 0 0 0 0 0 0 0 0 0 0 0 0 0 0 0 0 0 0 11.120598793029785156 11.123880386352539063 11.130023002624511719 11.136730194091796875 11.143530845642089844 11.150766372680664063 11.159396171569824219 11.170736312866210938 11.186589241027832031 11.204824447631835938 11.227007865905761719 11.248096466064453125 11.262831687927246094 11.272702217102050781 11.280460357666015625 11.291826248168945313 11.315134048461914063 11.349495887756347656 11.38714599609375 11.420876502990722656 11.446294784545898438 11.464785575866699219 11.479860305786132813 11.492110252380371094 11.503164291381835938 11.512241363525390625 11.517118453979492188 11.51883697509765625 11.523005485534667969 11.530802726745605469 11.541979789733886719 11.555532455444335938 11.569651603698730469 11.581564903259277344 11.589617729187011719 11.593606948852539063 11.595393180847167969 11.597064018249511719 11.599042892456054688 11.600336074829101563 11.6001129150390625 11.598606109619140625 11.596487045288085938 11.594396591186523438 11.592554092407226563 11.590963363647460938 11.588698387145996094 11.585761070251464844 11.581990242004394531 11.577501296997070313 11.572498321533203125 11.565758705139160156 11.558622360229492188 11.55112457275390625 11.544460296630859375 11.539294242858886719 11.535549163818359375 11.532782554626464844 11.530347824096679688 11.52729034423828125 11.52252197265625 11.515949249267578125 11.50807952880859375 11.499148368835449219 11.489522933959960938 11.480126380920410156 11.468288421630859375 11.453360557556152344 11.435117721557617188 11.414342880249023438 11.391000747680664063 11.365757942199707031 11.33969879150390625 11.313969612121582031 11.2891845703125 11.265858650207519531 11.244132041931152344 11.223975181579589844 11.205982208251953125 11.189409255981445313 11.173978805541992188 11.160017967224121094 11.146730422973632813 11.135053634643554688 11.124044418334960938 11.11579132080078125 11.110341072082519531 11.107098579406738281 11.10578155517578125 11.106609344482421875 11.110475540161132813 11.117475509643554688 11.128082275390625 11.142467498779296875 0 0 0 0 0 0 0 0 0 0 0 0 0 0 0 0 0 0 0 0 0 0 0 0 0 0 0 0 0 0 0 0 0 0 0 0 0 0 0 0 0 0 0 0 0 
0 0 0 0 0 0 0 0 0 0 0 0 0 0 0 0 0 0 0 0 0 0 0 0 0 0 0 0 0 0 0 0 0 0 11.152897834777832031 0 0 0 0 0 0 11.120158195495605469 11.124570846557617188 11.130609512329101563 11.137732505798339844 11.144265174865722656 11.148992538452148438 11.153512001037597656 11.161326408386230469 11.174941062927246094 11.193452835083007813 11.216122627258300781 11.245593070983886719 11.278240203857421875 11.298046112060546875 11.302912712097167969 11.303013801574707031 11.303328514099121094 11.315135002136230469 11.343514442443847656 11.378841400146484375 11.412935256958007813 11.441539764404296875 11.463177680969238281 11.480673789978027344 11.49521636962890625 11.507721900939941406 11.518620491027832031 11.525747299194335938 11.528507232666015625 11.530364990234375 11.53502655029296875 11.542650222778320313 11.553815841674804688 11.567958831787109375 11.581416130065917969 11.591290473937988281 11.597260475158691406 11.600903511047363281 11.603448867797851563 11.605184555053710938 11.605978965759277344 11.605871200561523438 11.605113029479980469 11.603977203369140625 11.602509498596191406 11.600877761840820313 11.599231719970703125 11.597092628479003906 11.594219207763671875 11.5907440185546875 11.586107254028320313 11.580415725708007813 11.573672294616699219 11.566539764404296875 11.560173988342285156 11.553331375122070313 11.547917366027832031 11.543166160583496094 11.539002418518066406 11.535902976989746094 11.533102035522460938 11.52925872802734375 11.523772239685058594 11.516778945922851563 11.5081787109375 11.498060226440429688 11.4874114990234375 11.476398468017578125 11.462550163269042969 11.445262908935546875 11.423986434936523438 11.400048255920410156 11.373683929443359375 11.346096038818359375 11.318829536437988281 11.293301582336425781 11.269666671752929688 11.247640609741210938 11.227240562438964844 11.208294868469238281 11.190473556518554688 11.173686027526855469 11.158245086669921875 11.144289970397949219 11.131867408752441406 11.121652603149414063 11.113228797912597656 11.107382774353027344 11.104191780090332031 11.102948188781738281 11.102169036865234375 11.100773811340332031 11.099924087524414063 11.103663444519042969 11.111424446105957031 11.125066757202148438 0 0 0 0 0 0 0 0 0 0 0 0 0 0 0 0 0 0 0 0 0 0 0 0 0 0 0 0 0 0 0 0 0 0 0 0 0 0 0 0 0 0 0 0 0 
0 0 0 0 0 0 0 0 0 0 0 0 0 0 0 0 0 0 0 0 0 0 0 0 0 0 0 0 0 0 0 0 0 11.150299072265625 11.142229080200195313 11.135027885437011719 11.128936767578125 11.124962806701660156 11.122490882873535156 11.121364593505859375 11.122583389282226563 11.1272430419921875 11.135557174682617188 11.1448516845703125 11.153421401977539063 11.159987449645996094 11.165350914001464844 11.171933174133300781 11.18514251708984375 11.206336021423339844 11.231186866760253906 11.261501312255859375 11.295896530151367188 11.32220458984375 11.330412864685058594 11.325899124145507813 11.323075294494628906 11.32939910888671875 11.348604202270507813 11.37723541259765625 11.406839370727539063 11.437020301818847656 11.462334632873535156 11.481475830078125 11.498302459716796875 11.513156890869140625 11.526807785034179688 11.537355422973632813 11.541934013366699219 11.543195724487304688 11.545166969299316406 11.549175262451171875 11.556073188781738281 11.567163467407226563 11.580501556396484375 11.59117889404296875 11.598145484924316406 11.602191925048828125 11.605295181274414063 11.606836318969726563 11.607413291931152344 11.607789993286132813 11.608041763305664063 11.60823822021484375 11.608255386352539063 11.607748031616210938 11.606425285339355469 11.604340553283691406 11.601529121398925781 11.597819328308105469 11.59313201904296875 11.587335586547851563 11.580350875854492188 11.573439598083496094 11.567714691162109375 11.56219482421875 11.556199073791503906 11.552499771118164063 11.548361778259277344 11.544041633605957031 11.540577888488769531 11.536477088928222656 11.531455039978027344 11.524835586547851563 11.516848564147949219 11.507208824157714844 11.496343612670898438 11.484604835510253906 11.470770835876464844 11.453462600708007813 11.432293891906738281 11.407484054565429688 11.380495071411132813 11.352366447448730469 11.324247360229492188 11.297952651977539063 11.274264335632324219 11.251923561096191406 11.230612754821777344 11.210544586181640625 11.1915130615234375 11.173445701599121094 11.156811714172363281 11.141329765319824219 11.127594947814941406 11.116488456726074219 11.107932090759277344 11.100919723510742188 11.094882965087890625 11.091098785400390625 11.090758323669433594 11.093062400817871094 0 0 0 11.103700637817382813 0 0 0 0 0 0 0 0 0 0 0 0 0 0 0 0 0 0 0 0 0 0 0 0 0 0 0 0 0 0 0 0 0 0 0 0 0 0 0 0 0 0 0 0 0 0 
0 0 0 0 0 0 0 0 0 0 0 0 0 0 0 0 0 0 0 0 0 0 0 0 0 0 0 0 0 0 0 0 0 11.163072586059570313 11.157160758972167969 11.152779579162597656 11.146509170532226563 11.141582489013671875 11.138950347900390625 11.138484954833984375 11.140951156616210938 11.147064208984375 11.156339645385742188 11.167055130004882813 11.176594734191894531 11.184938430786132813 11.195833206176757813 11.211858749389648438 11.232028961181640625 11.256190299987792969 11.283229827880859375 11.317648887634277344 11.343880653381347656 11.352069854736328125 11.350551605224609375 11.350399971008300781 11.356929779052734375 11.369809150695800781 11.386941909790039063 11.408215522766113281 11.431571006774902344 11.457056045532226563 11.481647491455078125 11.500807762145996094 11.518694877624511719 11.535468101501464844 11.550286293029785156 11.560343742370605469 11.562191963195800781 11.561100006103515625 11.561400413513183594 11.563886642456054688 11.570180892944335938 11.580898284912109375 11.591854095458984375 11.599038124084472656 11.602583885192871094 11.60437774658203125 11.606121063232421875 11.606980323791503906 11.607493400573730469 11.607812881469726563 11.608036994934082031 11.609221458435058594 11.610197067260742188 11.610352516174316406 11.609270095825195313 11.607312202453613281 11.604051589965820313 11.599263191223144531 11.593722343444824219 11.587225914001464844 11.580739974975585938 11.575268745422363281 11.57033538818359375 11.565463066101074219 11.561283111572265625 11.557941436767578125 11.553975105285644531 11.549350738525390625 11.5447998046875 11.540114402770996094 11.534394264221191406 11.525891304016113281 11.517267227172851563 11.506471633911132813 11.493556976318359375 11.478562355041503906 11.460964202880859375 11.43978118896484375 11.41510009765625 11.387603759765625 11.359173774719238281 11.331556320190429688 11.305020332336425781 11.279933929443359375 11.256622314453125 11.234376907348632813 11.213263511657714844 11.193373680114746094 11.174553871154785156 11.157252311706542969 11.141117095947265625 11.126369476318359375 11.114381790161132813 11.105455398559570313 11.099316596984863281 11.093688011169433594 11.087615013122558594 11.084630012512207031 0 0 0 0 0 0 0 0 0 0 0 0 0 0 0 0 0 0 0 0 0 0 0 0 0 0 0 0 0 0 0 0 0 0 0 0 0 0 0 0 0 0 0 0 0 0 0 0 0 0 0 0 
0 0 0 0 0 0 0 0 0 0 0 0 0 0 0 0 0 0 0 0 0 0 0 0 0 0 0 0 0 0 0 0 0 0 11.16989898681640625 11.174122810363769531 11.172024726867675781 11.168002128601074219 11.165006637573242188 11.164290428161621094 11.167670249938964844 11.175730705261230469 11.185876846313476563 11.195431709289550781 11.20844268798828125 11.229348182678222656 11.253706932067871094 11.277631759643554688 11.298719406127929688 11.319951057434082031 11.349545478820800781 11.371110916137695313 11.376016616821289063 11.374629974365234375 11.374803543090820313 11.386662483215332031 11.400471687316894531 11.408934593200683594 11.416959762573242188 11.43255615234375 11.455040931701660156 11.479241371154785156 11.501703262329101563 11.521458625793457031 11.541681289672851563 11.562214851379394531 11.577252388000488281 11.58294677734375 11.580608367919921875 11.576939582824707031 11.575578689575195313 11.577523231506347656 11.584637641906738281 11.5948333740234375 11.602417945861816406 11.606000900268554688 11.606594085693359375 11.606678962707519531 11.607061386108398438 11.606969833374023438 11.606715202331542969 11.60680389404296875 11.607465744018554688 11.609589576721191406 11.611451148986816406 11.612381935119628906 11.61177825927734375 11.610161781311035156 11.605632781982421875 11.599735260009765625 11.594134330749511719 11.587855339050292969 11.582605361938476563 11.578209877014160156 11.57402801513671875 11.569916725158691406 11.566091537475585938 11.56237030029296875 11.558222770690917969 11.553539276123046875 11.548837661743164063 11.5436248779296875 11.535717010498046875 11.525815010070800781 11.515072822570800781 11.500845909118652344 11.484555244445800781 11.4669036865234375 11.446706771850585938 11.42197418212890625 11.394867897033691406 11.366580963134765625 11.338344573974609375 11.310857772827148438 11.284525871276855469 11.259943962097167969 11.237283706665039063 11.216527938842773438 11.197232246398925781 11.178211212158203125 11.159497261047363281 11.143115997314453125 11.129240989685058594 11.117544174194335938 11.108220100402832031 11.101366996765136719 11.09618377685546875 11.0918731689453125 11.087972640991210938 11.085706710815429688 0 0 0 0 0 0 0 0 0 0 0 0 0 0 0 0 0 0 0 0 0 0 0 0 0 0 0 0 0 0 0 0 0 0 0 0 0 0 0 0 0 0 0 0 0 0 0 0 0 0 0 0 
0 0 0 0 0 0 0 0 0 0 0 0 0 0 0 0 0 0 0 0 0 0 0 0 0 0 0 0 0 0 0 0 0 11.184996604919433594 11.195219993591308594 11.202045440673828125 11.202157974243164063 11.197935104370117188 11.191671371459960938 11.191465377807617188 11.196718215942382813 11.205686569213867188 11.216043472290039063 11.232230186462402344 11.259039878845214844 11.292690277099609375 11.322282791137695313 11.34278106689453125 11.361134529113769531 11.378516197204589844 11.392137527465820313 11.396075248718261719 11.393063545227050781 11.391361236572265625 11.404541969299316406 11.425496101379394531 11.433304786682128906 11.43257904052734375 11.4371490478515625 11.455844879150390625 11.480854034423828125 11.505300521850585938 11.527357101440429688 11.548947334289550781 11.570917129516601563 11.589483261108398438 11.599095344543457031 11.599033355712890625 11.594433784484863281 11.590282440185546875 11.589980125427246094 11.593839645385742188 11.601382255554199219 11.609118461608886719 11.613081932067871094 11.613493919372558594 11.611253738403320313 11.609412193298339844 11.608081817626953125 11.60711669921875 11.606777191162109375 11.607035636901855469 11.608549118041992188 11.611292839050292969 11.613782882690429688 11.615317344665527344 11.614833831787109375 11.611497879028320313 11.605654716491699219 11.600087165832519531 11.594695091247558594 11.589173316955566406 11.584600448608398438 11.58080291748046875 11.57684326171875 11.57266998291015625 11.569210052490234375 11.565146446228027344 11.560494422912597656 11.555751800537109375 11.550208091735839844 11.5421905517578125 11.531649589538574219 11.519664764404296875 11.505786895751953125 11.489243507385253906 11.470790863037109375 11.451023101806640625 11.428121566772460938 11.401164054870605469 11.372659683227539063 11.343228340148925781 11.31414794921875 11.286293983459472656 11.261201858520507813 11.238900184631347656 11.218687057495117188 11.199730873107910156 11.181473731994628906 11.163776397705078125 11.147482872009277344 11.133498191833496094 11.12204742431640625 11.112875938415527344 11.105587959289550781 11.10010528564453125 11.096075057983398438 11.09398651123046875 11.093713760375976563 11.093959808349609375 11.096101760864257813 0 0 0 0 11.111932754516601563 0 0 0 0 0 0 0 0 0 0 0 0 0 0 0 0 0 0 0 0 0 0 0 0 0 0 0 0 0 0 0 0 0 0 0 0 0 0 0 0 0 0 0 0 0 0 
0 0 0 0 0 0 0 0 0 0 0 0 0 0 0 0 0 0 0 0 0 0 0 0 0 0 0 0 0 0 0 0 0 11.215030670166015625 11.222599029541015625 11.22751617431640625 11.227039337158203125 11.22254180908203125 11.21929931640625 11.223829269409179688 11.230305671691894531 11.239561080932617188 11.255946159362792969 11.283830642700195313 11.317729949951171875 11.343196868896484375 11.362238883972167969 11.378840446472167969 11.392484664916992188 11.401182174682617188 11.404539108276367188 11.404408454895019531 11.405628204345703125 11.41451263427734375 11.43408203125 11.448865890502929688 11.448826789855957031 11.446413040161132813 11.456561088562011719 11.483089447021484375 11.509244918823242188 11.533782958984375 11.557246208190917969 11.579871177673339844 11.599202156066894531 11.611510276794433594 11.614780426025390625 11.611611366271972656 11.607419013977050781 11.606126785278320313 11.60848236083984375 11.613129615783691406 11.618700981140136719 11.623015403747558594 11.624011993408203125 11.621835708618164063 11.617144584655761719 11.613341331481933594 11.610850334167480469 11.609402656555175781 11.60892486572265625 11.609919548034667969 11.612565040588378906 11.615846633911132813 11.61846160888671875 11.619162559509277344 11.616884231567382813 11.612046241760253906 11.606428146362304688 11.601105690002441406 11.595594406127929688 11.5904083251953125 11.585927963256835938 11.582340240478515625 11.57794952392578125 11.573205947875976563 11.569932937622070313 11.565089225769042969 11.559263229370117188 11.553772926330566406 11.546106338500976563 11.534847259521484375 11.521666526794433594 11.507976531982421875 11.493452072143554688 11.476222038269042969 11.455272674560546875 11.431174278259277344 11.404074668884277344 11.374623298645019531 11.344874382019042969 11.3160858154296875 11.289134979248046875 11.264040946960449219 11.240787506103515625 11.2195892333984375 11.200079917907714844 11.182325363159179688 11.165360450744628906 11.149205207824707031 11.135110855102539063 11.123974800109863281 11.115667343139648438 11.109149932861328125 11.103998184204101563 11.100975990295410156 11.099314689636230469 11.098233222961425781 11.098336219787597656 11.099825859069824219 11.100232124328613281 11.100872993469238281 11.101944923400878906 11.101180076599121094 11.100056648254394531 11.097736358642578125 11.093812942504882813 11.098322868347167969 0 0 0 0 0 0 0 0 0 0 0 0 0 0 0 0 0 0 0 0 0 0 0 0 0 0 0 0 0 0 0 0 0 0 0 0 0 0 0 0 0 0 0 0 
0 0 0 0 0 0 0 0 0 0 0 0 0 0 0 0 0 0 0 0 0 0 0 0 0 0 0 0 0 0 0 0 0 11.243832588195800781 11.247035026550292969 11.248317718505859375 11.247683525085449219 11.248067855834960938 11.253521919250488281 11.262776374816894531 11.271226882934570313 11.285892486572265625 11.309666633605957031 11.334529876708984375 11.356291770935058594 11.372812271118164063 11.385968208312988281 11.395838737487792969 11.402714729309082031 11.407339096069335938 11.410538673400878906 11.414494514465332031 11.424097061157226563 11.440204620361328125 11.454571723937988281 11.460065841674804688 11.460259437561035156 11.465769767761230469 11.484969139099121094 11.513658523559570313 11.53890228271484375 11.562053680419921875 11.584574699401855469 11.604799270629882813 11.618703842163085938 11.62574005126953125 11.627468109130859375 11.625551223754882813 11.623907089233398438 11.625521659851074219 11.629069328308105469 11.632773399353027344 11.635966300964355469 11.636999130249023438 11.634998321533203125 11.630388259887695313 11.624293327331542969 11.619702339172363281 11.616556167602539063 11.615221023559570313 11.615674018859863281 11.617077827453613281 11.619076728820800781 11.621076583862304688 11.622061729431152344 11.6208343505859375 11.617099761962890625 11.612269401550292969 11.607253074645996094 11.601922988891601563 11.596286773681640625 11.591145515441894531 11.587027549743652344 11.583426475524902344 11.578869819641113281 11.573988914489746094 11.569870948791503906 11.563349723815917969 11.555192947387695313 11.547812461853027344 11.537455558776855469 11.525002479553222656 11.511298179626464844 11.496245384216308594 11.478578567504882813 11.456589698791503906 11.430591583251953125 11.402812957763671875 11.374968528747558594 11.34723663330078125 11.320189476013183594 11.293866157531738281 11.268174171447753906 11.243185043334960938 11.21958160400390625 11.197735786437988281 11.178436279296875 11.161657333374023438 11.145928382873535156 11.132688522338867188 11.122675895690917969 11.115050315856933594 11.110028266906738281 11.107790946960449219 11.108478546142578125 11.109118461608886719 11.108392715454101563 11.1072540283203125 11.10736846923828125 11.108243942260742188 11.107562065124511719 11.105144500732421875 11.102734565734863281 0 0 0 11.08480072021484375 11.080140113830566406 11.077591896057128906 11.073740959167480469 11.072174072265625 0 0 0 0 0 0 0 0 0 0 0 0 0 0 0 0 0 0 0 0 0 0 0 0 0 0 0 0 0 0 0 0 0 0 0 0 0 0 0 0 0 
0 0 0 0 0 0 0 0 0 0 0 0 0 0 0 0 0 0 0 0 0 0 0 0 0 0 0 0 0 0 0 0 0 11.265026092529296875 11.264492034912109375 11.26444244384765625 11.266902923583984375 11.274044036865234375 11.285450935363769531 11.297780036926269531 11.309786796569824219 11.325067520141601563 11.343196868896484375 11.359738349914550781 11.375566482543945313 11.388532638549804688 11.395298004150390625 11.399789810180664063 11.404964447021484375 11.410940170288085938 11.417872428894042969 11.428551673889160156 11.442421913146972656 11.455373764038085938 11.465497970581054688 11.472761154174804688 11.480141639709472656 11.493516921997070313 11.515339851379394531 11.539430618286132813 11.560504913330078125 11.581005096435546875 11.601250648498535156 11.619782447814941406 11.63179779052734375 11.637371063232421875 11.639738082885742188 11.639914512634277344 11.641093254089355469 11.644079208374023438 11.646908760070800781 11.649121284484863281 11.650026321411132813 11.648791313171386719 11.645173072814941406 11.639531135559082031 11.633246421813964844 11.628269195556640625 11.625367164611816406 11.624232292175292969 11.62359619140625 11.623518943786621094 11.623759269714355469 11.623694419860839844 11.6223907470703125 11.619957923889160156 11.616535186767578125 11.612212181091308594 11.607172012329101563 11.601376533508300781 11.595820426940917969 11.59195709228515625 11.588980674743652344 11.58518218994140625 11.580272674560546875 11.574862480163574219 11.568030357360839844 11.558527946472167969 11.548738479614257813 11.539258003234863281 11.52704620361328125 11.512178421020507813 11.494852066040039063 11.475414276123046875 11.452935218811035156 11.4290313720703125 11.403993606567382813 11.37891387939453125 11.352972984313964844 11.325953483581542969 11.298961639404296875 11.271914482116699219 11.244011878967285156 11.216395378112792969 11.191472053527832031 11.171248435974121094 11.155177116394042969 11.141893386840820313 11.13079071044921875 11.1225128173828125 11.116131782531738281 11.111889839172363281 11.111271858215332031 11.115023612976074219 0 0 0 0 0 0 0 0 0 0 0 0 0 0 0 11.060900688171386719 11.05663299560546875 11.055173873901367188 0 0 0 0 0 0 0 0 0 0 0 0 0 0 0 0 0 0 0 0 0 0 0 0 0 0 0 0 0 0 0 0 0 0 0 0 0 0 0 0 
0 0 0 0 0 0 0 0 0 0 0 0 0 0 0 0 0 0 0 0 0 0 0 0 0 0 0 0 0 0 11.301733970642089844 11.290372848510742188 11.283743858337402344 11.280244827270507813 11.278545379638671875 11.279920578002929688 11.284196853637695313 11.292687416076660156 11.304195404052734375 11.3167877197265625 11.329468727111816406 11.341524124145507813 11.353602409362792969 11.367036819458007813 11.380250930786132813 11.39014434814453125 11.396341323852539063 11.401090621948242188 11.406301498413085938 11.413836479187011719 11.423554420471191406 11.434016227722167969 11.445386886596679688 11.457485198974609375 11.470447540283203125 11.483613014221191406 11.49691009521484375 11.511516571044921875 11.529269218444824219 11.549111366271972656 11.570423126220703125 11.592818260192871094 11.614319801330566406 11.632112503051757813 11.643238067626953125 11.64870452880859375 11.650931358337402344 11.651927947998046875 11.654603004455566406 11.657902717590332031 11.659986495971679688 11.660868644714355469 11.660412788391113281 11.657822608947753906 11.65337371826171875 11.647779464721679688 11.642236709594726563 11.637887001037597656 11.634709358215332031 11.6319427490234375 11.62952423095703125 11.627518653869628906 11.625153541564941406 11.622419357299804688 11.619791030883789063 11.617638587951660156 11.614698410034179688 11.610065460205078125 11.604284286499023438 11.599274635314941406 11.59569549560546875 11.593259811401367188 11.59051513671875 11.586533546447753906 11.581841468811035156 11.574925422668457031 11.564375877380371094 11.552156448364257813 11.539788246154785156 11.526013374328613281 11.509669303894042969 11.491273880004882813 11.472143173217773438 11.453080177307128906 11.432415962219238281 11.409016609191894531 11.383774757385253906 11.357412338256835938 11.329311370849609375 11.298429489135742188 11.266588211059570313 11.236332893371582031 11.208364486694335938 11.183684349060058594 11.164052009582519531 11.150098800659179688 11.140716552734375 11.133604049682617188 11.126484870910644531 11.119654655456542969 11.115107536315917969 0 0 0 0 0 0 0 0 0 0 0 0 0 0 0 0 0 0 11.050128936767578125 11.040751457214355469 11.0374603271484375 0 0 0 0 0 0 0 0 0 0 0 0 0 0 0 0 0 0 0 0 0 0 0 0 0 0 0 0 0 0 0 0 0 0 0 0 0 0 0 0 
0 0 0 0 0 0 0 0 0 0 0 0 0 0 0 0 0 0 0 0 0 0 0 0 0 0 0 0 11.318485260009765625 11.32015228271484375 11.313910484313964844 11.308537483215332031 11.303365707397460938 11.299505233764648438 11.298911094665527344 11.300508499145507813 11.302965164184570313 11.307710647583007813 11.312558174133300781 11.317293167114257813 11.324109077453613281 11.334713935852050781 11.347989082336425781 11.362479209899902344 11.3760986328125 11.38729095458984375 11.395640373229980469 11.401468276977539063 11.406491279602050781 11.412256240844726563 11.418641090393066406 11.426441192626953125 11.436293601989746094 11.448044776916503906 11.460809707641601563 11.473779678344726563 11.487669944763183594 11.503685951232910156 11.523164749145507813 11.547201156616210938 11.574337959289550781 11.602048873901367188 11.626667022705078125 11.644776344299316406 11.654635429382324219 11.658258438110351563 11.659699440002441406 11.661288261413574219 11.664132118225097656 11.66684722900390625 11.668043136596679688 11.667763710021972656 11.666591644287109375 11.663618087768554688 11.659796714782714844 11.655333518981933594 11.650584220886230469 11.645894050598144531 11.641338348388671875 11.636974334716796875 11.632819175720214844 11.62841033935546875 11.623780250549316406 11.619534492492675781 11.616297721862792969 11.613581657409667969 11.60986328125 11.605272293090820313 11.600988388061523438 11.597814559936523438 11.595521926879882813 11.593339920043945313 11.591053009033203125 11.587671279907226563 11.582909584045410156 11.572557449340820313 11.557736396789550781 11.54212188720703125 11.525567054748535156 11.508343696594238281 11.490892410278320313 11.47267913818359375 11.453504562377929688 11.433374404907226563 11.4107208251953125 11.384510993957519531 11.355770111083984375 11.32410430908203125 11.290950775146484375 11.258551597595214844 11.228929519653320313 11.202703475952148438 11.180155754089355469 11.16178131103515625 11.150048255920410156 11.143329620361328125 11.138515472412109375 11.1334381103515625 11.127274513244628906 11.121463775634765625 11.117726325988769531 0 0 0 0 0 0 0 0 0 0 0 0 0 0 0 0 0 0 0 0 0 0 0 0 0 0 0 0 0 0 0 0 0 0 0 0 0 0 0 0 0 0 0 0 0 0 0 0 0 0 0 0 0 0 0 0 0 0 0 0 0 
0 0 0 0 0 0 0 0 0 0 0 0 0 0 0 0 0 0 0 0 0 0 11.347408294677734375 11.336900711059570313 11.326624870300292969 11.318190574645996094 11.31491851806640625 11.315336227416992188 11.317724227905273438 11.321074485778808594 11.32355499267578125 11.324633598327636719 11.323399543762207031 11.321577072143554688 11.320055007934570313 11.318193435668945313 11.315499305725097656 11.31353759765625 11.312295913696289063 11.313405990600585938 11.318333625793457031 11.325662612915039063 11.334697723388671875 11.345890045166015625 11.358188629150390625 11.368884086608886719 11.377132415771484375 11.384075164794921875 11.389996528625488281 11.395418167114257813 11.401618003845214844 11.408799171447753906 11.417071342468261719 11.426923751831054688 11.438432693481445313 11.451109886169433594 11.466576576232910156 11.485970497131347656 11.510316848754882813 11.540156364440917969 11.574152946472167969 11.608621597290039063 11.637420654296875 11.656105995178222656 11.663939476013183594 11.66629791259765625 11.667568206787109375 11.669384956359863281 11.671415328979492188 11.672420501708984375 11.672057151794433594 11.671015739440917969 11.669828414916992188 11.667807579040527344 11.665421485900878906 11.662005424499511719 11.657548904418945313 11.652231216430664063 11.646368026733398438 11.640311241149902344 11.634068489074707031 11.627827644348144531 11.621837615966796875 11.616222381591796875 11.611742973327636719 11.608086585998535156 11.6045074462890625 11.60108184814453125 11.598102569580078125 11.595445632934570313 11.593134880065917969 11.591288566589355469 11.589461326599121094 11.586297988891601563 11.580165863037109375 11.566817283630371094 11.549222946166992188 11.531044960021972656 11.511380195617675781 11.492100715637207031 11.472637176513671875 11.451975822448730469 11.429269790649414063 11.40528106689453125 11.378094673156738281 11.347551345825195313 11.315607070922851563 11.283881187438964844 11.253833770751953125 11.226382255554199219 11.202385902404785156 11.183487892150878906 11.168852806091308594 11.157938957214355469 11.15172576904296875 11.147489547729492188 11.143186569213867188 11.138625144958496094 11.133480072021484375 11.128468513488769531 11.124486923217773438 11.123239517211914063 11.126305580139160156 0 0 0 0 0 0 0 0 0 0 0 0 0 0 0 0 0 0 0 0 0 0 0 0 0 0 0 0 0 0 0 0 0 0 0 0 0 0 0 0 0 0 0 0 0 0 0 0 0 0 0 0 0 0 0 0 0 0 0 
0 0 0 0 0 0 0 0 0 0 0 0 0 0 0 0 0 0 0 0 0 0 0 0 0 11.325975418090820313 11.318598747253417969 11.3163604736328125 11.317892074584960938 11.322076797485351563 11.327715873718261719 11.33237457275390625 11.334656715393066406 11.334611892700195313 11.332994461059570313 11.330715179443359375 11.328619956970214844 11.327754974365234375 11.326844215393066406 11.326047897338867188 11.325870513916015625 11.327151298522949219 11.32891082763671875 11.332751274108886719 11.337092399597167969 11.340986251831054688 11.345883369445800781 11.3531036376953125 11.361178398132324219 11.368907928466796875 11.376563072204589844 11.383994102478027344 11.39199066162109375 11.401414871215820313 11.412318229675292969 11.425960540771484375 11.443932533264160156 11.467998504638671875 11.498748779296875 11.534657478332519531 11.57415771484375 11.615096092224121094 11.647238731384277344 11.665033340454101563 11.670266151428222656 11.672481536865234375 11.674825668334960938 11.676836967468261719 11.677350044250488281 11.676509857177734375 11.6751861572265625 11.674023628234863281 11.672999382019042969 11.672057151794433594 11.67073822021484375 11.66766357421875 11.662892341613769531 11.656657218933105469 11.6491241455078125 11.640941619873046875 11.632603645324707031 11.624485969543457031 11.616985321044921875 11.610736846923828125 11.606289863586425781 11.60297393798828125 11.599798202514648438 11.596446037292480469 11.592999458312988281 11.590119361877441406 11.588355064392089844 11.587091445922851563 11.585358619689941406 11.581444740295410156 11.572032928466796875 11.556842803955078125 11.538208961486816406 11.517667770385742188 11.495176315307617188 11.473143577575683594 11.450034141540527344 11.426367759704589844 11.4000701904296875 11.371187210083007813 11.34075164794921875 11.309130668640136719 11.2776031494140625 11.247926712036132813 11.223326683044433594 11.204157829284667969 11.189927101135253906 11.179571151733398438 11.171770095825195313 11.166167259216308594 11.162392616271972656 11.158573150634765625 11.154554367065429688 11.149872779846191406 11.144644737243652344 11.139840126037597656 11.136311531066894531 11.134822845458984375 11.13507843017578125 11.137731552124023438 0 0 0 0 0 0 0 0 0 0 0 0 0 0 0 0 0 0 0 0 0 0 0 0 0 0 0 0 0 0 0 0 0 0 0 0 0 0 0 0 0 0 0 0 0 0 0 0 0 0 0 0 0 0 0 0 0 0 
0 0 0 0 0 0 0 0 0 0 0 0 0 0 0 0 0 0 0 0 0 0 0 0 0 0 0 0 11.325481414794921875 11.328351020812988281 11.335600852966308594 11.340346336364746094 11.342958450317382813 11.344069480895996094 11.344492912292480469 11.345489501953125 11.34771728515625 11.350225448608398438 11.350856781005859375 11.348668098449707031 11.345098495483398438 11.342090606689453125 11.339869499206542969 11.3379974365234375 11.335420608520507813 11.333341598510742188 11.335393905639648438 11.340517997741699219 11.348237037658691406 11.356420516967773438 11.363634109497070313 11.369379043579101563 11.3753814697265625 11.384104728698730469 11.396490097045898438 11.412421226501464844 11.432503700256347656 11.459067344665527344 11.493508338928222656 11.534128189086914063 11.578746795654296875 11.622684478759765625 11.655463218688964844 11.671116828918457031 11.674481391906738281 11.67763519287109375 11.681543350219726563 11.682553291320800781 11.681454658508300781 11.679996490478515625 11.678609848022460938 11.677388191223144531 11.67664337158203125 11.676224708557128906 11.6746978759765625 11.670835494995117188 11.665024757385253906 11.657817840576171875 11.64937591552734375 11.639872550964355469 11.629747390747070313 11.62023162841796875 11.61243438720703125 11.606403350830078125 11.60218048095703125 11.598772048950195313 11.595170974731445313 11.591355323791503906 11.587520599365234375 11.585078239440917969 11.583860397338867188 11.582455635070800781 11.5792694091796875 11.572222709655761719 11.560077667236328125 11.543786048889160156 11.524666786193847656 11.503058433532714844 11.478564262390136719 11.451765060424804688 11.42446136474609375 11.396976470947265625 11.368510246276855469 11.33890533447265625 11.31005859375 11.281500816345214844 11.253885269165039063 11.229799270629882813 11.212126731872558594 11.199994087219238281 11.191343307495117188 11.185011863708496094 11.180150985717773438 11.176171302795410156 11.172773361206054688 11.169429779052734375 11.165770530700683594 11.16187286376953125 11.158385276794433594 11.155790328979492188 11.154259681701660156 11.154921531677246094 11.1566619873046875 11.158747673034667969 11.161127090454101563 11.164689064025878906 0 0 0 0 0 0 0 0 0 0 0 0 0 0 0 0 0 0 0 0 0 0 0 0 0 0 0 0 0 0 0 0 0 0 0 0 0 0 0 0 0 0 0 0 0 0 0 0 0 0 0 0 0 0 0 0 
0 0 0 0 0 0 0 0 0 0 0 0 0 0 0 0 0 0 0 0 0 0 0 0 0 0 0 0 0 0 0 0 0 11.352215766906738281 11.352968215942382813 11.355472564697265625 11.359071731567382813 11.36249542236328125 11.36406707763671875 11.362779617309570313 11.359371185302734375 11.354590415954589844 11.349117279052734375 11.342679977416992188 11.335940361022949219 11.330939292907714844 11.330382347106933594 11.334011077880859375 11.340975761413574219 11.348781585693359375 11.356884956359863281 11.365940093994140625 11.372853279113769531 11.384670257568359375 11.399298667907714844 11.418154716491699219 11.440599441528320313 11.466637611389160156 11.499789237976074219 11.543384552001953125 11.592667579650878906 11.636067390441894531 11.663683891296386719 11.67452239990234375 11.677869796752929688 11.682126045227050781 11.685492515563964844 11.685591697692871094 11.684240341186523438 11.682749748229980469 11.681376457214355469 11.680210113525390625 11.679482460021972656 11.678548812866210938 11.676149368286132813 11.67201995849609375 11.666141510009765625 11.658290863037109375 11.648546218872070313 11.637398719787597656 11.626041412353515625 11.616160392761230469 11.608508110046386719 11.602725028991699219 11.5983428955078125 11.594244956970214844 11.590642929077148438 11.587337493896484375 11.584003448486328125 11.58161163330078125 11.5788726806640625 11.575933456420898438 11.5704803466796875 11.561621665954589844 11.548270225524902344 11.530644416809082031 11.509423255920410156 11.484546661376953125 11.456304550170898438 11.426996231079101563 11.398590087890625 11.371020317077636719 11.344747543334960938 11.318261146545410156 11.29199981689453125 11.266965866088867188 11.243786811828613281 11.224855422973632813 11.210941314697265625 11.200460433959960938 11.192773818969726563 11.187318801879882813 11.183346748352050781 11.179957389831542969 11.177351951599121094 11.17516326904296875 11.173151969909667969 11.171792984008789063 11.171137809753417969 11.171548843383789063 11.173077583312988281 11.174945831298828125 11.176168441772460938 11.177082061767578125 11.176609039306640625 11.174465179443359375 11.17121124267578125 11.167814254760742188 11.164025306701660156 11.15941619873046875 11.155489921569824219 11.153352737426757813 0 0 0 0 0 0 0 0 0 0 0 0 0 0 0 0 0 0 0 0 0 0 0 0 0 0 0 0 0 0 0 0 0 0 0 0 0 0 0 0 0 0 0 0 0 0 0 0 0 0 
0 0 0 0 0 0 0 0 0 0 0 0 0 0 0 0 0 0 0 0 0 0 0 0 0 0 0 0 0 0 0 0 0 11.358942985534667969 11.362285614013671875 11.363896369934082031 11.365866661071777344 11.368108749389648438 11.368832588195800781 11.367626190185546875 11.365174293518066406 0 0 0 0 11.332058906555175781 0 0 0 0 0 11.373243331909179688 11.381993293762207031 11.400234222412109375 11.414255142211914063 11.4337158203125 11.459025382995605469 11.4847259521484375 11.515979766845703125 11.563389778137207031 11.616391181945800781 11.655119895935058594 11.672514915466308594 11.67768096923828125 11.681390762329101563 11.68558502197265625 11.6872406005859375 11.68640899658203125 11.685092926025390625 11.683633804321289063 11.682108879089355469 11.680639266967773438 11.679645538330078125 11.678472518920898438 11.675950050354003906 11.671895980834960938 11.665465354919433594 11.656446456909179688 11.64553070068359375 11.633562088012695313 11.621706008911132813 11.611502647399902344 11.603663444519042969 11.597728729248046875 11.593305587768554688 11.590054512023925781 11.587488174438476563 11.584703445434570313 11.580765724182128906 11.576353073120117188 11.572124481201171875 11.567822456359863281 11.560296058654785156 11.549707412719726563 11.533237457275390625 11.5118255615234375 11.488396644592285156 11.462191581726074219 11.434178352355957031 11.407377243041992188 11.381703376770019531 11.356149673461914063 11.330811500549316406 11.305367469787597656 11.280025482177734375 11.256300926208496094 11.235100746154785156 11.219058036804199219 11.208260536193847656 11.200529098510742188 11.194481849670410156 11.189411163330078125 11.185571670532226563 11.183069229125976563 11.182305335998535156 11.182913780212402344 11.183424949645996094 11.1849212646484375 11.186532974243164063 11.188912391662597656 0 0 0 0 0 0 0 0 11.164318084716796875 11.157087326049804688 0 11.152162551879882813 11.14852142333984375 11.143347740173339844 11.138874053955078125 0 0 0 0 0 0 0 0 0 0 0 0 0 0 0 0 0 0 0 0 0 0 0 0 0 0 0 0 0 0 0 0 0 0 0 0 0 0 0 0 0 0 0 0 0 0 0 
0 0 0 0 0 0 0 0 0 0 0 0 0 0 0 0 0 0 0 0 0 0 0 0 0 0 0 0 0 0 0 0 0 0 0 0 0 0 0 0 0 0 0 0 0 0 0 0 0 0 0 11.422580718994140625 11.424052238464355469 11.431070327758789063 11.438873291015625 11.454585075378417969 11.480609893798828125 11.506988525390625 11.539006233215332031 11.590663909912109375 11.641476631164550781 11.669519424438476563 11.677553176879882813 11.680867195129394531 11.684863090515136719 11.687272071838378906 11.687021255493164063 11.685566902160644531 11.684042930603027344 11.682503700256347656 11.680759429931640625 11.679170608520507813 11.678200721740722656 11.676471710205078125 11.673178672790527344 11.667992591857910156 11.660580635070800781 11.650922775268554688 11.639424324035644531 11.627047538757324219 11.614939689636230469 11.604523658752441406 11.597123146057128906 11.591936111450195313 11.588346481323242188 11.585597038269042969 11.582853317260742188 11.578739166259765625 11.572965621948242188 11.567453384399414063 11.562085151672363281 11.55458831787109375 11.544931411743164063 11.532606124877929688 11.514670372009277344 11.492801666259765625 11.469029426574707031 11.443243026733398438 11.415265083312988281 11.3886260986328125 11.362895965576171875 11.337617874145507813 11.313501358032226563 11.290731430053710938 11.270130157470703125 11.253589630126953125 11.241923332214355469 11.233767509460449219 11.227129936218261719 11.2201690673828125 11.212140083312988281 11.203682899475097656 11.196773529052734375 11.192246437072753906 11.189136505126953125 0 0 0 0 0 0 0 0 0 0 0 0 0 0 0 0 0 11.156010627746582031 11.150453567504882813 11.144810676574707031 11.138426780700683594 11.132653236389160156 11.128994941711425781 0 0 0 0 0 0 0 0 0 0 0 0 0 0 0 0 0 0 0 0 0 0 0 0 0 0 0 0 0 0 0 0 0 0 0 0 0 0 0 0 0 0 0 0 
0 0 0 0 0 0 0 0 0 0 0 0 0 0 0 0 0 0 0 0 0 0 0 0 0 0 0 0 0 0 0 0 0 0 0 0 0 0 0 0 0 0 0 0 0 0 0 0 0 0 0 11.458544731140136719 11.4536590576171875 11.454745292663574219 11.461909294128417969 11.475026130676269531 11.499925613403320313 11.53057098388671875 11.566088676452636719 11.616573333740234375 11.659943580627441406 11.676116943359375 11.679769515991210938 11.683561325073242188 11.686662673950195313 11.687129974365234375 11.685748100280761719 11.683880805969238281 11.682076454162597656 11.680084228515625 11.677812576293945313 11.675730705261230469 11.673468589782714844 11.6700592041015625 11.665456771850585938 11.659485816955566406 11.651632308959960938 11.641806602478027344 11.629879951477050781 11.616716384887695313 11.604104995727539063 11.594107627868652344 11.587559700012207031 11.582219123840332031 11.578134536743164063 11.574787139892578125 11.57111358642578125 11.566457748413085938 11.561197280883789063 11.555934906005859375 11.549163818359375 11.540209770202636719 11.529689788818359375 11.515611648559570313 11.496053695678710938 11.47287750244140625 11.446987152099609375 11.42000579833984375 11.393354415893554688 11.368524551391601563 11.346379280090332031 11.328175544738769531 11.310911178588867188 11.294836044311523438 11.282117843627929688 11.275303840637207031 11.270396232604980469 11.264208793640136719 11.255245208740234375 11.244817733764648438 11.232951164245605469 0 0 0 0 0 0 0 0 0 0 0 0 0 0 0 0 0 0 0 0 0 0 0 0 0 0 0 0 0 0 0 0 0 0 0 0 0 0 0 0 0 0 0 0 0 0 0 0 0 0 0 0 0 0 0 0 0 0 0 0 0 0 0 0 0 0 0 0 0 0 0 
0 0 0 0 0 0 0 0 0 0 0 0 0 0 0 0 0 0 0 0 0 0 0 0 0 0 0 0 0 0 0 0 0 0 0 0 0 0 0 0 0 0 0 0 0 0 0 0 0 11.490908622741699219 11.484198570251464844 11.474400520324707031 11.46936798095703125 11.477028846740722656 11.482922554016113281 11.492665290832519531 11.517986297607421875 11.552996635437011719 11.594054222106933594 11.63767242431640625 11.667263984680175781 11.676593780517578125 11.681110382080078125 11.685491561889648438 11.687321662902832031 11.686255455017089844 11.684110641479492188 11.68169403076171875 11.679002761840820313 11.675559043884277344 11.671978950500488281 11.668702125549316406 11.665326118469238281 11.661433219909667969 11.656586647033691406 11.650053977966308594 11.641297340393066406 11.629944801330566406 11.6159820556640625 11.601118087768554688 11.587856292724609375 11.577681541442871094 11.570070266723632813 11.563950538635253906 11.559871673583984375 11.55621337890625 11.552800178527832031 11.549273490905761719 11.545806884765625 11.540835380554199219 11.533411026000976563 11.524033546447753906 11.511694908142089844 11.495241165161132813 11.474272727966308594 11.450291633605957031 11.42562103271484375 11.402624130249023438 11.38286590576171875 11.365727424621582031 11.349780082702636719 11.335294723510742188 11.322305679321289063 11.311616897583007813 11.30419921875 11.298402786254882813 11.291818618774414063 11.284687042236328125 11.279095649719238281 0 0 0 0 0 0 0 0 0 0 0 0 0 0 0 0 0 0 0 0 0 0 0 0 0 0 0 0 0 0 0 0 0 0 0 0 0 0 0 0 0 0 0 0 0 0 0 0 0 0 0 0 0 0 0 0 0 0 0 0 0 0 0 0 0 0 0 0 0 0 0 0 0 
0 0 0 0 0 0 0 0 0 0 0 0 0 0 0 0 0 0 0 0 0 0 0 0 0 0 0 0 0 0 0 0 0 0 0 0 0 0 0 0 0 0 0 0 0 0 0 0 11.483727455139160156 11.469243049621582031 11.475053787231445313 11.474690437316894531 11.479023933410644531 11.488574028015136719 11.49468994140625 11.5074310302734375 11.535303115844726563 11.575322151184082031 11.616695404052734375 11.650221824645996094 11.669264793395996094 11.676617622375488281 11.682286262512207031 11.686166763305664063 11.686763763427734375 11.684899330139160156 11.68204498291015625 11.678388595581054688 11.673922538757324219 11.668975830078125 11.664456367492675781 11.660726547241210938 11.65761566162109375 11.653890609741210938 11.648530960083007813 11.64038848876953125 11.628653526306152344 11.613475799560546875 11.596192359924316406 11.579135894775390625 11.564536094665527344 11.553365707397460938 11.545590400695800781 11.540497779846191406 11.536728858947753906 11.533296585083007813 11.530701637268066406 11.528601646423339844 11.524763107299804688 11.519029617309570313 11.511687278747558594 11.502428054809570313 11.489085197448730469 11.473364830017089844 11.456013679504394531 11.437903404235839844 11.420474052429199219 11.404225349426269531 11.38872528076171875 11.373620986938476563 11.358797073364257813 11.344468116760253906 11.330968856811523438 11.319997787475585938 11.311712265014648438 0 0 0 0 0 0 0 0 0 0 0 0 0 0 0 0 0 0 0 0 0 0 0 0 0 0 0 0 0 0 0 0 0 0 0 0 0 0 0 0 0 0 0 0 0 0 0 0 0 0 0 0 0 0 0 0 0 0 0 0 0 0 0 0 0 0 0 0 0 0 0 0 0 0 0 0 0 
0 0 0 0 0 0 0 0 0 0 0 0 0 0 0 0 0 0 0 0 0 0 0 0 0 0 0 0 0 0 0 0 0 0 0 0 0 0 0 0 0 0 0 0 0 0 0 0 0 11.447406768798828125 11.45829010009765625 11.472258567810058594 11.478436470031738281 11.486621856689453125 11.502447128295898438 11.518118858337402344 11.549554824829101563 11.593608856201171875 11.630765914916992188 11.656821250915527344 11.6706695556640625 11.678404808044433594 11.684016227722167969 11.686725616455078125 11.686072349548339844 11.68316650390625 11.679094314575195313 11.674122810363769531 11.668844223022460938 11.663796424865722656 11.659152984619140625 11.655399322509765625 11.651784896850585938 11.646848678588867188 11.639047622680664063 11.627085685729980469 11.611897468566894531 11.594922065734863281 11.576864242553710938 11.559597969055175781 11.545198440551757813 11.534168243408203125 11.526330947875976563 11.520664215087890625 11.516255378723144531 11.512866020202636719 11.510258674621582031 11.506658554077148438 11.501461029052734375 11.495662689208984375 11.48897552490234375 11.47971343994140625 11.468393325805664063 11.456602096557617188 11.444184303283691406 11.430567741394042969 11.416606903076171875 11.401903152465820313 11.386996269226074219 11.371913909912109375 11.356718063354492188 11.342206001281738281 11.329827308654785156 0 0 0 0 0 0 0 0 0 0 0 0 0 0 0 0 0 0 0 0 0 0 0 0 0 0 0 0 0 0 0 0 0 0 0 0 0 0 0 0 0 0 0 0 0 0 0 0 0 0 0 0 0 0 0 0 0 0 0 0 0 0 0 0 0 0 0 0 0 0 0 0 0 0 0 0 0 0 0 
0 0 0 0 0 0 0 0 0 0 0 0 0 0 0 0 0 0 0 0 0 0 0 0 0 0 0 0 0 0 0 0 0 0 0 0 0 0 0 0 0 0 0 0 0 0 0 0 0 11.428462982177734375 11.444243431091308594 11.466385841369628906 11.485289573669433594 11.505963325500488281 11.522051811218261719 11.537718772888183594 11.568867683410644531 11.613034248352050781 11.642457962036132813 11.663474082946777344 11.674151420593261719 11.6816558837890625 11.686402320861816406 11.687288284301757813 11.684897422790527344 11.680644035339355469 11.67539215087890625 11.66986083984375 11.66455841064453125 11.659428596496582031 11.654463768005371094 11.649630546569824219 11.643967628479003906 11.635534286499023438 11.623952865600585938 11.610269546508789063 11.596503257751464844 11.581747055053710938 11.56497955322265625 11.549649238586425781 11.537516593933105469 11.527811050415039063 11.518610954284667969 11.509912490844726563 11.502549171447753906 11.497166633605957031 11.492540359497070313 11.487047195434570313 11.481664657592773438 11.476342201232910156 11.468503952026367188 11.45876312255859375 11.449024200439453125 11.439476966857910156 11.428577423095703125 11.416906356811523438 11.405694961547851563 11.392925262451171875 11.379159927368164063 11.364764213562011719 11.351404190063476563 0 0 0 0 0 0 0 0 0 0 0 0 0 0 0 0 0 0 0 0 0 0 0 0 0 0 0 0 0 0 0 0 0 0 0 0 0 0 0 0 0 0 0 0 0 0 0 0 0 0 0 0 0 0 0 0 0 0 0 0 0 0 0 0 0 0 0 0 0 0 0 0 0 0 0 0 0 0 0 0 0 
0 0 0 0 0 0 0 0 0 0 0 0 0 0 0 0 0 0 0 0 0 0 0 0 0 0 0 0 0 0 0 0 0 0 0 0 0 0 0 0 0 0 0 0 0 0 0 0 0 0 11.441858291625976563 11.474528312683105469 11.503405570983886719 11.524061203002929688 11.538845062255859375 11.559849739074707031 11.592388153076171875 11.629439353942871094 11.653874397277832031 11.670844078063964844 11.680070877075195313 11.686270713806152344 11.688524246215820313 11.686894416809082031 11.682718276977539063 11.677407264709472656 11.671378135681152344 11.665563583374023438 11.660056114196777344 11.654183387756347656 11.647371292114257813 11.639966964721679688 11.631399154663085938 11.62079620361328125 11.608639717102050781 11.596582412719726563 11.585341453552246094 11.573410987854003906 11.559518814086914063 11.545370101928710938 11.532946586608886719 11.521169662475585938 11.509607315063476563 11.498681068420410156 11.489835739135742188 11.482151031494140625 11.475439071655273438 11.469984054565429688 11.465185165405273438 11.459360122680664063 11.451239585876464844 11.44205474853515625 11.433415412902832031 11.424560546875 11.414266586303710938 11.403243064880371094 11.392470359802246094 11.380308151245117188 0 0 0 0 0 0 0 0 0 0 0 0 0 0 0 0 0 0 0 0 0 0 0 0 0 0 0 0 0 0 0 0 0 0 0 0 0 0 0 0 0 0 0 0 0 0 0 0 0 0 0 0 0 0 0 0 0 0 0 0 0 0 0 0 0 0 0 0 0 0 0 0 0 0 0 0 0 0 0 0 0 0 0 0 
0 0 0 0 0 0 0 0 0 0 0 0 0 0 0 0 0 0 0 0 0 0 0 0 0 0 0 0 0 0 0 0 0 0 0 0 0 0 0 0 0 0 0 0 0 0 0 0 0 0 11.455884933471679688 11.492076873779296875 11.519626617431640625 11.539257049560546875 11.559289932250976563 11.58646392822265625 11.619032859802246094 11.647953987121582031 11.666982650756835938 11.679439544677734375 11.686275482177734375 11.688914299011230469 11.687705039978027344 11.683840751647949219 11.678092002868652344 11.672099113464355469 11.665484428405761719 11.658772468566894531 11.651607513427734375 11.643713951110839844 11.635540962219238281 11.62702178955078125 11.617641448974609375 11.607229232788085938 11.596769332885742188 11.586377143859863281 11.574794769287109375 11.561032295227050781 11.54549407958984375 11.529480934143066406 11.515185356140136719 11.501678466796875 11.490325927734375 11.482103347778320313 11.473931312561035156 11.465635299682617188 11.459629058837890625 11.455404281616210938 11.451328277587890625 11.446346282958984375 11.438963890075683594 11.429218292236328125 11.417563438415527344 11.405477523803710938 11.394124984741210938 0 0 0 0 0 0 0 0 0 0 0 0 0 0 0 0 0 0 0 0 0 0 0 0 0 0 0 0 0 0 0 0 0 0 0 0 0 0 0 0 0 0 0 0 0 0 0 0 0 0 0 0 0 0 0 0 0 0 0 0 0 0 0 0 0 0 0 0 0 0 0 0 0 0 0 0 0 0 0 0 0 0 0 0 0 0 0 
0 0 0 0 0 0 0 0 0 0 0 0 0 0 0 0 0 0 0 0 0 0 0 0 0 0 0 0 0 0 0 0 0 0 0 0 0 0 0 0 0 0 0 0 0 0 0 0 0 11.455300331115722656 11.490392684936523438 11.524234771728515625 11.548875808715820313 11.569841384887695313 11.593726158142089844 11.621845245361328125 11.64806365966796875 11.667235374450683594 11.679332733154296875 11.686108589172363281 11.688079833984375 11.68611907958984375 11.681538581848144531 11.675549507141113281 11.6689453125 11.66204833984375 11.654625892639160156 11.647515296936035156 11.640058517456054688 11.6317138671875 11.623073577880859375 11.614348411560058594 11.604748725891113281 11.593213081359863281 11.581218719482421875 11.568936347961425781 11.554802894592285156 11.539494514465332031 11.524383544921875 11.511678695678710938 11.50067138671875 11.490549087524414063 11.481467247009277344 11.473679542541503906 11.464489936828613281 11.453120231628417969 11.443406105041503906 11.436876296997070313 11.430415153503417969 11.425784111022949219 11.420091629028320313 11.409605979919433594 11.396668434143066406 0 0 0 0 0 0 0 0 0 0 0 0 0 0 0 0 0 0 0 0 0 0 0 0 0 0 0 0 0 0 0 0 0 0 0 0 0 0 0 0 0 0 0 0 0 0 0 0 0 0 0 0 0 0 0 0 0 0 0 0 0 0 0 0 0 0 0 0 0 0 0 0 0 0 0 0 0 0 0 0 0 0 0 0 0 0 0 0 0 
0 0 0 0 0 0 0 0 0 0 0 0 0 0 0 0 0 0 0 0 0 0 0 0 0 0 0 0 0 0 0 0 0 0 0 0 0 0 0 0 0 0 0 0 0 0 11.450846672058105469 11.456491470336914063 11.470936775207519531 11.500702857971191406 11.532343864440917969 11.559865951538085938 11.582485198974609375 11.605459213256835938 11.62940216064453125 11.652612686157226563 11.669923782348632813 11.680286407470703125 11.685763359069824219 11.686647415161132813 11.683306694030761719 11.677692413330078125 11.671259880065917969 11.664571762084960938 11.657632827758789063 11.650238990783691406 11.642462730407714844 11.635155677795410156 11.627457618713378906 11.618597030639648438 11.608903884887695313 11.598863601684570313 11.587084770202636719 11.574336051940917969 11.562230110168457031 11.551058769226074219 11.538857460021972656 11.527598381042480469 11.517705917358398438 11.508830070495605469 11.499642372131347656 11.490367889404296875 11.481225013732910156 11.471765518188476563 11.460567474365234375 11.447137832641601563 11.434552192687988281 11.424234390258789063 11.413602828979492188 11.407242774963378906 0 0 0 0 0 0 0 0 0 0 0 0 0 0 0 0 0 0 0 0 0 0 0 0 0 0 0 0 0 0 0 0 0 0 0 0 0 0 0 0 0 0 0 0 0 0 0 0 0 0 0 0 0 0 0 0 0 0 0 0 0 0 0 0 0 0 0 0 0 0 0 0 0 0 0 0 0 0 0 0 0 0 0 0 0 0 0 0 0 0 0 0 
0 0 0 0 0 0 0 0 0 0 0 0 0 0 0 0 0 0 0 0 0 0 0 0 0 0 0 0 0 0 0 0 0 0 0 0 0 0 0 0 0 0 0 11.458196640014648438 11.463768959045410156 11.474106788635253906 11.487805366516113281 11.504632949829101563 11.525818824768066406 11.54864501953125 11.57019805908203125 11.591105461120605469 11.612992286682128906 11.635432243347167969 11.656167984008789063 11.672812461853027344 11.681947708129882813 11.684932708740234375 11.6846771240234375 11.680331230163574219 11.673425674438476563 11.665593147277832031 11.657853126525878906 11.650197982788085938 11.642067909240722656 11.633093833923339844 11.62403106689453125 11.615137100219726563 11.606121063232421875 11.596651077270507813 11.586416244506835938 11.575527191162109375 11.564108848571777344 11.552732467651367188 11.54250335693359375 11.5325469970703125 11.520667076110839844 11.509102821350097656 11.4997100830078125 11.490826606750488281 11.479880332946777344 11.469576835632324219 11.462004661560058594 11.453778266906738281 11.441501617431640625 11.428906440734863281 11.417670249938964844 0 0 0 0 0 0 0 0 0 0 0 0 0 0 0 0 0 0 0 0 0 0 0 0 0 0 0 0 0 0 0 0 0 0 0 0 0 0 0 0 0 0 0 0 0 0 0 0 0 0 0 0 0 0 0 0 0 0 0 0 0 0 0 0 0 0 0 0 0 0 0 0 0 0 0 0 0 0 0 0 0 0 0 0 0 0 0 0 0 0 0 0 0 0 0 
0 0 0 0 0 0 0 0 0 0 0 0 0 0 0 0 0 0 0 0 0 0 0 0 0 0 0 0 0 0 0 0 0 0 0 0 11.526328086853027344 0 0 0 11.475168228149414063 11.475275039672851563 11.480446815490722656 11.488950729370117188 11.500158309936523438 11.513392448425292969 11.528738975524902344 11.545485496520996094 11.562025070190429688 11.578273773193359375 11.5955810546875 11.615537643432617188 11.637448310852050781 11.657427787780761719 11.672395706176757813 11.681169509887695313 11.683343887329101563 11.681145668029785156 11.675662040710449219 11.666951179504394531 11.657243728637695313 11.647238731384277344 11.63709259033203125 11.627020835876464844 11.616730690002441406 11.606416702270507813 11.596213340759277344 11.586497306823730469 11.576775550842285156 11.566805839538574219 11.556220054626464844 11.544972419738769531 11.533930778503417969 11.523057937622070313 11.5121002197265625 11.501082420349121094 11.488574981689453125 11.474797248840332031 11.462373733520507813 11.455133438110351563 11.441614151000976563 0 0 0 11.4205474853515625 0 0 0 0 0 0 0 0 0 0 0 0 0 0 0 0 0 0 0 0 0 0 0 0 0 0 0 0 0 0 0 0 0 0 0 0 0 0 0 0 0 0 0 0 0 0 0 0 0 0 0 0 0 0 0 0 0 0 0 0 0 0 0 0 0 0 0 0 0 0 0 0 0 0 0 0 0 0 0 0 0 0 0 0 0 0 0 0 0 0 0 0 0 0 0 0 0 
0 0 0 0 0 0 0 0 0 0 0 0 0 0 0 0 0 0 0 0 0 0 0 0 0 0 0 0 0 0 0 0 0 0 0 0 11.512240409851074219 11.49767303466796875 11.489192962646484375 11.489866256713867188 11.4954986572265625 11.502547264099121094 11.511102676391601563 11.521647453308105469 11.532901763916015625 11.545716285705566406 11.559823989868164063 11.572946548461914063 11.584738731384277344 11.598363876342773438 11.615668296813964844 11.636688232421875 11.657038688659667969 11.671939849853515625 11.679722785949707031 11.680624961853027344 11.675995826721191406 11.667858123779296875 11.65679931640625 11.644754409790039063 11.632908821105957031 11.620333671569824219 11.60790252685546875 11.596014976501464844 11.584139823913574219 11.570932388305664063 11.558818817138671875 11.548544883728027344 11.53943634033203125 11.5296173095703125 11.519948005676269531 11.510471343994140625 11.502282142639160156 11.493845939636230469 11.485726356506347656 11.477232933044433594 0 0 0 0 0 0 0 0 0 0 0 0 0 0 0 0 0 0 0 0 0 0 0 0 0 0 0 0 0 0 0 0 0 0 0 0 0 0 0 0 0 0 0 0 0 0 0 0 0 0 0 0 0 0 0 0 0 0 0 0 0 0 0 0 0 0 0 0 0 0 0 0 0 0 0 0 0 0 0 0 0 0 0 0 0 0 0 0 0 0 0 0 0 0 0 0 0 0 0 0 0 0 0 0 0 0 
